; generated by PrusaSlicer 2.4.2 on 2022-08-06 at 15:32:33 UTC

; 

; external perimeters extrusion width = 0.45mm
; perimeters extrusion width = 0.45mm
; infill extrusion width = 0.45mm
; solid infill extrusion width = 0.45mm
; top infill extrusion width = 0.40mm
; first layer extrusion width = 0.42mm

; external perimeters extrusion width = 0.45mm
; perimeters extrusion width = 0.45mm
; infill extrusion width = 0.45mm
; solid infill extrusion width = 0.45mm
; top infill extrusion width = 0.40mm
; first layer extrusion width = 0.42mm

; external perimeters extrusion width = 0.45mm
; perimeters extrusion width = 0.45mm
; infill extrusion width = 0.45mm
; solid infill extrusion width = 0.45mm
; top infill extrusion width = 0.40mm
; first layer extrusion width = 0.42mm

; external perimeters extrusion width = 0.45mm
; perimeters extrusion width = 0.45mm
; infill extrusion width = 0.45mm
; solid infill extrusion width = 0.45mm
; top infill extrusion width = 0.40mm
; first layer extrusion width = 0.42mm

; external perimeters extrusion width = 0.45mm
; perimeters extrusion width = 0.45mm
; infill extrusion width = 0.45mm
; solid infill extrusion width = 0.45mm
; top infill extrusion width = 0.40mm
; first layer extrusion width = 0.42mm

M107
M190 S60 ; set bed temperature and wait for it to be reached
M104 S215 ; set temperature
;TYPE:Custom
G28 ; home all axes
G1 Z5 F5000 ; lift nozzle
M109 S215 ; set temperature and wait for it to be reached
G21 ; set units to millimeters
G90 ; use absolute coordinates
M82 ; use absolute distances for extrusion
G92 E0
; Filament gcode
M107
;LAYER_CHANGE
;Z:0.35
;HEIGHT:0.35
G1 Z.35 F7800
G1 E-2 F2400
G92 E0
G1 Z3.35 F7800
G1 X28.865 Y28.505
G1 Z.35
G1 E2 F2400
;TYPE:Skirt/Brim
;WIDTH:0.42
G1 F1800
G1 X30.138 Y27.384 E2.08512
G1 X31.004 Y26.744 E2.13913
G1 X32.397 Y25.886 E2.22127
G1 X33.409 Y25.371 E2.27825
G1 X34.983 Y24.738 E2.36337
G1 X36.012 Y24.423 E2.41738
G1 X37.67 Y24.066 E2.5025
G1 X38.737 Y23.929 E2.5565
G1 X40.705 Y23.851 E2.65534
G1 X362.276 Y24.048 E18.79366
G1 X364.76 Y24.315 E18.91906
G1 X365.812 Y24.541 E18.97306
G1 X367.434 Y25.038 E19.05819
G1 X368.432 Y25.439 E19.1122
G1 X369.947 Y26.203 E19.19732
G1 X370.863 Y26.767 E19.25133
G1 X372.227 Y27.776 E19.33645
G1 X373.035 Y28.487 E19.39046
G1 X374.208 Y29.711 E19.47558
G1 X374.884 Y30.549 E19.52959
G1 X375.834 Y31.954 E19.61471
G1 X376.359 Y32.893 E19.66872
G1 X377.058 Y34.439 E19.75384
G1 X377.416 Y35.454 E19.80784
G1 X377.844 Y37.095 E19.89296
G1 X378.025 Y38.156 E19.94698
G1 X378.192 Y40.425 E20.06115
G1 X376.138 Y359.309 E36.06497
G1 X375.971 Y361.496 E36.17505
G1 X375.789 Y362.557 E36.22907
G1 X375.362 Y364.198 E36.31419
G1 X375.003 Y365.213 E36.36819
G1 X374.305 Y366.758 E36.45332
G1 X373.78 Y367.698 E36.50732
G1 X372.83 Y369.103 E36.59244
G1 X372.154 Y369.94 E36.64646
G1 X370.981 Y371.165 E36.73158
G1 X370.173 Y371.876 E36.78558
G1 X368.809 Y372.884 E36.87071
G1 X367.893 Y373.449 E36.92471
G1 X366.378 Y374.212 E37.00983
G1 X365.379 Y374.614 E37.06385
G1 X363.758 Y375.11 E37.14897
G1 X362.706 Y375.337 E37.20297
G1 X360.227 Y375.604 E37.32809
G1 X41.802 Y376.086 E53.30855
G1 X39.829 Y376.008 E53.40767
G1 X38.761 Y375.871 E53.46167
G1 X37.103 Y375.514 E53.54679
G1 X36.074 Y375.199 E53.6008
G1 X34.5 Y374.566 E53.68593
G1 X33.54 Y374.082 E53.73993
G1 X32.095 Y373.193 E53.82505
G1 X31.23 Y372.553 E53.87906
G1 X29.957 Y371.432 E53.96418
G1 X29.212 Y370.655 E54.01819
G1 X28.147 Y369.335 E54.10331
G1 X27.544 Y368.444 E54.15732
G1 X26.717 Y366.963 E54.24244
G1 X26.274 Y365.983 E54.29645
G1 X25.708 Y364.383 E54.38157
G1 X25.437 Y363.342 E54.43558
G1 X25.151 Y361.67 E54.5207
G1 X25.059 Y360.619 E54.57363
G1 X23.968 Y39.339 E70.69746
G1 X24.059 Y38.267 E70.75147
G1 X24.346 Y36.595 E70.83659
G1 X24.617 Y35.554 E70.8906
G1 X25.182 Y33.955 E70.97572
G1 X25.625 Y32.974 E71.02973
G1 X26.452 Y31.493 E71.11485
G1 X27.055 Y30.602 E71.16886
G1 X28.12 Y29.282 E71.25398
G1 X28.824 Y28.548 E71.30498
G1 E69.30498 F2400
G92 E0
G1 Z3.35 F7800
G1 X33.711 Y33.891
G1 Z.35
G1 E2 F2400
;TYPE:Perimeter
G1 F1800
G1 X34.867 Y32.873 E2.0773
G1 X36.181 Y32.064 E2.15474
G1 X37.613 Y31.489 E2.23217
G1 X39.119 Y31.165 E2.30948
G1 X40.719 Y31.106 E2.38985
G1 X42.193 Y31.295 E2.46444
G1 X43.668 Y31.746 E2.54187
G1 X45.046 Y32.441 E2.6193
G1 X46.287 Y33.358 E2.69674
G1 X47.354 Y34.472 E2.77417
G1 X48.218 Y35.751 E2.85161
G1 X48.854 Y37.157 E2.92904
G1 X49.243 Y38.65 E3.00648
G1 X49.374 Y40.187 E3.08391
G1 X49.243 Y41.725 E3.16135
G1 X48.854 Y43.218 E3.23878
G1 X48.218 Y44.624 E3.31622
G1 X47.354 Y45.902 E3.39365
G1 X46.287 Y47.016 E3.47108
G1 X45.046 Y47.934 E3.54852
G1 X43.668 Y48.628 E3.62595
G1 X42.193 Y49.08 E3.70339
G1 X40.663 Y49.276 E3.78082
G1 X39.121 Y49.211 E3.85826
G1 X37.613 Y48.886 E3.93569
G1 X36.181 Y48.31 E4.01313
G1 X34.867 Y47.501 E4.09056
G1 X33.709 Y46.482 E4.168
G1 X32.74 Y45.281 E4.24543
G1 X31.987 Y43.934 E4.32286
G1 X31.473 Y42.48 E4.4003
G1 X31.212 Y40.959 E4.47774
G1 X31.212 Y39.416 E4.55517
G1 X31.473 Y37.895 E4.6326
G1 X31.987 Y36.44 E4.71004
G1 X32.712 Y35.143 E4.78462
G1 X33.673 Y33.938 E4.86198
G1 X33.46 Y33.652 F7800
G1 F1800
G1 X34.661 Y32.595 E4.94229
G1 X36.025 Y31.755 E5.02267
G1 X37.511 Y31.158 E5.10305
G1 X39.076 Y30.821 E5.18335
G1 X40.735 Y30.76 E5.26667
G1 X42.266 Y30.956 E5.34415
G1 X43.797 Y31.425 E5.42453
G1 X45.228 Y32.146 E5.50491
G1 X46.515 Y33.099 E5.58529
G1 X47.624 Y34.255 E5.66567
G1 X48.521 Y35.582 E5.74605
G1 X49.18 Y37.041 E5.82643
G1 X49.584 Y38.591 E5.90682
G1 X49.72 Y40.187 E5.9872
G1 X49.584 Y41.783 E6.06758
G1 X49.18 Y43.333 E6.14796
G1 X48.521 Y44.793 E6.22834
G1 X47.624 Y46.12 E6.30872
G1 X46.515 Y47.276 E6.3891
G1 X45.228 Y48.228 E6.46948
G1 X43.797 Y48.949 E6.54986
G1 X42.266 Y49.418 E6.63024
G1 X40.677 Y49.622 E6.71062
G1 X39.077 Y49.554 E6.791
G1 X37.511 Y49.217 E6.87139
G1 X36.025 Y48.619 E6.95177
G1 X34.661 Y47.78 E7.03215
G1 X33.459 Y46.721 E7.11253
G1 X32.453 Y45.475 E7.19291
G1 X31.672 Y44.077 E7.27329
G1 X31.138 Y42.567 E7.35367
G1 X30.867 Y40.988 E7.43405
G1 X30.867 Y39.386 E7.51443
G1 X31.138 Y37.808 E7.59481
G1 X31.672 Y36.298 E7.6752
G1 X32.425 Y34.95 E7.75268
G1 X33.423 Y33.699 E7.83298
G1 X33.21 Y33.413 F7800
;TYPE:External perimeter
G1 F1800
G1 X34.456 Y32.317 E7.91628
G1 X35.869 Y31.446 E7.99961
G1 X37.41 Y30.827 E8.08294
G1 X39.033 Y30.477 E8.16623
G1 X40.75 Y30.414 E8.2525
G1 X42.339 Y30.618 E8.33288
G1 X43.927 Y31.104 E8.4162
G1 X45.409 Y31.851 E8.49953
G1 X46.744 Y32.839 E8.58286
G1 X47.893 Y34.038 E8.66619
G1 X48.823 Y35.413 E8.74951
G1 X49.507 Y36.926 E8.83284
G1 X49.925 Y38.533 E8.91617
G1 X50.066 Y40.187 E8.99949
G1 X49.925 Y41.842 E9.08282
G1 X49.507 Y43.448 E9.16615
G1 X48.823 Y44.961 E9.24948
G1 X47.893 Y46.337 E9.3328
G1 X46.744 Y47.536 E9.41613
G1 X45.409 Y48.523 E9.49946
G1 X43.927 Y49.271 E9.58279
G1 X42.339 Y49.757 E9.66611
G1 X40.692 Y49.968 E9.74944
G1 X39.033 Y49.897 E9.83277
G1 X37.41 Y49.547 E9.91609
G1 X35.869 Y48.928 E9.99942
G1 X34.456 Y48.058 E10.08275
G1 X33.209 Y46.961 E10.16608
G1 X32.166 Y45.669 E10.2494
G1 X31.356 Y44.22 E10.33273
G1 X30.803 Y42.654 E10.41606
G1 X30.523 Y41.017 E10.49939
G1 X30.523 Y39.357 E10.58271
G1 X30.803 Y37.721 E10.66604
G1 X31.356 Y36.155 E10.74937
G1 X32.137 Y34.757 E10.82975
G1 X33.172 Y33.46 E10.913
G1 X33.598 Y33.509 F7800
G1 E8.913 F2400
G92 E0
G1 Z3.35 F7800
G1 X47.638 Y35.076
G1 Z.35
G1 E2 F2400
;TYPE:Solid infill
;WIDTH:0.421276
G1 F1800
G1 X46.113 Y33.552 E2.10862
G1 X44.91 Y32.662 E2.18398
G1 X44.554 Y32.483 E2.20404
G1 X48.027 Y35.955 E2.45141
G1 X48.431 Y36.849 E2.50079
G1 X43.568 Y31.986 E2.84717
G1 X42.863 Y31.77 E2.88434
G1 X48.705 Y37.613 E3.30055
G1 X48.878 Y38.275 E3.335
G1 X42.157 Y31.554 E3.81375
G1 X41.592 Y31.478 E3.84248
G1 X49.004 Y38.89 E4.37046
G1 X49.049 Y39.425 E4.39751
G1 X41.03 Y31.406 E4.96873
G1 X40.707 Y31.365 E4.98514
G1 X40.507 Y31.372 E4.99525
G1 X49.095 Y39.96 E5.60701
G1 X49.114 Y40.187 E5.61849
G1 X49.092 Y40.447 E5.63162
G1 X40.035 Y31.39 E6.27682
G1 X39.562 Y31.407 E6.30062
G1 X49.053 Y40.898 E6.97673
G1 X49.015 Y41.349 E6.99954
G1 X39.099 Y31.433 E7.70591
G1 X38.696 Y31.52 E7.72666
G1 X48.96 Y41.784 E8.4578
G1 X48.859 Y42.172 E8.47802
G1 X38.294 Y31.607 E9.23065
G1 X37.891 Y31.694 E9.2514
G1 X48.758 Y42.561 E10.02552
G1 X48.657 Y42.949 E10.04574
G1 X37.515 Y31.807 E10.83944
G1 X37.166 Y31.948 E10.8584
G1 X48.528 Y43.31 E11.66783
G1 X48.376 Y43.647 E11.68647
G1 X36.816 Y32.088 E12.50993
G1 X36.467 Y32.228 E12.52888
G1 X48.223 Y43.985 E13.36636
G1 X48.071 Y44.322 E13.385
G1 X36.142 Y32.392 E14.2348
G1 X35.839 Y32.579 E14.25272
G1 X47.897 Y44.637 E15.11171
G1 X47.7 Y44.929 E15.12947
G1 X35.536 Y32.765 E15.99598
G1 X35.233 Y32.952 E16.0139
G1 X47.502 Y45.222 E16.88793
G1 X47.305 Y45.514 E16.90569
G1 X34.943 Y33.152 E17.78632
G1 X34.682 Y33.381 E17.80379
G1 X47.098 Y45.796 E18.68822
G1 X46.858 Y46.046 E18.70566
G1 X34.422 Y33.61 E19.59157
G1 X34.162 Y33.839 E19.60904
G1 X46.619 Y46.296 E20.49644
G1 X46.379 Y46.546 E20.51388
G1 X33.899 Y34.07 E21.40276
G1 X33.683 Y34.34 E21.42016
G1 X46.139 Y46.796 E22.30747
G1 X45.862 Y47.008 E22.32506
G1 X33.466 Y34.612 E23.2081
G1 X33.249 Y34.885 E23.22565
G1 X45.581 Y47.217 E24.10413
G1 X45.299 Y47.425 E24.12176
G1 X33.032 Y35.157 E24.99567
G1 X32.927 Y35.287 E25.00408
G1 X32.836 Y35.451 E25.01351
G1 X45.018 Y47.633 E25.8813
G1 X44.91 Y47.713 E25.88806
G1 X44.709 Y47.814 E25.89938
G1 X32.661 Y35.765 E26.75769
G1 X32.485 Y36.079 E26.77581
G1 X44.384 Y47.978 E27.62343
G1 X44.058 Y48.142 E27.64179
G1 X32.31 Y36.393 E28.47873
G1 X32.224 Y36.547 E28.48762
G1 X32.159 Y36.732 E28.49747
G1 X43.733 Y48.306 E29.32199
G1 X43.572 Y48.387 E29.33109
G1 X43.383 Y48.445 E29.34104
G1 X32.031 Y37.093 E30.14972
G1 X31.903 Y37.455 E30.16904
G1 X43.008 Y48.56 E30.96012
G1 X42.633 Y48.675 E30.97986
G1 X31.775 Y37.817 E31.75335
G1 X31.724 Y37.96 E31.76102
G1 X31.681 Y38.212 E31.7739
G1 X42.258 Y48.79 E32.52738
G1 X42.138 Y48.826 E32.5337
G1 X41.843 Y48.864 E32.54868
G1 X31.609 Y38.63 E33.2777
G1 X31.538 Y39.048 E33.29906
G1 X41.409 Y48.92 E34.00227
G1 X40.975 Y48.975 E34.02431
G1 X31.471 Y39.471 E34.70136
G1 X31.471 Y39.96 E34.72602
G1 X40.522 Y49.011 E35.37076
G1 X40.011 Y48.99 E35.39654
G1 X31.471 Y40.45 E36.00486
G1 X31.472 Y40.94 E36.02955
G1 X39.499 Y48.968 E36.60141
G1 X39.154 Y48.953 E36.61881
G1 X38.951 Y48.909 E36.62926
G1 X31.573 Y41.531 E37.15487
G1 X31.674 Y42.122 E37.18507
G1 X38.327 Y48.775 E37.65901
G1 X37.703 Y48.64 E37.69116
G1 X31.86 Y42.797 E38.10745
G1 X32.127 Y43.554 E38.14789
G1 X36.889 Y48.316 E38.48714
G1 X36.298 Y48.078 E38.51925
G1 X35.945 Y47.861 E38.54015
G1 X32.619 Y44.536 E38.77703
G1 X32.955 Y45.136 E38.81168
G1 X33.896 Y46.302 E38.88716
G1 X35.145 Y47.551 E38.97612
G1 E36.97612 F2400
G92 E0
G1 Z3.35 F7800
G1 X41.811 Y350.668
G1 Z.35
G1 E2 F2400
;TYPE:Perimeter
;WIDTH:0.42
G1 F1800
G1 X43.285 Y350.857 E2.07459
G1 X44.76 Y351.309 E2.15202
G1 X46.138 Y352.003 E2.22945
G1 X47.378 Y352.921 E2.30689
G1 X48.446 Y354.035 E2.38432
G1 X49.31 Y355.313 E2.46176
G1 X49.946 Y356.719 E2.53919
G1 X50.334 Y358.212 E2.61663
G1 X50.465 Y359.75 E2.69406
G1 X50.334 Y361.287 E2.7715
G1 X49.946 Y362.78 E2.84893
G1 X49.31 Y364.186 E2.92637
G1 X48.446 Y365.465 E3.0038
G1 X47.378 Y366.579 E3.08123
G1 X46.138 Y367.496 E3.15867
G1 X44.76 Y368.191 E3.2361
G1 X43.285 Y368.643 E3.31354
G1 X41.754 Y368.839 E3.39097
G1 X40.213 Y368.773 E3.46841
G1 X38.704 Y368.448 E3.54584
G1 X37.273 Y367.873 E3.62328
G1 X35.959 Y367.064 E3.70071
G1 X34.801 Y366.044 E3.77815
G1 X33.831 Y364.844 E3.85558
G1 X33.079 Y363.497 E3.93301
G1 X32.565 Y362.042 E4.01045
G1 X32.304 Y360.521 E4.08789
G1 X32.304 Y358.978 E4.16532
G1 X32.565 Y357.458 E4.24275
G1 X33.079 Y356.003 E4.32019
G1 X33.804 Y354.705 E4.39477
G1 X34.803 Y353.453 E4.47515
G1 X35.959 Y352.436 E4.55245
G1 X37.273 Y351.627 E4.62988
G1 X38.704 Y351.052 E4.70732
G1 X40.21 Y350.727 E4.78462
G1 X41.751 Y350.67 E4.86198
G1 X41.826 Y350.322 F7800
G1 F1800
G1 X43.358 Y350.519 E4.93947
G1 X44.889 Y350.988 E5.01985
G1 X46.319 Y351.709 E5.10023
G1 X47.607 Y352.661 E5.18061
G1 X48.715 Y353.817 E5.26099
G1 X49.612 Y355.144 E5.34137
G1 X50.272 Y356.604 E5.42175
G1 X50.676 Y358.154 E5.50213
G1 X50.811 Y359.75 E5.58251
G1 X50.676 Y361.346 E5.6629
G1 X50.272 Y362.896 E5.74328
G1 X49.612 Y364.355 E5.82366
G1 X48.715 Y365.682 E5.90404
G1 X47.607 Y366.838 E5.98442
G1 X46.319 Y367.791 E6.0648
G1 X44.889 Y368.512 E6.14518
G1 X43.358 Y368.981 E6.22556
G1 X41.769 Y369.184 E6.30594
G1 X40.169 Y369.116 E6.38632
G1 X38.603 Y368.779 E6.4667
G1 X37.117 Y368.182 E6.54709
G1 X35.753 Y367.342 E6.62747
G1 X34.551 Y366.284 E6.70785
G1 X33.545 Y365.038 E6.78823
G1 X32.763 Y363.639 E6.86861
G1 X32.23 Y362.129 E6.94899
G1 X31.959 Y360.551 E7.02937
G1 X31.959 Y358.949 E7.10975
G1 X32.23 Y357.37 E7.19013
G1 X32.763 Y355.86 E7.27051
G1 X33.516 Y354.512 E7.348
G1 X34.552 Y353.215 E7.43131
G1 X35.753 Y352.158 E7.51162
G1 X37.117 Y351.318 E7.592
G1 X38.603 Y350.721 E7.67238
G1 X40.167 Y350.383 E7.75268
G1 X41.766 Y350.325 E7.83298
G1 X41.842 Y349.977 F7800
;TYPE:External perimeter
G1 F1800
G1 X43.431 Y350.18 E7.91336
G1 X45.018 Y350.666 E7.99669
G1 X46.501 Y351.414 E8.08002
G1 X47.836 Y352.401 E8.16335
G1 X48.985 Y353.6 E8.24667
G1 X49.914 Y354.976 E8.33
G1 X50.598 Y356.489 E8.41333
G1 X51.017 Y358.095 E8.49665
G1 X51.157 Y359.75 E8.57998
G1 X51.017 Y361.404 E8.66331
G1 X50.598 Y363.011 E8.74664
G1 X49.914 Y364.524 E8.82996
G1 X48.985 Y365.9 E8.91329
G1 X47.836 Y367.098 E8.99662
G1 X46.501 Y368.086 E9.07995
G1 X45.018 Y368.833 E9.16327
G1 X43.431 Y369.319 E9.2466
G1 X41.784 Y369.53 E9.32993
G1 X40.125 Y369.46 E9.41325
G1 X38.502 Y369.11 E9.49658
G1 X36.961 Y368.491 E9.57991
G1 X35.547 Y367.62 E9.66324
G1 X34.301 Y366.523 E9.74656
G1 X33.258 Y365.231 E9.82989
G1 X32.448 Y363.782 E9.91322
G1 X31.895 Y362.216 E9.99655
G1 X31.614 Y360.58 E10.07987
G1 X31.614 Y358.92 E10.1632
G1 X31.895 Y357.283 E10.24653
G1 X32.448 Y355.718 E10.32986
G1 X33.229 Y354.319 E10.41023
G1 X34.301 Y352.976 E10.4965
G1 X35.547 Y351.879 E10.5798
G1 X36.961 Y351.009 E10.66312
G1 X38.502 Y350.39 E10.74645
G1 X40.124 Y350.04 E10.82975
G1 X41.782 Y349.979 E10.913
G1 X42.027 Y350.332 F7800
G1 E8.913 F2400
G92 E0
G1 Z3.35 F7800
G1 X48.729 Y354.639
G1 Z.35
G1 E2 F2400
;TYPE:Solid infill
;WIDTH:0.421276
G1 F1800
G1 X47.205 Y353.114 E2.10862
G1 X46.002 Y352.224 E2.18398
G1 X45.646 Y352.045 E2.20404
G1 X49.119 Y355.518 E2.45141
G1 X49.522 Y356.411 E2.50079
G1 X44.66 Y351.549 E2.84717
G1 X43.954 Y351.333 E2.88434
G1 X49.797 Y357.175 E3.30055
G1 X49.969 Y357.837 E3.335
G1 X43.249 Y351.116 E3.81375
G1 X42.683 Y351.041 E3.84248
G1 X50.095 Y358.452 E4.37046
G1 X50.141 Y358.988 E4.39751
G1 X42.122 Y350.969 E4.96873
G1 X41.799 Y350.927 E4.98514
G1 X41.598 Y350.935 E4.99525
G1 X50.186 Y359.523 E5.60701
G1 X50.206 Y359.75 E5.61849
G1 X50.184 Y360.009 E5.63162
G1 X41.126 Y350.952 E6.27682
G1 X40.654 Y350.97 E6.30062
G1 X50.145 Y360.461 E6.97673
G1 X50.107 Y360.912 E6.99954
G1 X40.191 Y350.996 E7.70591
G1 X39.788 Y351.083 E7.72666
G1 X50.052 Y361.346 E8.4578
G1 X49.951 Y361.735 E8.47802
G1 X39.385 Y351.169 E9.23065
G1 X38.983 Y351.256 E9.2514
G1 X49.849 Y362.123 E10.02552
G1 X49.748 Y362.511 E10.04574
G1 X38.606 Y351.37 E10.83944
G1 X38.257 Y351.51 E10.8584
G1 X49.62 Y362.873 E11.66783
G1 X49.468 Y363.21 E11.68647
G1 X37.908 Y351.65 E12.50993
G1 X37.559 Y351.791 E12.52888
G1 X49.315 Y363.547 E13.36636
G1 X49.163 Y363.884 E13.385
G1 X37.233 Y351.955 E14.2348
G1 X36.93 Y352.141 E14.25272
G1 X48.989 Y364.2 E15.11171
G1 X48.791 Y364.492 E15.12947
G1 X36.627 Y352.328 E15.99598
G1 X36.324 Y352.514 E16.0139
G1 X48.594 Y364.784 E16.88793
G1 X48.396 Y365.076 E16.90569
G1 X36.034 Y352.714 E17.78632
G1 X35.774 Y352.943 E17.80379
G1 X48.189 Y365.359 E18.68822
G1 X47.95 Y365.609 E18.70566
G1 X35.514 Y353.172 E19.59157
G1 X35.253 Y353.401 E19.60904
G1 X47.71 Y365.859 E20.49644
G1 X47.471 Y366.108 E20.51388
G1 X34.991 Y353.633 E21.40276
G1 X34.775 Y353.903 E21.42016
G1 X47.231 Y366.358 E22.30747
G1 X46.954 Y366.571 E22.32506
G1 X34.558 Y354.175 E23.2081
G1 X34.341 Y354.447 E23.22565
G1 X46.672 Y366.779 E24.10413
