; generated by PrusaSlicer 2.4.2 on 2022-08-30 at 01:54:24 UTC

; 

; external perimeters extrusion width = 0.45mm
; perimeters extrusion width = 0.45mm
; infill extrusion width = 0.45mm
; solid infill extrusion width = 0.45mm
; top infill extrusion width = 0.40mm
; first layer extrusion width = 0.42mm

; external perimeters extrusion width = 0.45mm
; perimeters extrusion width = 0.45mm
; infill extrusion width = 0.45mm
; solid infill extrusion width = 0.45mm
; top infill extrusion width = 0.40mm
; first layer extrusion width = 0.42mm

M107
M190 S60 ; set bed temperature and wait for it to be reached
M104 S215 ; set temperature
;TYPE:Custom
G28 ; home all axes
G1 Z5 F5000 ; lift nozzle
M109 S215 ; set temperature and wait for it to be reached
G21 ; set units to millimeters
G90 ; use absolute coordinates
M82 ; use absolute distances for extrusion
G92 E0
; Filament gcode
M107
;LAYER_CHANGE
;Z:0.35
;HEIGHT:0.35
G1 Z.35 F7800
G1 E-2 F2400
G92 E0
G1 Z3.35 F7800
G1 X154.178 Y173.613
G1 Z.35
G1 E2 F2400
;TYPE:Skirt/Brim
;WIDTH:0.42
G1 F1800
G1 X155.374 Y172.675 E2.07628
G1 X156.087 Y172.242 E2.11813
G1 X158.31 Y171.142 E2.24258
G1 X159.469 Y170.701 E2.30484
G1 X161.048 Y170.232 E2.38751
G1 X162.993 Y169.85 E2.48698
G1 X164.317 Y169.704 E2.55384
G1 X177.018 Y169.648 E3.19123
G1 X234.217 Y170.189 E6.06192
G1 X236.664 Y170.484 E6.18564
G1 X237.867 Y170.751 E6.2475
G1 X239.441 Y171.228 E6.33004
G1 X241.708 Y172.197 E6.45373
G1 X243.481 Y173.22 E6.55649
G1 X244.492 Y173.928 E6.61841
G1 X245.764 Y174.972 E6.701
G1 X247.213 Y176.421 E6.80385
G1 X248.734 Y178.358 E6.92746
G1 X249.604 Y179.758 E7.01018
G1 X250.51 Y181.595 E7.11296
G1 X251.091 Y183.137 E7.19567
G1 X251.701 Y185.522 E7.31919
G1 X251.969 Y187.552 E7.42198
G1 X252.026 Y188.993 E7.49432
G1 X251.976 Y215.251 E8.81212
G1 X251.678 Y217.3 E8.91606
G1 X251.115 Y219.296 E9.02012
G1 X250.738 Y220.258 E9.072
G1 X250.007 Y221.74 E9.15493
G1 X248.878 Y223.479 E9.25897
G1 X247.957 Y224.601 E9.33179
G1 X246.475 Y226.045 E9.43566
G1 X245.158 Y227.055 E9.51896
G1 X243.382 Y228.112 E9.62268
G1 X242.059 Y228.712 E9.69557
G1 X240.491 Y229.244 E9.77868
G1 X239.078 Y229.574 E9.85151
G1 X237.022 Y229.817 E9.95538
G1 X180.018 Y230.352 E12.81632
G1 X162.553 Y230.349 E13.69283
G1 X161.413 Y230.293 E13.7501
G1 X159.776 Y230.075 E13.83299
G1 X157.311 Y229.415 E13.96104
G1 X155.346 Y228.572 E14.06834
G1 X154.41 Y228.056 E14.12201
G1 X152.977 Y227.098 E14.20849
G1 X151.829 Y226.157 E14.28298
G1 X150.337 Y224.626 E14.39027
G1 X149.288 Y223.259 E14.47675
G1 X148.504 Y221.998 E14.55124
G1 X147.742 Y220.453 E14.63773
G1 X147.219 Y219.064 E14.71222
G1 X146.773 Y217.399 E14.79871
G1 X146.531 Y215.935 E14.8732
G1 X146.415 Y214.007 E14.97009
G1 X146.445 Y187.956 E16.27752
G1 X146.604 Y186.316 E16.36019
G1 X146.835 Y185.004 E16.42705
G1 X147.341 Y183.088 E16.52652
G1 X147.91 Y181.542 E16.60918
G1 X149.01 Y179.319 E16.73364
G1 X149.442 Y178.607 E16.77548
G1 X150.381 Y177.411 E16.85177
G1 X154.136 Y173.655 E17.1183
G1 E15.1183 F2400
G92 E0
G1 Z3.35 F7800
G1 X178.637 Y217.121
G1 Z.35
G1 E2 F2400
;TYPE:Perimeter
G1 F1800
G1 X179.035 Y216.897 E2.02291
G1 X179.457 Y216.76 E2.04519
G1 X179.799 Y216.711 E2.06256
G1 X180.228 Y216.719 E2.08405
G1 X180.672 Y216.816 E2.10689
G1 X181.09 Y216.999 E2.1298
G1 X181.464 Y217.262 E2.15271
G1 X181.779 Y217.592 E2.17561
G1 X182.022 Y217.978 E2.19852
G1 X182.184 Y218.405 E2.22143
G1 X182.259 Y218.855 E2.24434
G1 X182.244 Y219.311 E2.26724
G1 X182.14 Y219.756 E2.29015
G1 X181.949 Y220.171 E2.31306
G1 X181.681 Y220.54 E2.33596
G1 X181.345 Y220.849 E2.35887
G1 X180.955 Y221.086 E2.38178
G1 X180.526 Y221.241 E2.40469
G1 X180.074 Y221.309 E2.42759
G1 X179.619 Y221.286 E2.4505
G1 X179.176 Y221.174 E2.47341
G1 X178.764 Y220.977 E2.49632
G1 X178.4 Y220.703 E2.51922
G1 X178.096 Y220.362 E2.54213
G1 X177.866 Y219.968 E2.56504
G1 X177.717 Y219.536 E2.58794
G1 X177.657 Y219.084 E2.61085
G1 X177.687 Y218.628 E2.63375
G1 X177.807 Y218.188 E2.65666
G1 X178.011 Y217.779 E2.67957
G1 X178.291 Y217.419 E2.70248
G1 X178.591 Y217.16 E2.72237
G1 X178.866 Y217.388 F7800
G1 F1800
G1 X179.174 Y217.215 E2.74011
G1 X179.535 Y217.097 E2.75919
G1 X179.821 Y217.056 E2.77367
G1 X180.187 Y217.063 E2.79205
G1 X180.565 Y217.146 E2.81147
G1 X180.92 Y217.301 E2.83093
G1 X181.238 Y217.524 E2.85039
G1 X181.505 Y217.805 E2.86985
G1 X181.712 Y218.133 E2.88932
G1 X181.85 Y218.496 E2.90878
G1 X181.914 Y218.878 E2.92824
G1 X181.901 Y219.266 E2.9477
G1 X181.812 Y219.643 E2.96716
G1 X181.65 Y219.996 E2.98662
G1 X181.422 Y220.309 E3.00608
G1 X181.137 Y220.572 E3.02555
G1 X180.805 Y220.773 E3.04501
G1 X180.441 Y220.905 E3.06447
G1 X180.057 Y220.963 E3.08393
G1 X179.67 Y220.943 E3.10339
G1 X179.294 Y220.848 E3.12286
G1 X178.944 Y220.681 E3.14232
G1 X178.634 Y220.448 E3.16178
G1 X178.376 Y220.158 E3.18124
G1 X178.181 Y219.823 E3.2007
G1 X178.055 Y219.457 E3.22016
G1 X178.004 Y219.072 E3.23962
G1 X178.029 Y218.685 E3.25908
G1 X178.131 Y218.311 E3.27855
G1 X178.304 Y217.964 E3.29801
G1 X178.542 Y217.658 E3.31747
G1 X178.816 Y217.422 E3.33564
G1 X179.035 Y217.689 F7800
;TYPE:External perimeter
G1 F1800
G1 X179.313 Y217.532 E3.35166
G1 X179.614 Y217.434 E3.36753
G1 X179.842 Y217.401 E3.37912
G1 X180.147 Y217.407 E3.39439
G1 X180.458 Y217.475 E3.41039
G1 X180.75 Y217.604 E3.4264
G1 X181.012 Y217.787 E3.44242
G1 X181.232 Y218.018 E3.45844
G1 X181.402 Y218.288 E3.47445
G1 X181.515 Y218.586 E3.49047
G1 X181.568 Y218.901 E3.50648
G1 X181.557 Y219.22 E3.5225
G1 X181.484 Y219.531 E3.53852
G1 X181.351 Y219.821 E3.55453
G1 X181.163 Y220.079 E3.57055
G1 X180.929 Y220.295 E3.58656
G1 X180.656 Y220.461 E3.60258
G1 X180.356 Y220.569 E3.6186
G1 X180.04 Y220.617 E3.63461
G1 X179.721 Y220.601 E3.65063
G1 X179.412 Y220.522 E3.66664
G1 X179.124 Y220.385 E3.68266
G1 X178.869 Y220.193 E3.69867
G1 X178.657 Y219.954 E3.71469
G1 X178.496 Y219.679 E3.73071
G1 X178.392 Y219.377 E3.74672
G1 X178.35 Y219.061 E3.76274
G1 X178.371 Y218.742 E3.77875
G1 X178.455 Y218.434 E3.79477
G1 X178.597 Y218.149 E3.81079
G1 X178.793 Y217.897 E3.8268
G1 X178.989 Y217.728 E3.83981
G1 X179.007 Y217.371 F7800
G1 E1.83981 F2400
G92 E0
G1 Z3.35 F7800
G1 X165.031 Y218.62
G1 Z.35
G1 E2 F2400
;TYPE:Perimeter
G1 F1800
G1 X165.063 Y219 E2.01914
G1 X165.031 Y219.393 E2.03891
G1 X164.914 Y219.827 E2.06149
G1 X164.71 Y220.236 E2.0844
G1 X164.429 Y220.596 E2.1073
G1 X164.084 Y220.894 E2.13021
G1 X163.686 Y221.118 E2.15312
G1 X163.252 Y221.259 E2.17603
G1 X162.798 Y221.311 E2.19893
G1 X162.343 Y221.274 E2.22184
G1 X161.905 Y221.147 E2.24475
G1 X161.5 Y220.937 E2.26766
G1 X161.144 Y220.65 E2.29056
G1 X160.852 Y220.3 E2.31347
G1 X160.635 Y219.898 E2.33638
G1 X160.501 Y219.462 E2.35928
G1 X160.456 Y219.008 E2.38219
G1 X160.501 Y218.553 E2.4051
G1 X160.635 Y218.117 E2.42801
G1 X160.852 Y217.715 E2.45091
G1 X161.144 Y217.365 E2.47382
G1 X161.5 Y217.078 E2.49673
G1 X161.905 Y216.868 E2.51963
G1 X162.342 Y216.742 E2.54248
G1 X162.784 Y216.704 E2.56473
G1 X163.25 Y216.756 E2.58824
G1 X163.686 Y216.897 E2.61126
G1 X164.084 Y217.121 E2.63417
G1 X164.429 Y217.419 E2.65707
G1 X164.71 Y217.779 E2.67998
G1 X164.914 Y218.188 E2.70289
G1 X165.015 Y218.562 E2.72237
G1 X164.69 Y218.68 F7800
G1 F1800
G1 X164.717 Y219.001 E2.73852
G1 X164.69 Y219.334 E2.75526
G1 X164.59 Y219.704 E2.77453
G1 X164.417 Y220.051 E2.79399
G1 X164.178 Y220.357 E2.81345
G1 X163.885 Y220.61 E2.83291
G1 X163.547 Y220.8 E2.85237
G1 X163.178 Y220.92 E2.87183
G1 X162.793 Y220.965 E2.89129
G1 X162.406 Y220.933 E2.91076
G1 X162.034 Y220.825 E2.93022
G1 X161.69 Y220.646 E2.94968
G1 X161.387 Y220.403 E2.96914
G1 X161.139 Y220.105 E2.9886
G1 X160.955 Y219.764 E3.00806
G1 X160.841 Y219.393 E3.02752
G1 X160.803 Y219.008 E3.04699
G1 X160.841 Y218.622 E3.06645
G1 X160.955 Y218.251 E3.08591
G1 X161.139 Y217.91 E3.10537
G1 X161.387 Y217.612 E3.12483
G1 X161.69 Y217.369 E3.14429
G1 X162.034 Y217.19 E3.16376
G1 X162.405 Y217.082 E3.18318
G1 X162.78 Y217.05 E3.20203
G1 X163.176 Y217.094 E3.22207
G1 X163.547 Y217.215 E3.2416
G1 X163.885 Y217.405 E3.26106
G1 X164.178 Y217.658 E3.28052
G1 X164.417 Y217.964 E3.29998
G1 X164.59 Y218.311 E3.31944
G1 X164.674 Y218.623 E3.33564
G1 X164.365 Y218.928 F7800
;TYPE:External perimeter
G1 F1800
G1 X164.349 Y219.274 E3.35305
G1 X164.266 Y219.581 E3.36899
G1 X164.123 Y219.866 E3.38501
G1 X163.927 Y220.118 E3.40102
G1 X163.685 Y220.326 E3.41704
G1 X163.407 Y220.483 E3.43306
G1 X163.104 Y220.581 E3.44907
G1 X162.787 Y220.618 E3.46509
G1 X162.469 Y220.592 E3.4811
G1 X162.162 Y220.503 E3.49712
G1 X161.879 Y220.356 E3.51314
G1 X161.631 Y220.156 E3.52915
G1 X161.426 Y219.911 E3.54517
G1 X161.274 Y219.63 E3.56118
G1 X161.181 Y219.325 E3.5772
G1 X161.149 Y219.008 E3.59322
G1 X161.181 Y218.69 E3.60923
G1 X161.274 Y218.385 E3.62525
G1 X161.426 Y218.104 E3.64126
G1 X161.631 Y217.859 E3.65728
G1 X161.879 Y217.659 E3.6733
G1 X162.162 Y217.512 E3.68931
G1 X162.469 Y217.423 E3.70531
G1 X162.775 Y217.397 E3.72076
G1 X163.103 Y217.433 E3.73733
G1 X163.407 Y217.532 E3.75337
G1 X163.685 Y217.689 E3.76939
G1 X163.927 Y217.897 E3.7854
G1 X164.123 Y218.149 E3.80142
G1 X164.266 Y218.434 E3.81744
G1 X164.349 Y218.741 E3.83336
G1 X164.36 Y218.868 E3.83977
G1 X164.671 Y219.09 F7800
G1 E1.83977 F2400
G92 E0
G1 Z3.35 F7800
G1 X176.215 Y216.108
G1 Z.35
G1 E2 F2400
;TYPE:Perimeter
G1 F1800
G1 X166.156 Y216.108 E2.50485
G1 X166.156 Y223.108 E2.85615
G1 X162.775 Y223.108 E3.02582
G1 X162.165 Y223.088 E3.05644
G1 X161.572 Y223.029 E3.08633
G1 X160.985 Y222.932 E3.11621
G1 X160.405 Y222.797 E3.14609
G1 X159.835 Y222.624 E3.17598
G1 X159.278 Y222.415 E3.20586
G1 X158.735 Y222.169 E3.23575
G1 X158.21 Y221.888 E3.26563
G1 X157.705 Y221.574 E3.29552
G1 X157.221 Y221.227 E3.3254
G1 X156.76 Y220.849 E3.35528
G1 X156.326 Y220.442 E3.38517
G1 X155.919 Y220.007 E3.41505
G1 X155.541 Y219.547 E3.44494
G1 X155.194 Y219.063 E3.47482
G1 X154.88 Y218.557 E3.50471
G1 X154.599 Y218.032 E3.53459
G1 X154.353 Y217.49 E3.56447
G1 X154.143 Y216.933 E3.59436
G1 X153.971 Y216.363 E3.62424
G1 X153.835 Y215.783 E3.65413
G1 X153.738 Y215.195 E3.68401
G1 X153.68 Y214.603 E3.7139
G1 X153.66 Y213.993 E3.74452
G1 X153.66 Y200.271 E4.43316
G1 X153.846 Y200.252 E4.44256
G1 X156.038 Y211.113 E4.99858
G1 X156.213 Y211.623 E5.02563
G1 X156.452 Y212.106 E5.05269
G1 X156.752 Y212.554 E5.07975
G1 X157.098 Y212.947 E5.10607
G1 X157.317 Y213.152 E5.12108
G1 X157.733 Y213.471 E5.1474
G1 X158.188 Y213.732 E5.17372
G1 X158.713 Y213.95 E5.20225
G1 X159.219 Y214.085 E5.22852
G1 X159.712 Y214.151 E5.25347
G1 X160.006 Y214.162 E5.26827
G1 X183.304 Y214.162 E6.43747
G1 X183.949 Y214.099 E6.47
G1 X184.612 Y213.899 E6.50475
G1 X185.223 Y213.573 E6.53951
G1 X185.748 Y213.144 E6.57352
G1 X186.063 Y212.787 E6.59744
G1 X186.321 Y212.404 E6.62061
G1 X186.526 Y211.99 E6.64378
G1 X186.676 Y211.554 E6.66695
G1 X188.874 Y200.781 E7.21871
G1 X189.06 Y200.8 E7.2281
G1 X189.06 Y213.993 E7.89018
G1 X189.041 Y214.6 E7.92066
G1 X188.971 Y215.263 E7.95415
G1 X188.885 Y215.783 E7.98057
G1 X188.75 Y216.363 E8.01045
G1 X188.577 Y216.933 E8.04034
G1 X188.367 Y217.49 E8.07022
G1 X188.122 Y218.032 E8.10011
G1 X187.841 Y218.557 E8.12999
G1 X187.526 Y219.063 E8.15987
G1 X187.18 Y219.547 E8.18976
G1 X186.802 Y220.007 E8.21964
G1 X186.395 Y220.442 E8.24953
G1 X185.96 Y220.849 E8.27941
G1 X185.5 Y221.227 E8.30929
G1 X185.016 Y221.574 E8.33918
G1 X184.51 Y221.888 E8.36906
G1 X183.985 Y222.169 E8.39895
G1 X183.443 Y222.415 E8.42883
G1 X182.885 Y222.624 E8.45872
G1 X182.315 Y222.797 E8.4886
G1 X181.736 Y222.932 E8.51848
G1 X181.148 Y223.029 E8.54837
G1 X180.624 Y223.081 E8.57479
G1 X179.943 Y223.108 E8.60902
G1 X176.215 Y223.108 E8.79607
G1 X176.215 Y216.168 E9.14436
G1 E7.14436 F2400
G92 E0
G1 Z3.35 F7800
G1 X164.365 Y213.817
G1 Z.35
G1 E2 F2400
G1 F1800
G1 X160.013 Y213.817 E2.21838
G1 X159.741 Y213.807 E2.23203
G1 X159.287 Y213.746 E2.25506
G1 X158.819 Y213.621 E2.27937
G1 X158.345 Y213.425 E2.30507
G1 X157.925 Y213.183 E2.32941
G1 X157.54 Y212.888 E2.35375
G1 X157.346 Y212.707 E2.36706
G1 X157.026 Y212.343 E2.3914
G1 X156.751 Y211.932 E2.41619
G1 X156.532 Y211.49 E2.44099
G1 X156.372 Y211.022 E2.46578
G1 X154.163 Y200.077 E3.02615
G1 X154.163 Y187.147 E3.67504
G1 X154.222 Y186.55 E3.70515
G1 X154.344 Y186.104 E3.72838
G1 X154.595 Y185.554 E3.7587
G1 X154.964 Y185.039 E3.7905
G1 X155.404 Y184.625 E3.82082
G1 X155.787 Y184.366 E3.84404
G1 X156.358 Y184.107 E3.8755
G1 X156.946 Y183.968 E3.90582
G1 X157.38 Y183.938 E3.92767
G1 X184.975 Y183.938 E5.31256
G1 X185.234 Y183.948 E5.32554
G1 X185.666 Y184.006 E5.34743
G1 X186.111 Y184.125 E5.37054
G1 X186.562 Y184.312 E5.39504
G1 X186.961 Y184.542 E5.41818
G1 X187.327 Y184.823 E5.44132
G1 X187.672 Y185.168 E5.46582
G1 X187.947 Y185.527 E5.48851
G1 X188.081 Y185.742 E5.50122
G1 X188.285 Y186.155 E5.52436
G1 X188.436 Y186.6 E5.54795
G1 X188.526 Y187.053 E5.57109
G1 X188.551 Y187.305 E5.5838
G1 X188.558 Y200.608 E6.25145
G1 X186.343 Y211.463 E6.80742
G1 X186.208 Y211.857 E6.82833
G1 X186.022 Y212.23 E6.84924
G1 X185.789 Y212.576 E6.87015
G1 X185.508 Y212.895 E6.89152
G1 X185.031 Y213.285 E6.92242
G1 X184.479 Y213.578 E6.95378
G1 X183.881 Y213.759 E6.98513
G1 X183.287 Y213.817 E7.01512
G1 X164.425 Y213.817 E7.96174
G1 X164.365 Y213.473 F7800
;TYPE:External perimeter
G1 F1800
G1 X160.02 Y213.473 E8.17978
G1 X159.771 Y213.463 E8.19228
G1 X159.354 Y213.407 E8.21338
G1 X158.924 Y213.292 E8.23572
G1 X158.503 Y213.118 E8.2586
G1 X158.117 Y212.895 E8.28096
G1 X157.763 Y212.625 E8.30331
G1 X157.594 Y212.467 E8.31493
G1 X157.3 Y212.132 E8.33728
G1 X157.05 Y211.759 E8.35982
G1 X156.851 Y211.357 E8.38235
G1 X156.706 Y210.932 E8.40487
G1 X154.508 Y200.043 E8.96239
G1 X154.508 Y187.164 E9.6087
G1 X154.562 Y186.613 E9.6365
G1 X154.669 Y186.222 E9.65686
G1 X154.894 Y185.728 E9.68411
G1 X155.225 Y185.267 E9.71254
G1 X155.62 Y184.895 E9.73978
G1 X155.956 Y184.668 E9.76015
G1 X156.47 Y184.435 E9.78845
G1 X156.998 Y184.31 E9.8157
G1 X157.392 Y184.283 E9.83554
G1 X184.969 Y184.283 E11.21948
G1 X185.204 Y184.292 E11.23131
G1 X185.598 Y184.345 E11.25127
G1 X186.005 Y184.454 E11.27242
G1 X186.404 Y184.619 E11.29408
G1 X186.769 Y184.83 E11.31524
G1 X187.104 Y185.086 E11.33639
G1 X187.409 Y185.391 E11.35806
G1 X187.664 Y185.723 E11.37904
G1 X187.779 Y185.91 E11.39006
G1 X187.966 Y186.288 E11.41121
G1 X188.102 Y186.69 E11.43254
G1 X188.185 Y187.103 E11.45369
G1 X188.206 Y187.322 E11.4647
G1 X188.213 Y200.573 E12.12975
G1 X186.01 Y211.372 E12.68285
G1 X185.889 Y211.723 E12.7015
G1 X185.723 Y212.056 E12.72015
G1 X185.516 Y212.364 E12.7388
G1 X185.268 Y212.646 E12.75762
G1 X184.839 Y212.996 E12.78541
G1 X184.347 Y213.258 E12.81336
G1 X183.814 Y213.419 E12.84132
G1 X183.27 Y213.473 E12.86876
G1 X164.425 Y213.473 E13.81453
G1 X164.165 Y213.819 F7800
G1 E11.81453 F2400
G92 E0
G1 Z3.35 F7800
G1 X170.841 Y182.771
G1 Z.35
G1 E2 F2400
;TYPE:Perimeter
G1 F1800
G1 X170.398 Y182.659 E2.02291
G1 X169.986 Y182.462 E2.04581
G1 X169.622 Y182.188 E2.06872
G1 X169.318 Y181.847 E2.09163
G1 X169.088 Y181.453 E2.11453
G1 X168.939 Y181.021 E2.13744
G1 X168.879 Y180.569 E2.16035
G1 X168.909 Y180.113 E2.18325
G1 X169.029 Y179.673 E2.20616
G1 X169.233 Y179.264 E2.22907
G1 X169.513 Y178.904 E2.25198
G1 X169.859 Y178.606 E2.27489
G1 X170.257 Y178.382 E2.29779
G1 X170.679 Y178.245 E2.32007
G1 X171.021 Y178.196 E2.33744
G1 X171.449 Y178.204 E2.35893
G1 X171.894 Y178.301 E2.38178
G1 X172.312 Y178.484 E2.40468
G1 X172.686 Y178.747 E2.42759
G1 X173.001 Y179.077 E2.4505
G1 X173.244 Y179.463 E2.47341
G1 X173.406 Y179.89 E2.49631
G1 X173.481 Y180.34 E2.51922
G1 X173.466 Y180.796 E2.54213
G1 X173.362 Y181.241 E2.56504
G1 X173.171 Y181.656 E2.58794
G1 X172.903 Y182.025 E2.61085
G1 X172.567 Y182.334 E2.63376
G1 X172.177 Y182.571 E2.65666
G1 X171.748 Y182.726 E2.67957
G1 X171.296 Y182.794 E2.70248
G1 X170.9 Y182.774 E2.72237
G1 X170.926 Y182.43 F7800
G1 F1800
G1 X170.516 Y182.333 E2.74353
G1 X170.166 Y182.166 E2.76299
G1 X169.856 Y181.933 E2.78245
G1 X169.598 Y181.643 E2.80191
G1 X169.403 Y181.308 E2.82137
G1 X169.277 Y180.942 E2.84083
G1 X169.226 Y180.557 E2.8603
G1 X169.251 Y180.17 E2.87976
G1 X169.353 Y179.796 E2.89922
