; generated by PrusaSlicer 2.4.2 on 2022-08-30 at 12:43:38 UTC

; 

; external perimeters extrusion width = 0.45mm
; perimeters extrusion width = 0.45mm
; infill extrusion width = 0.45mm
; solid infill extrusion width = 0.45mm
; top infill extrusion width = 0.40mm
; support material extrusion width = 0.35mm
; first layer extrusion width = 0.42mm

; external perimeters extrusion width = 0.45mm
; perimeters extrusion width = 0.45mm
; infill extrusion width = 0.45mm
; solid infill extrusion width = 0.45mm
; top infill extrusion width = 0.40mm
; support material extrusion width = 0.35mm
; first layer extrusion width = 0.42mm

M107
M190 S60 ; set bed temperature and wait for it to be reached
M104 S215 ; set temperature
;TYPE:Custom
G28 ; home all axes
G1 Z5 F5000 ; lift nozzle
M109 S215 ; set temperature and wait for it to be reached
G21 ; set units to millimeters
G90 ; use absolute coordinates
M82 ; use absolute distances for extrusion
G92 E0
; Filament gcode
M107
;LAYER_CHANGE
;Z:0.35
;HEIGHT:0.35
G1 Z.35 F7800
G1 E-2 F2400
G92 E0
G1 Z3.35 F7800
G1 X142.554 Y166.346
G1 Z.35
G1 E2 F2400
;TYPE:Skirt/Brim
;WIDTH:0.42
G1 F1800
G1 X144.396 Y165.064 E2.11262
G1 X147.04 Y164.487 E2.24844
G1 X177.624 Y164.489 E3.78329
G1 X234.32 Y165.651 E6.62923
G1 X236.52 Y166.093 E6.74185
G1 X238.676 Y167.508 E6.87129
G1 X245.882 Y174.714 E7.3827
G1 X247.163 Y176.556 E7.49532
G1 X247.74 Y179.2 E7.63114
G1 X247.74 Y223.581 E9.85845
G1 X247.343 Y225.79 E9.97107
G1 X245.882 Y228.068 E10.10689
G1 X241.462 Y232.488 E10.42059
G1 X239.619 Y233.769 E10.53322
G1 X236.975 Y234.346 E10.66904
G1 X200.821 Y234.345 E12.48348
G1 X144.125 Y233.182 E15.32942
G1 X141.925 Y232.74 E15.44205
G1 X139.768 Y231.325 E15.57148
G1 X135.348 Y226.905 E15.88518
G1 X134.067 Y225.063 E15.9978
G1 X133.49 Y222.419 E16.13363
G1 X133.49 Y178.038 E18.36094
G1 X133.887 Y175.829 E18.47356
G1 X135.348 Y173.551 E18.60938
G1 X142.512 Y166.388 E19.11778
G1 E17.11778 F2400
G92 E0
G1 Z3.35 F7800
G1 X235.824 Y173.629
G1 Z.35
G1 E2 F2400
;TYPE:Support material
G1 F1800
G1 X235.824 Y174.78 E2.05778
G1 X236.975 Y174.78 E2.11556
G1 X238.61 Y176.415 E2.23155
G1 X238.61 Y177.566 E2.28933
G1 X239.761 Y177.566 E2.34711
G1 X241.395 Y179.2 E2.4631
G1 X241.395 Y223.581 E4.69041
G1 X239.761 Y225.216 E4.80641
G1 X238.61 Y225.216 E4.86419
G1 X238.61 Y226.367 E4.92197
G1 X236.975 Y228.001 E5.03796
G1 X200.951 Y228.001 E6.84588
G1 X199.317 Y226.367 E6.96187
G1 X199.317 Y225.216 E7.01965
G1 X198.165 Y225.216 E7.07743
G1 X196.531 Y223.581 E7.19342
G1 X196.531 Y179.2 E9.42074
G1 X198.165 Y177.566 E9.53673
G1 X199.317 Y177.566 E9.59451
G1 X199.317 Y176.415 E9.65229
G1 X200.951 Y174.78 E9.76828
G1 X202.102 Y174.78 E9.82606
G1 X202.102 Y173.629 E9.88384
G1 X203.737 Y171.995 E9.99983
G1 X234.19 Y171.995 E11.52815
G1 X235.787 Y173.592 E11.64155
G1 X234.382 Y172.407 F7800
G1 F1800
G1 X203.763 Y172.407 E13.1782
G1 X203.38 Y172.79 E13.2054
G1 X234.546 Y172.79 E14.7695
G1 X234.929 Y173.173 E14.7967
G1 X202.997 Y173.173 E16.39926
G1 X202.614 Y173.557 E16.42646
G1 X235.313 Y173.557 E18.06749
G1 X235.514 Y173.758 E18.08176
G1 X235.514 Y173.94 E18.0909
G1 X202.413 Y173.94 E19.75211
G1 X202.413 Y174.323 E19.77134
G1 X235.514 Y174.323 E21.43254
G1 X235.514 Y174.706 E21.45177
G1 X202.413 Y174.706 E23.11298
G1 X202.413 Y175.089 E23.13221
G1 X236.847 Y175.091 E24.86032
G1 X237.229 Y175.473 E24.88743
G1 X200.698 Y175.473 E26.72077
G1 X200.314 Y175.856 E26.74797
G1 X237.612 Y175.856 E28.61978
G1 X237.995 Y176.239 E28.64698
G1 X199.931 Y176.239 E30.55725
G1 X199.627 Y176.543 E30.57884
G1 X199.627 Y176.622 E30.58281
G1 X238.299 Y176.622 E32.52361
G1 X238.299 Y177.005 E32.54284
G1 X199.627 Y177.005 E34.48364
G1 X199.627 Y177.389 E34.50287
G1 X238.299 Y177.389 E36.44368
G1 X238.299 Y177.772 E36.46291
G1 X199.627 Y177.772 E38.40371
G1 X199.627 Y177.876 E38.40895
G1 X198.294 Y177.876 E38.47586
G1 X198.015 Y178.155 E38.49564
G1 X239.911 Y178.155 E40.59823
G1 X240.294 Y178.538 E40.62543
G1 X197.632 Y178.538 E42.76648
G1 X197.249 Y178.921 E42.79368
G1 X240.678 Y178.921 E44.9732
G1 X241.061 Y179.305 E45.0004
G1 X196.865 Y179.305 E47.21838
G1 X196.841 Y179.329 E47.22009
G1 X196.841 Y179.688 E47.23811
G1 X241.085 Y179.688 E49.45851
G1 X241.085 Y180.071 E49.47774
G1 X196.841 Y180.071 E51.69814
G1 X196.841 Y180.454 E51.71737
G1 X241.085 Y180.454 E53.93777
G1 X241.085 Y180.838 E53.95701
G1 X196.841 Y180.838 E56.17741
G1 X196.841 Y181.221 E56.19664
G1 X241.085 Y181.221 E58.41704
G1 X241.085 Y181.604 E58.43627
G1 X196.841 Y181.604 E60.65667
G1 X196.841 Y181.987 E60.6759
G1 X241.085 Y181.987 E62.8963
G1 X241.085 Y182.37 E62.91554
G1 X196.841 Y182.37 E65.13594
G1 X196.841 Y182.754 E65.15517
G1 X241.085 Y182.754 E67.37557
G1 X241.085 Y183.137 E67.3948
G1 X196.841 Y183.137 E69.6152
G1 X196.841 Y183.52 E69.63443
G1 X241.085 Y183.52 E71.85483
G1 X241.085 Y183.903 E71.87406
G1 X196.841 Y183.903 E74.09447
G1 X196.841 Y184.286 E74.1137
G1 X241.085 Y184.286 E76.3341
G1 X241.085 Y184.67 E76.35333
G1 X196.841 Y184.67 E78.57373
G1 X196.841 Y185.053 E78.59296
G1 X241.085 Y185.053 E80.81336
G1 X241.085 Y185.436 E80.83259
G1 X196.841 Y185.436 E83.05299
G1 X196.841 Y185.819 E83.07223
G1 X241.085 Y185.819 E85.29263
G1 X241.085 Y186.202 E85.31186
G1 X196.841 Y186.202 E87.53226
G1 X196.841 Y186.586 E87.55149
G1 X241.085 Y186.586 E89.77189
G1 X241.085 Y186.969 E89.79112
G1 X196.841 Y186.969 E92.01152
G1 X196.841 Y187.352 E92.03076
G1 X241.085 Y187.352 E94.25116
G1 X241.085 Y187.735 E94.27039
G1 X196.841 Y187.735 E96.49079
G1 X196.841 Y188.119 E96.51002
G1 X241.085 Y188.119 E98.73042
G1 X241.085 Y188.502 E98.74965
G1 X196.841 Y188.502 E100.97005
G1 X196.841 Y188.885 E100.98928
G1 X241.085 Y188.885 E103.20969
G1 X241.085 Y189.268 E103.22892
G1 X196.841 Y189.268 E105.44932
G1 X196.841 Y189.651 E105.46855
G1 X241.085 Y189.651 E107.68895
G1 X241.085 Y190.035 E107.70818
G1 X196.841 Y190.035 E109.92858
G1 X196.841 Y190.418 E109.94781
G1 X241.085 Y190.418 E112.16821
G1 X241.085 Y190.801 E112.18745
G1 X196.841 Y190.801 E114.40785
G1 X196.841 Y191.184 E114.42708
G1 X241.085 Y191.184 E116.64748
G1 X241.085 Y191.567 E116.66671
G1 X196.841 Y191.567 E118.88711
G1 X196.841 Y191.951 E118.90634
G1 X241.085 Y191.951 E121.12674
G1 X241.085 Y192.334 E121.14598
G1 X196.841 Y192.334 E123.36638
G1 X196.841 Y192.717 E123.38561
G1 X241.085 Y192.717 E125.60601
G1 X241.085 Y193.1 E125.62524
G1 X196.841 Y193.1 E127.84564
G1 X196.841 Y193.483 E127.86487
G1 X241.085 Y193.483 E130.08527
G1 X241.085 Y193.867 E130.1045
G1 X196.841 Y193.867 E132.3249
G1 X196.841 Y194.25 E132.34414
G1 X241.085 Y194.25 E134.56454
G1 X241.085 Y194.633 E134.58377
G1 X196.841 Y194.633 E136.80417
G1 X196.841 Y195.016 E136.8234
G1 X241.085 Y195.016 E139.0438
G1 X241.085 Y195.4 E139.06303
G1 X196.841 Y195.4 E141.28343
G1 X196.841 Y195.783 E141.30267
G1 X241.085 Y195.783 E143.52307
G1 X241.085 Y196.166 E143.5423
G1 X196.841 Y196.166 E145.7627
G1 X196.841 Y196.549 E145.78193
G1 X241.085 Y196.549 E148.00233
G1 X241.085 Y196.932 E148.02156
G1 X196.841 Y196.932 E150.24196
G1 X196.841 Y197.316 E150.2612
G1 X241.085 Y197.316 E152.4816
G1 X241.085 Y197.699 E152.50083
G1 X196.841 Y197.699 E154.72123
G1 X196.841 Y198.082 E154.74046
G1 X241.085 Y198.082 E156.96086
G1 X241.085 Y198.465 E156.98009
G1 X196.841 Y198.465 E159.20049
G1 X196.841 Y198.848 E159.21972
G1 X241.085 Y198.848 E161.44012
G1 X241.085 Y199.232 E161.45936
G1 X196.841 Y199.232 E163.67976
G1 X196.841 Y199.615 E163.69899
G1 X241.085 Y199.615 E165.91939
G1 X241.085 Y199.998 E165.93862
G1 X196.841 Y199.998 E168.15902
G1 X196.841 Y200.381 E168.17825
G1 X241.085 Y200.381 E170.39865
G1 X241.085 Y200.764 E170.41789
G1 X196.841 Y200.764 E172.63829
G1 X196.841 Y201.148 E172.65752
G1 X241.085 Y201.148 E174.87792
G1 X241.085 Y201.531 E174.89715
G1 X196.841 Y201.531 E177.11755
G1 X196.841 Y201.914 E177.13678
G1 X241.085 Y201.914 E179.35718
G1 X241.085 Y202.297 E179.37641
G1 X196.841 Y202.297 E181.59682
G1 X196.841 Y202.68 E181.61605
G1 X241.085 Y202.68 E183.83645
G1 X241.085 Y203.064 E183.85568
G1 X196.841 Y203.064 E186.07608
G1 X196.841 Y203.447 E186.09531
G1 X241.085 Y203.447 E188.31571
G1 X241.085 Y203.83 E188.33494
G1 X196.841 Y203.83 E190.55534
G1 X196.841 Y204.213 E190.57458
G1 X241.085 Y204.213 E192.79498
G1 X241.085 Y204.597 E192.81421
G1 X196.841 Y204.597 E195.03461
G1 X196.841 Y204.98 E195.05384
G1 X241.085 Y204.98 E197.27424
G1 X241.085 Y205.363 E197.29347
G1 X196.841 Y205.363 E199.51387
G1 X196.841 Y205.746 E199.53311
G1 X241.085 Y205.746 E201.75351
G1 X241.085 Y206.129 E201.77274
G1 X196.841 Y206.129 E203.99314
G1 X196.841 Y206.513 E204.01237
G1 X241.085 Y206.513 E206.23277
G1 X241.085 Y206.896 E206.252
G1 X196.841 Y206.896 E208.4724
G1 X196.841 Y207.279 E208.49163
G1 X241.085 Y207.279 E210.71204
G1 X241.085 Y207.662 E210.73127
G1 X196.841 Y207.662 E212.95167
G1 X196.841 Y208.045 E212.9709
G1 X241.085 Y208.045 E215.1913
G1 X241.085 Y208.429 E215.21053
G1 X196.841 Y208.429 E217.43093
G1 X196.841 Y208.812 E217.45016
G1 X241.085 Y208.812 E219.67056
G1 X241.085 Y209.195 E219.6898
G1 X196.841 Y209.195 E221.9102
G1 X196.841 Y209.578 E221.92943
G1 X241.085 Y209.578 E224.14983
G1 X241.085 Y209.961 E224.16906
G1 X196.841 Y209.961 E226.38946
G1 X196.841 Y210.345 E226.40869
G1 X241.085 Y210.345 E228.62909
G1 X241.085 Y210.728 E228.64833
G1 X196.841 Y210.728 E230.86873
G1 X196.841 Y211.111 E230.88796
G1 X241.085 Y211.111 E233.10836
G1 X241.085 Y211.494 E233.12759
G1 X196.841 Y211.494 E235.34799
G1 X196.841 Y211.878 E235.36722
G1 X241.085 Y211.878 E237.58762
G1 X241.085 Y212.261 E237.60685
G1 X196.841 Y212.261 E239.82725
G1 X196.841 Y212.644 E239.84649
G1 X241.085 Y212.644 E242.06689
G1 X241.085 Y213.027 E242.08612
G1 X196.841 Y213.027 E244.30652
G1 X196.841 Y213.41 E244.32575
G1 X241.085 Y213.41 E246.54615
G1 X241.085 Y213.794 E246.56538
G1 X196.841 Y213.794 E248.78578
G1 X196.841 Y214.177 E248.80502
G1 X241.085 Y214.177 E251.02542
G1 X241.085 Y214.56 E251.04465
G1 X196.841 Y214.56 E253.26505
G1 X196.841 Y214.943 E253.28428
G1 X241.085 Y214.943 E255.50468
G1 X241.085 Y215.326 E255.52391
G1 X196.841 Y215.326 E257.74431
G1 X196.841 Y215.71 E257.76354
G1 X241.085 Y215.71 E259.98395
G1 X241.085 Y216.093 E260.00318
G1 X196.841 Y216.093 E262.22358
G1 X196.841 Y216.476 E262.24281
G1 X241.085 Y216.476 E264.46321
G1 X241.085 Y216.859 E264.48244
G1 X196.841 Y216.859 E266.70284
G1 X196.841 Y217.242 E266.72207
G1 X241.085 Y217.242 E268.94247
G1 X241.085 Y217.626 E268.96171
G1 X196.841 Y217.626 E271.18211
G1 X196.841 Y218.009 E271.20134
G1 X241.085 Y218.009 E273.42174
G1 X241.085 Y218.392 E273.44097
G1 X196.841 Y218.392 E275.66137
G1 X196.841 Y218.775 E275.6806
G1 X241.085 Y218.775 E277.901
G1 X241.085 Y219.159 E277.92024
G1 X196.841 Y219.159 E280.14064
G1 X196.841 Y219.542 E280.15987
G1 X241.085 Y219.542 E282.38027
G1 X241.085 Y219.925 E282.3995
G1 X196.841 Y219.925 E284.6199
G1 X196.841 Y220.308 E284.63913
G1 X241.085 Y220.308 E286.85953
G1 X241.085 Y220.691 E286.87876
G1 X196.841 Y220.691 E289.09917
G1 X196.841 Y221.075 E289.1184
G1 X241.085 Y221.075 E291.3388
G1 X241.085 Y221.458 E291.35803
G1 X196.841 Y221.458 E293.57843
G1 X196.841 Y221.841 E293.59766
G1 X241.085 Y221.841 E295.81806
G1 X241.085 Y222.224 E295.83729
G1 X196.841 Y222.224 E298.05769
G1 X196.841 Y222.607 E298.07693
G1 X241.085 Y222.607 E300.29733
G1 X241.085 Y222.991 E300.31656
G1 X196.841 Y222.991 E302.53696
G1 X196.841 Y223.374 E302.55619
G1 X241.085 Y223.374 E304.77659
G1 X241.085 Y223.453 E304.78056
G1 X240.781 Y223.757 E304.80215
G1 X197.146 Y223.757 E306.99202
G1 X197.529 Y224.14 E307.01921
G1 X240.397 Y224.14 E309.17062
G1 X240.014 Y224.523 E309.19782
G1 X197.912 Y224.523 E311.31076
G1 X198.294 Y224.905 E311.33787
G1 X238.299 Y224.907 E313.34558
G1 X238.299 Y225.29 E313.36481
G1 X199.627 Y225.29 E315.30561
G1 X199.627 Y225.673 E315.32484
G1 X238.299 Y225.673 E317.26565
G1 X238.299 Y226.056 E317.28488
G1 X199.627 Y226.056 E319.22568
G1 X199.627 Y226.239 E319.23483
G1 X199.828 Y226.44 E319.24909
G1 X238.098 Y226.44 E321.16972
G1 X237.715 Y226.823 E321.19692
G1 X200.211 Y226.823 E323.07908
G1 X200.594 Y227.206 E323.10628
G1 X237.332 Y227.206 E324.94998
G1 X236.949 Y227.589 E324.97718
G1 X200.758 Y227.589 E326.79343
G1 E324.79343 F2400
G92 E0
G1 Z3.35 F7800
G1 X179.128 Y172.466
G1 Z.35
G1 E2 F2400
G1 F1800
G1 X179.128 Y173.618 E2.05778
G1 X180.279 Y173.618 E2.11556
G1 X181.914 Y175.252 E2.23155
G1 X181.914 Y176.403 E2.28933
G1 X183.065 Y176.403 E2.34711
G1 X184.699 Y178.038 E2.4631
G1 X184.699 Y222.419 E4.69041
G1 X183.065 Y224.053 E4.80641
G1 X181.914 Y224.053 E4.86419
G1 X181.914 Y225.204 E4.92197
G1 X180.279 Y226.839 E5.03796
G1 X144.255 Y226.839 E6.84588
G1 X142.621 Y225.204 E6.96187
G1 X142.621 Y224.053 E7.01965
G1 X141.469 Y224.053 E7.07743
G1 X139.835 Y222.419 E7.19342
G1 X139.835 Y178.038 E9.42074
G1 X141.469 Y176.403 E9.53673
G1 X142.621 Y176.403 E9.59451
G1 X142.621 Y175.252 E9.65229
G1 X144.255 Y173.618 E9.76828
G1 X145.406 Y173.618 E9.82606
G1 X145.406 Y172.466 E9.88384
G1 X147.04 Y170.832 E9.99983
G1 X177.494 Y170.832 E11.52815
G1 X179.091 Y172.43 E11.64155
G1 X177.686 Y171.244 F7800
G1 F1800
G1 X147.067 Y171.244 E13.1782
G1 X146.684 Y171.628 E13.2054
G1 X177.85 Y171.628 E14.7695
G1 X178.233 Y172.011 E14.7967
G1 X146.301 Y172.011 E16.39926
G1 X145.918 Y172.394 E16.42646
G1 X178.617 Y172.394 E18.06749
G1 X178.818 Y172.595 E18.08176
G1 X178.818 Y172.777 E18.0909
G1 X145.717 Y172.777 E19.75211
G1 X145.717 Y173.16 E19.77134
G1 X178.818 Y173.16 E21.43254
G1 X178.818 Y173.544 E21.45177
G1 X145.717 Y173.544 E23.11298
G1 X145.717 Y173.927 E23.13221
G1 X180.151 Y173.928 E24.86032
G1 X180.533 Y174.31 E24.88743
G1 X144.001 Y174.31 E26.72077
G1 X143.618 Y174.693 E26.74797
G1 X180.916 Y174.693 E28.61978
G1 X181.299 Y175.076 E28.64698
G1 X143.235 Y175.076 E30.55725
G1 X142.931 Y175.381 E30.57884
G1 X142.931 Y175.46 E30.58281
G1 X181.603 Y175.46 E32.52361
G1 X181.603 Y175.843 E32.54284
G1 X142.931 Y175.843 E34.48364
G1 X142.931 Y176.226 E34.50287
G1 X181.603 Y176.226 E36.44368
G1 X181.603 Y176.609 E36.46291
G1 X142.931 Y176.609 E38.40371
G1 X142.931 Y176.714 E38.40895
G1 X141.598 Y176.714 E38.47586
G1 X141.319 Y176.992 E38.49564
G1 X183.215 Y176.992 E40.59823
G1 X183.598 Y177.376 E40.62543
G1 X140.936 Y177.376 E42.76648
G1 X140.553 Y177.759 E42.79368
G1 X183.981 Y177.759 E44.9732
G1 X184.365 Y178.142 E45.0004
G1 X140.169 Y178.142 E47.21838
G1 X140.145 Y178.166 E47.22009
G1 X140.145 Y178.525 E47.23811
G1 X184.389 Y178.525 E49.45851
G1 X184.389 Y178.909 E49.47774
G1 X140.145 Y178.909 E51.69814
G1 X140.145 Y179.292 E51.71737
G1 X184.389 Y179.292 E53.93777
G1 X184.389 Y179.675 E53.95701
G1 X140.145 Y179.675 E56.17741
G1 X140.145 Y180.058 E56.19664
G1 X184.389 Y180.058 E58.41704
G1 X184.389 Y180.441 E58.43627
G1 X140.145 Y180.441 E60.65667
G1 X140.145 Y180.825 E60.6759
G1 X184.389 Y180.825 E62.8963
G1 X184.389 Y181.208 E62.91554
G1 X140.145 Y181.208 E65.13594
G1 X140.145 Y181.591 E65.15517
G1 X184.389 Y181.591 E67.37557
G1 X184.389 Y181.974 E67.3948
G1 X140.145 Y181.974 E69.6152
G1 X140.145 Y182.357 E69.63443
G1 X184.389 Y182.357 E71.85483
G1 X184.389 Y182.741 E71.87406
G1 X140.145 Y182.741 E74.09447
G1 X140.145 Y183.124 E74.1137
G1 X184.389 Y183.124 E76.3341
G1 X184.389 Y183.507 E76.35333
G1 X140.145 Y183.507 E78.57373
G1 X140.145 Y183.89 E78.59296
G1 X184.389 Y183.89 E80.81336
G1 X184.389 Y184.273 E80.83259
G1 X140.145 Y184.273 E83.05299
G1 X140.145 Y184.657 E83.07223
G1 X184.389 Y184.657 E85.29263
G1 X184.389 Y185.04 E85.31186
G1 X140.145 Y185.04 E87.53226
G1 X140.145 Y185.423 E87.55149
G1 X184.389 Y185.423 E89.77189
G1 X184.389 Y185.806 E89.79112
G1 X140.145 Y185.806 E92.01152
G1 X140.145 Y186.19 E92.03076
G1 X184.389 Y186.19 E94.25116
G1 X184.389 Y186.573 E94.27039
G1 X140.145 Y186.573 E96.49079
G1 X140.145 Y186.956 E96.51002
G1 X184.389 Y186.956 E98.73042
G1 X184.389 Y187.339 E98.74965
G1 X140.145 Y187.339 E100.97005
G1 X140.145 Y187.722 E100.98928
G1 X184.389 Y187.722 E103.20969
G1 X184.389 Y188.106 E103.22892
G1 X140.145 Y188.106 E105.44932
G1 X140.145 Y188.489 E105.46855
