; generated by PrusaSlicer 2.4.2 on 2022-05-14 at 13:40:28 UTC

; 

; external perimeters extrusion width = 0.45mm
; perimeters extrusion width = 0.45mm
; infill extrusion width = 0.45mm
; solid infill extrusion width = 0.45mm
; top infill extrusion width = 0.40mm
; first layer extrusion width = 0.42mm

M107
M190 S60 ; set bed temperature and wait for it to be reached
M104 S210 ; set temperature
;TYPE:Custom
G28 ; home all axes
G1 Z5 F5000 ; lift nozzle
M109 S210 ; set temperature and wait for it to be reached
G21 ; set units to millimeters
G90 ; use absolute coordinates
M82 ; use absolute distances for extrusion
G92 E0
; Filament gcode
M107
;LAYER_CHANGE
;Z:0.35
;HEIGHT:0.35
G1 Z.35 F7800
G1 E-2 F2400
G92 E0
G1 X74.74 Y44.126 F7800
G1 E2 F2400
;TYPE:Skirt/Brim
;WIDTH:0.42
G1 F1800
G1 X75.193 Y43.359 E2.04473
G1 X76.935 Y41.944 E2.15735
G1 X80 Y41.155 E2.31618
G1 X220 Y41.155 E9.34221
G1 X222.209 Y41.552 E9.45483
G1 X224.141 Y42.693 E9.56745
G1 X225.556 Y44.435 E9.68007
G1 X226.345 Y47.5 E9.83891
G1 X226.345 Y252.5 E20.12702
G1 X225.948 Y254.709 E20.23964
G1 X224.807 Y256.641 E20.35226
G1 X223.065 Y258.056 E20.46488
G1 X220 Y258.845 E20.62372
G1 X80 Y258.845 E27.64975
G1 X77.791 Y258.448 E27.76237
G1 X75.859 Y257.307 E27.87499
G1 X74.444 Y255.565 E27.98761
G1 X73.655 Y252.5 E28.14645
G1 X73.655 Y47.5 E38.43456
G1 X74.052 Y45.291 E38.54718
G1 X74.664 Y44.255 E38.60755
G1 E36.60755 F2400
G92 E0
G1 X80.9 Y48.4 F7800
G1 E2 F2400
;TYPE:Perimeter
G1 F1800
G1 X219.1 Y48.4 E8.93572
G1 X219.1 Y251.6 E19.13352
G1 X80.9 Y251.6 E26.06923
G1 X80.9 Y48.55 E36.2595
G1 X80.555 Y48.055 F7800
G1 F1800
G1 X219.445 Y48.055 E43.22984
G1 X219.445 Y251.945 E53.46225
G1 X80.555 Y251.945 E60.43259
G1 X80.555 Y48.205 E70.65748
G1 X80.21 Y47.71 F7800
;TYPE:External perimeter
G1 F1800
G1 X219.79 Y47.71 E77.66243
G1 X219.79 Y252.29 E87.92946
G1 X80.21 Y252.29 E94.93441
G1 X80.21 Y47.86 E105.19392
G1 X81.158 Y48.028 F7800
G1 E103.19392 F2400
G92 E0
G1 X218.997 Y49.201 F7800
G1 E2 F2400
;TYPE:Solid infill
;WIDTH:0.420122
G1 F1800
G1 X218.455 Y48.658 E2.0385
G1 X217.967 Y48.658 E2.063
G1 X218.842 Y49.533 E2.12512
G1 X218.842 Y50.021 E2.14961
G1 X217.479 Y48.658 E2.24638
G1 X216.991 Y48.658 E2.27087
G1 X218.842 Y50.509 E2.40228
G1 X218.842 Y50.997 E2.42677
G1 X216.503 Y48.658 E2.59282
G1 X216.015 Y48.658 E2.61732
G1 X218.842 Y51.485 E2.818
G1 X218.842 Y51.973 E2.8425
G1 X215.527 Y48.658 E3.07783
G1 X215.039 Y48.658 E3.10233
G1 X218.842 Y52.461 E3.3723
G1 X218.842 Y52.949 E3.39679
G1 X214.551 Y48.658 E3.70141
G1 X214.063 Y48.658 E3.7259
G1 X218.842 Y53.437 E4.06516
G1 X218.842 Y53.925 E4.08965
G1 X213.575 Y48.658 E4.46355
G1 X213.087 Y48.658 E4.48805
G1 X218.842 Y54.413 E4.89658
G1 X218.842 Y54.901 E4.92108
G1 X212.599 Y48.658 E5.36426
G1 X212.112 Y48.658 E5.38875
G1 X218.842 Y55.388 E5.86658
G1 X218.842 Y55.876 E5.89107
G1 X211.624 Y48.658 E6.40353
G1 X211.136 Y48.658 E6.42803
G1 X218.842 Y56.364 E6.97513
G1 X218.842 Y56.852 E6.99963
G1 X210.648 Y48.658 E7.58138
G1 X210.16 Y48.658 E7.60587
G1 X218.842 Y57.34 E8.22226
G1 X218.842 Y57.828 E8.24676
G1 X209.672 Y48.658 E8.89778
G1 X209.184 Y48.658 E8.92228
G1 X218.842 Y58.316 E9.60795
G1 X218.842 Y58.804 E9.63245
G1 X208.696 Y48.658 E10.35276
G1 X208.208 Y48.658 E10.37726
G1 X218.842 Y59.292 E11.13221
G1 X218.842 Y59.78 E11.1567
G1 X207.72 Y48.658 E11.9463
G1 X207.232 Y48.658 E11.9708
G1 X218.842 Y60.268 E12.79503
G1 X218.842 Y60.756 E12.81953
G1 X206.744 Y48.658 E13.67841
G1 X206.257 Y48.658 E13.7029
G1 X218.842 Y61.243 E14.59642
G1 X218.842 Y61.731 E14.62092
G1 X205.769 Y48.658 E15.54908
G1 X205.281 Y48.658 E15.57358
G1 X218.842 Y62.219 E16.53638
G1 X218.842 Y62.707 E16.56088
G1 X204.793 Y48.658 E17.55832
G1 X204.305 Y48.658 E17.58282
G1 X218.842 Y63.195 E18.61491
G1 X218.842 Y63.683 E18.6394
G1 X203.817 Y48.658 E19.70613
G1 X203.329 Y48.658 E19.73062
G1 X218.842 Y64.171 E20.832
G1 X218.842 Y64.659 E20.85649
G1 X202.841 Y48.658 E21.9925
G1 X202.353 Y48.658 E22.017
G1 X218.842 Y65.147 E23.18765
G1 X218.842 Y65.635 E23.21215
G1 X201.865 Y48.658 E24.41744
G1 X201.377 Y48.658 E24.44194
G1 X218.842 Y66.123 E25.68187
G1 X218.842 Y66.611 E25.70637
G1 X200.889 Y48.658 E26.98095
G1 X200.401 Y48.658 E27.00544
G1 X218.842 Y67.099 E28.31466
G1 X218.842 Y67.586 E28.33916
G1 X199.914 Y48.658 E29.68302
G1 X199.426 Y48.658 E29.70752
G1 X218.842 Y68.074 E31.08602
G1 X218.842 Y68.562 E31.11051
G1 X198.938 Y48.658 E32.52366
G1 X198.45 Y48.658 E32.54815
G1 X218.842 Y69.05 E33.99594
G1 X218.842 Y69.538 E34.02044
G1 X197.962 Y48.658 E35.50286
G1 X197.474 Y48.658 E35.52736
G1 X218.842 Y70.026 E37.04443
G1 X218.842 Y70.514 E37.06892
G1 X196.986 Y48.658 E38.62064
G1 X196.498 Y48.658 E38.64513
G1 X218.842 Y71.002 E40.23148
G1 X218.842 Y71.49 E40.25598
G1 X196.01 Y48.658 E41.87697
G1 X195.522 Y48.658 E41.90147
G1 X218.842 Y71.978 E43.55711
G1 X218.842 Y72.466 E43.5816
G1 X195.034 Y48.658 E45.27188
G1 X194.546 Y48.658 E45.29637
G1 X218.842 Y72.954 E47.02129
G1 X218.842 Y73.441 E47.04579
G1 X194.059 Y48.658 E48.80535
G1 X193.571 Y48.658 E48.82984
G1 X218.842 Y73.929 E50.62405
G1 X218.842 Y74.417 E50.64854
G1 X193.083 Y48.658 E52.47739
G1 X192.595 Y48.658 E52.50188
G1 X218.842 Y74.905 E54.36537
G1 X218.842 Y75.393 E54.38986
G1 X192.107 Y48.658 E56.28799
G1 X191.619 Y48.658 E56.31248
G1 X218.842 Y75.881 E58.24525
G1 X218.842 Y76.369 E58.26975
G1 X191.131 Y48.658 E60.23716
G1 X190.643 Y48.658 E60.26165
G1 X218.842 Y76.857 E62.26371
G1 X218.842 Y77.345 E62.2882
G1 X190.155 Y48.658 E64.3249
G1 X189.667 Y48.658 E64.34939
G1 X218.842 Y77.833 E66.42073
G1 X218.842 Y78.321 E66.44522
G1 X189.179 Y48.658 E68.5512
G1 X188.691 Y48.658 E68.57569
G1 X218.842 Y78.809 E70.71631
G1 X218.842 Y79.296 E70.74081
G1 X188.204 Y48.658 E72.91607
G1 X187.716 Y48.658 E72.94056
G1 X218.842 Y79.784 E75.15046
G1 X218.842 Y80.272 E75.17496
G1 X187.228 Y48.658 E77.4195
G1 X186.74 Y48.658 E77.444
G1 X218.842 Y80.76 E79.72318
G1 X218.842 Y81.248 E79.74768
G1 X186.252 Y48.658 E82.0615
G1 X185.764 Y48.658 E82.086
G1 X218.842 Y81.736 E84.43447
G1 X218.842 Y82.224 E84.45896
G1 X185.276 Y48.658 E86.84207
G1 X184.788 Y48.658 E86.86657
G1 X218.842 Y82.712 E89.28432
G1 X218.842 Y83.2 E89.30881
G1 X184.3 Y48.658 E91.76121
G1 X183.812 Y48.658 E91.7857
G1 X218.842 Y83.688 E94.27274
G1 X218.842 Y84.176 E94.29723
G1 X183.324 Y48.658 E96.81891
G1 X182.836 Y48.658 E96.8434
G1 X218.842 Y84.664 E99.39972
G1 X218.842 Y85.152 E99.42422
G1 X182.348 Y48.658 E102.01518
G1 X181.861 Y48.658 E102.03967
G1 X218.842 Y85.639 E104.66527
G1 X218.842 Y86.127 E104.68977
G1 X181.373 Y48.658 E107.35001
G1 X180.885 Y48.658 E107.3745
G1 X218.842 Y86.615 E110.06939
G1 X218.842 Y87.103 E110.09388
G1 X180.397 Y48.658 E112.82341
G1 X179.909 Y48.658 E112.84791
G1 X218.842 Y87.591 E115.61207
G1 X218.842 Y88.079 E115.63657
G1 X179.421 Y48.658 E118.43538
G1 X178.933 Y48.658 E118.45987
G1 X218.842 Y88.567 E121.29332
G1 X218.842 Y89.055 E121.31782
G1 X178.445 Y48.658 E124.18591
G1 X177.957 Y48.658 E124.2104
G1 X218.842 Y89.543 E127.11314
G1 X218.842 Y90.031 E127.13763
G1 X177.469 Y48.658 E130.07501
G1 X176.981 Y48.658 E130.0995
G1 X218.842 Y90.519 E133.07152
G1 X218.842 Y91.007 E133.09602
G1 X176.493 Y48.658 E136.10267
G1 X176.006 Y48.658 E136.12717
G1 X218.842 Y91.494 E139.16847
G1 X218.842 Y91.982 E139.19297
G1 X175.518 Y48.658 E142.26891
G1 X175.03 Y48.658 E142.2934
G1 X218.842 Y92.47 E145.40399
G1 X218.842 Y92.958 E145.42848
G1 X174.542 Y48.658 E148.57371
G1 X174.054 Y48.658 E148.5982
G1 X218.842 Y93.446 E151.77807
G1 X218.842 Y93.934 E151.80256
G1 X173.566 Y48.658 E155.01707
G1 X173.078 Y48.658 E155.04157
G1 X218.842 Y94.422 E158.29072
G1 X218.842 Y94.91 E158.31521
G1 X172.59 Y48.658 E161.599
G1 X172.102 Y48.658 E161.6235
G1 X218.842 Y95.398 E164.94193
G1 X218.842 Y95.886 E164.96643
G1 X171.614 Y48.658 E168.3195
G1 X171.126 Y48.658 E168.34399
G1 X218.842 Y96.374 E171.73171
G1 X218.842 Y96.862 E171.75621
G1 X170.638 Y48.658 E175.17856
G1 X170.151 Y48.658 E175.20306
G1 X218.842 Y97.349 E178.66006
G1 X218.842 Y97.837 E178.68455
G1 X169.663 Y48.658 E182.17619
G1 X169.175 Y48.658 E182.20069
G1 X218.842 Y98.325 E185.72697
G1 X218.842 Y98.813 E185.75147
G1 X168.687 Y48.658 E189.31239
G1 X168.199 Y48.658 E189.33689
G1 X218.842 Y99.301 E192.93245
G1 X218.842 Y99.789 E192.95695
G1 X167.711 Y48.658 E196.58715
G1 X167.223 Y48.658 E196.61165
G1 X218.842 Y100.277 E200.2765
G1 X218.842 Y100.765 E200.30099
G1 X166.735 Y48.658 E204.00048
G1 X166.247 Y48.658 E204.02498
G1 X218.842 Y101.253 E207.75911
G1 X218.842 Y101.741 E207.78361
G1 X165.759 Y48.658 E211.55238
G1 X165.271 Y48.658 E211.57688
G1 X218.842 Y102.229 E215.38029
G1 X218.842 Y102.717 E215.40479
G1 X164.783 Y48.658 E219.24284
G1 X164.295 Y48.658 E219.26734
G1 X218.842 Y103.205 E223.14004
G1 X218.842 Y103.692 E223.16453
G1 X163.808 Y48.658 E227.07187
G1 X163.32 Y48.658 E227.09637
G1 X218.842 Y104.18 E231.03835
G1 X218.842 Y104.668 E231.06284
G1 X162.832 Y48.658 E235.03947
G1 X162.344 Y48.658 E235.06396
G1 X218.842 Y105.156 E239.07523
G1 X218.842 Y105.644 E239.09972
G1 X161.856 Y48.658 E243.14563
G1 X161.368 Y48.658 E243.17012
G1 X218.842 Y106.132 E247.25067
G1 X218.842 Y106.62 E247.27517
G1 X160.88 Y48.658 E251.39036
G1 X160.392 Y48.658 E251.41485
G1 X218.842 Y107.108 E255.56468
G1 X218.842 Y107.596 E255.58918
G1 X159.904 Y48.658 E259.77365
G1 X159.416 Y48.658 E259.79815
G1 X218.842 Y108.084 E264.01726
G1 X218.842 Y108.572 E264.04176
G1 X158.928 Y48.658 E268.29551
G1 X158.44 Y48.658 E268.32001
G1 X218.842 Y109.06 E272.60841
G1 X218.842 Y109.547 E272.6329
G1 X157.953 Y48.658 E276.95594
G1 X157.465 Y48.658 E276.98044
G1 X218.842 Y110.035 E281.33812
G1 X218.842 Y110.523 E281.36261
G1 X156.977 Y48.658 E285.75493
G1 X156.489 Y48.658 E285.77943
G1 X218.842 Y111.011 E290.20639
G1 X218.842 Y111.499 E290.23089
G1 X156.001 Y48.658 E294.69249
G1 X155.513 Y48.658 E294.71699
G1 X218.842 Y111.987 E299.21324
G1 X218.842 Y112.475 E299.23773
G1 X155.025 Y48.658 E303.76862
G1 X154.537 Y48.658 E303.79312
G1 X218.842 Y112.963 E308.35865
G1 X218.842 Y113.451 E308.38314
G1 X154.049 Y48.658 E312.98331
G1 X153.561 Y48.658 E313.00781
G1 X218.842 Y113.939 E317.64262
G1 X218.842 Y114.427 E317.66712
G1 X153.073 Y48.658 E322.33657
G1 X152.585 Y48.658 E322.36107
G1 X218.842 Y114.915 E327.06517
G1 X218.842 Y115.403 E327.08966
G1 X152.097 Y48.658 E331.8284
G1 X151.61 Y48.658 E331.85289
G1 X218.842 Y115.89 E336.62627
G1 X218.842 Y116.378 E336.65077
G1 X151.122 Y48.658 E341.45879
G1 X150.634 Y48.658 E341.48329
G1 X218.842 Y116.866 E346.32595
G1 X218.842 Y117.354 E346.35044
G1 X150.146 Y48.658 E351.22775
G1 X149.658 Y48.658 E351.25224
G1 X218.842 Y117.842 E356.16419
G1 X218.842 Y118.33 E356.18869
G1 X149.17 Y48.658 E361.13527
G1 X148.682 Y48.658 E361.15977
G1 X218.842 Y118.818 E366.141
G1 X218.842 Y119.306 E366.16549
G1 X148.194 Y48.658 E371.18137
G1 X147.706 Y48.658 E371.20586
G1 X218.842 Y119.794 E376.25637
G1 X218.842 Y120.282 E376.28087
G1 X147.218 Y48.658 E381.36602
G1 X146.73 Y48.658 E381.39052
G1 X218.842 Y120.77 E386.51031
G1 X218.842 Y121.258 E386.53481
G1 X146.242 Y48.658 E391.68925
G1 X145.755 Y48.658 E391.71374
G1 X218.842 Y121.745 E396.90282
G1 X218.842 Y122.233 E396.92732
G1 X145.267 Y48.658 E402.15104
G1 X144.779 Y48.658 E402.17553
G1 X218.842 Y122.721 E407.4339
G1 X218.842 Y123.209 E407.45839
G1 X144.291 Y48.658 E412.75139
G1 X143.803 Y48.658 E412.77589
G1 X218.842 Y123.697 E418.10354
G1 X218.842 Y124.185 E418.12803
G1 X143.315 Y48.658 E423.49032
G1 X142.827 Y48.658 E423.51481
G1 X218.842 Y124.673 E428.91174
G1 X218.842 Y125.161 E428.93624
G1 X142.339 Y48.658 E434.36781
G1 X141.851 Y48.658 E434.3923
G1 X218.842 Y125.649 E439.85851
G1 X218.842 Y126.137 E439.88301
G1 X141.363 Y48.658 E445.38386
G1 X140.875 Y48.658 E445.40836
G1 X218.842 Y126.625 E450.94385
G1 X218.842 Y127.113 E450.96835
G1 X140.387 Y48.658 E456.53849
G1 X139.9 Y48.658 E456.56298
G1 X218.842 Y127.6 E462.16776
G1 X218.842 Y128.088 E462.19225
G1 X139.412 Y48.658 E467.83167
G1 X138.924 Y48.658 E467.85617
G1 X218.842 Y128.576 E473.53023
G1 X218.842 Y129.064 E473.55473
G1 X138.436 Y48.658 E479.26343
G1 X137.948 Y48.658 E479.28793
G1 X218.842 Y129.552 E485.03127
G1 X218.842 Y130.04 E485.05576
G1 X137.46 Y48.658 E490.83375
G1 X136.972 Y48.658 E490.85825
G1 X218.842 Y130.528 E496.67087
G1 X218.842 Y131.016 E496.69537
G1 X136.484 Y48.658 E502.54264
G1 X135.996 Y48.658 E502.56713
G1 X218.842 Y131.504 E508.44905
G1 X218.842 Y131.992 E508.47354
G1 X135.508 Y48.658 E514.39009
G1 X135.02 Y48.658 E514.41459
G1 X218.842 Y132.48 E520.36578
G1 X218.842 Y132.968 E520.39028
G1 X134.532 Y48.658 E526.37611
G1 X134.044 Y48.658 E526.40061
G1 X218.842 Y133.456 E532.42109
G1 X218.842 Y133.943 E532.44558
G1 X133.557 Y48.658 E538.5007
G1 X133.069 Y48.658 E538.5252
G1 X218.842 Y134.431 E544.61496
G1 X218.842 Y134.919 E544.63945
G1 X132.581 Y48.658 E550.76386
G1 X132.093 Y48.658 E550.78835
G1 X218.842 Y135.407 E556.94739
G1 X218.842 Y135.895 E556.97189
G1 X131.605 Y48.658 E563.16558
G1 X131.117 Y48.658 E563.19007
G1 X218.842 Y136.383 E569.4184
G1 X218.842 Y136.871 E569.44289
G1 X130.629 Y48.658 E575.70586
G1 X130.141 Y48.658 E575.73036
G1 X218.842 Y137.359 E582.02797
G1 X218.842 Y137.847 E582.05246
G1 X129.653 Y48.658 E588.38471
G1 X129.165 Y48.658 E588.40921
G1 X218.842 Y138.335 E594.7761
G1 X218.842 Y138.823 E594.8006
G1 X128.677 Y48.658 E601.20213
G1 X128.189 Y48.658 E601.22663
G1 X218.842 Y139.311 E607.66281
G1 X218.842 Y139.798 E607.6873
G1 X127.702 Y48.658 E614.15812
G1 X127.214 Y48.658 E614.18261
G1 X218.842 Y140.286 E620.68807
G1 X218.842 Y140.774 E620.71257
G1 X126.726 Y48.658 E627.25267
G1 X126.238 Y48.658 E627.27717
G1 X218.842 Y141.262 E633.85191
G1 X218.842 Y141.75 E633.8764
G1 X125.75 Y48.658 E640.48579
G1 X125.262 Y48.658 E640.51028
G1 X218.842 Y142.238 E647.15431
G1 X218.842 Y142.726 E647.17881
G1 X124.774 Y48.658 E653.85747
G1 X124.286 Y48.658 E653.88197
G1 X218.842 Y143.214 E660.59528
G1 X218.842 Y143.702 E660.61977
G1 X123.798 Y48.658 E667.36773
G1 X123.31 Y48.658 E667.39222
G1 X218.842 Y144.19 E674.17481
G1 X218.842 Y144.678 E674.19931
G1 X122.822 Y48.658 E681.01654
G1 X122.334 Y48.658 E681.04104
G1 X218.842 Y145.166 E687.89291
G1 X218.842 Y145.654 E687.91741
G1 X121.847 Y48.658 E694.80393
G1 X121.359 Y48.658 E694.82842
G1 X218.842 Y146.141 E701.74958
G1 X218.842 Y146.629 E701.77408
G1 X120.871 Y48.658 E708.72988
G1 X120.383 Y48.658 E708.75437
G1 X218.842 Y147.117 E715.74481
G1 X218.842 Y147.605 E715.76931
G1 X119.895 Y48.658 E722.79439
G1 X119.407 Y48.658 E722.81889
G1 X218.842 Y148.093 E729.87861
G1 X218.842 Y148.581 E729.90311
G1 X118.919 Y48.658 E736.99748
G1 X118.431 Y48.658 E737.02197
G1 X218.842 Y149.069 E744.15098
G1 X218.842 Y149.557 E744.17548
G1 X117.943 Y48.658 E751.33913
G1 X117.455 Y48.658 E751.36362
G1 X218.842 Y150.045 E758.56191
G1 X218.842 Y150.533 E758.58641
G1 X116.967 Y48.658 E765.81934
G1 X116.479 Y48.658 E765.84384
G1 X218.842 Y151.021 E773.11141
G1 X218.842 Y151.509 E773.13591
G1 X115.991 Y48.658 E780.43813
G1 X115.504 Y48.658 E780.46262
G1 X218.842 Y151.996 E787.79948
G1 X218.842 Y152.484 E787.82397
G1 X115.016 Y48.658 E795.19547
G1 X114.528 Y48.658 E795.21997
G1 X218.842 Y152.972 E802.62611
G1 X218.842 Y153.46 E802.65061
G1 X114.04 Y48.658 E810.09139
G1 X113.552 Y48.658 E810.11588
G1 X218.842 Y153.948 E817.59131
G1 X218.842 Y154.436 E817.6158
G1 X113.064 Y48.658 E825.12587
G1 X112.576 Y48.658 E825.15037
G1 X218.842 Y154.924 E832.69507
G1 X218.842 Y155.412 E832.71957
G1 X112.088 Y48.658 E840.29892
G1 X111.6 Y48.658 E840.32341
G1 X218.842 Y155.9 E847.93741
G1 X218.842 Y156.388 E847.9619
G1 X111.112 Y48.658 E855.61053
G1 X110.624 Y48.658 E855.63503
G1 X218.842 Y156.876 E863.3183
G1 X218.842 Y157.364 E863.3428
G1 X110.136 Y48.658 E871.06071
G1 X109.649 Y48.658 E871.08521
G1 X218.842 Y157.851 E878.83777
G1 X218.842 Y158.339 E878.86226
G1 X109.161 Y48.658 E886.64946
G1 X108.673 Y48.658 E886.67396
G1 X218.842 Y158.827 E894.4958
G1 X218.842 Y159.315 E894.52029
G1 X108.185 Y48.658 E902.37677
G1 X107.697 Y48.658 E902.40127
G1 X218.842 Y159.803 E910.29239
