; generated by PrusaSlicer 2.4.2 on 2022-07-11 at 12:35:36 UTC


;
;

;
;
; 

; external perimeters extrusion width = 0.40mm
; perimeters extrusion width = 0.40mm
; infill extrusion width = 0.45mm
; solid infill extrusion width = 0.45mm
; top infill extrusion width = 0.40mm
; support material extrusion width = 0.35mm
; first layer extrusion width = 0.42mm

M73 P0 R251
M201 X1250 Y1250 Z400 E5000 ; sets maximum accelerations, mm/sec^2
M203 X180 Y180 Z12 E80 ; sets maximum feedrates, mm / sec
M204 P1250 R1250 T1250 ; sets acceleration (P, T) and retract acceleration (R), mm/sec^2
M205 X8.00 Y8.00 Z2.00 E10.00 ; sets the jerk limits, mm/sec
M205 S0 T0 ; sets the minimum extruding and travel feed rate, mm/sec
M107
;TYPE:Custom
G90 ; use absolute coordinates
M83 ; extruder relative mode
M104 S170 ; set extruder temp for bed leveling
M140 S60 ; set bed temp
M109 R170 ; wait for bed leveling temp
M190 S60 ; wait for bed temp
G28 ; home all without mesh bed level
G29 ; mesh bed leveling 
M104 S215 ; set extruder temp
G92 E0.0
G1 Y-2.0 X179 F2400
G1 Z3 F720
M109 S215 ; wait for extruder temp

; intro line
G1 X170 F1000
G1 Z0.2 F720
G1 X110.0 E8.0 F900
G1 X40.0 E10.0 F700
G92 E0.0

M221 S95 ; set flow
G21 ; set units to millimeters
G90 ; use absolute coordinates
M83 ; use relative distances for extrusion
M900 K0.2 ; Filament gcode LA 1.5
; ; Filament gcode LA 1.0
M107
;LAYER_CHANGE
;Z:0.2
;HEIGHT:0.2
;BEFORE_LAYER_CHANGE
G92 E0.0
;0.2


G1 E-3.2 F4200
M73 P0 R250
G1 Z.2 F9000
;AFTER_LAYER_CHANGE
;0.2
G1 Z.4
G1 X141.448 Y148.519
G1 Z.2
G1 E3.2 F2400
M204 S800
;TYPE:Skirt/Brim
;WIDTH:0.42
G1 F1200
G1 X143.129 Y147.823 E.05704
G1 X206.871 Y147.823 E1.99859
G1 X208.552 Y148.519 E.05704
G1 X211.481 Y151.448 E.12987
G1 X212.177 Y153.129 E.05704
G1 X212.177 Y196.871 E1.3715
G1 X211.481 Y198.552 E.05704
G1 X208.552 Y201.481 E.12987
G1 X206.871 Y202.177 E.05704
G1 X143.129 Y202.177 E1.99859
G1 X141.448 Y201.481 E.05704
G1 X138.519 Y198.552 E.12987
G1 X137.823 Y196.871 E.05704
G1 X137.823 Y153.129 E1.3715
G1 X138.519 Y151.448 E.05704
G1 X141.406 Y148.562 E.12799
M204 S1250
G1 E-2.24 F4200
;WIPE_START
G1 F7200
G1 X142.918 Y147.913 E-.912
;WIPE_END
G1 E-.048 F4200
G1 Z.4 F9000
G1 X142.739 Y151.159
G1 Z.2
G1 E3.2 F2400
M204 S800
G1 F1200
G1 X143.468 Y150.785 E.02569
G1 X144.691 Y150.486 E.03945
G1 X205.286 Y150.49 E1.89994
G1 X206.235 Y150.674 E.03029
G1 X207.143 Y151.065 E.03101
G1 X208.362 Y152.088 E.0499
G1 X209.153 Y153.306 E.04551
G1 X209.513 Y154.689 E.04481
G1 X209.513 Y195.31 E1.27365
G1 X209.215 Y196.533 E.03948
G1 X208.796 Y197.369 E.02932
G1 X207.416 Y198.762 E.06148
G1 X206.532 Y199.215 E.03114
G1 X205.31 Y199.513 E.03945
G1 X144.69 Y199.513 E1.90067
G1 X143.467 Y199.215 E.03948
G1 X142.631 Y198.796 E.02932
G1 X141.238 Y197.416 E.06148
G1 X140.785 Y196.532 E.03114
G1 X140.487 Y195.31 E.03945
G1 X140.487 Y154.69 E1.27359
G1 X140.785 Y153.467 E.03948
G1 X141.204 Y152.631 E.02932
G1 X142.584 Y151.238 E.06148
G1 X142.686 Y151.186 E.00357
M204 S1250
G1 X142.853 Y151.515 F9000
M204 S800
G1 F1200
G1 X143.58 Y151.145 E.02557
G1 X144.714 Y150.864 E.03665
G1 X205.268 Y150.867 E1.89862
G1 X206.141 Y151.04 E.02791
G1 X206.966 Y151.399 E.02823
G1 X208.097 Y152.358 E.04647
G1 X208.796 Y153.432 E.04018
G1 X209.136 Y154.713 E.04157
G1 X209.136 Y195.286 E1.27213
G1 X208.855 Y196.42 E.03664
G1 X208.473 Y197.171 E.02639
G1 X207.171 Y198.473 E.05777
G1 X206.42 Y198.855 E.02639
G1 X205.286 Y199.136 E.03664
G1 X144.714 Y199.136 E1.89921
G1 X143.58 Y198.855 E.03664
G1 X142.829 Y198.473 E.02639
G1 X141.527 Y197.171 E.05777
G1 X141.145 Y196.42 E.02639
G1 X140.864 Y195.286 E.03664
G1 X140.864 Y154.714 E1.27212
G1 X141.145 Y153.58 E.03664
G1 X141.527 Y152.829 E.02639
G1 X142.805 Y151.55 E.05671
M204 S1250
G1 X143.028 Y151.848 F9000
M204 S800
G1 F1200
G1 X143.694 Y151.505 E.02348
G1 X144.738 Y151.241 E.03376
G1 X205.248 Y151.244 E1.89727
G1 X206.046 Y151.405 E.0255
G1 X206.788 Y151.733 E.02545
G1 X207.83 Y152.626 E.04302
G1 X208.463 Y153.61 E.03669
G1 X208.759 Y154.738 E.03655
G1 X208.759 Y195.262 E1.27063
G1 X208.495 Y196.306 E.03376
G1 X208.152 Y196.972 E.02348
G1 X206.972 Y198.152 E.05234
G1 X206.306 Y198.495 E.02348
G1 X205.262 Y198.759 E.03376
G1 X144.738 Y198.759 E1.89771
G1 X143.694 Y198.495 E.03376
G1 X143.028 Y198.152 E.02348
G1 X141.848 Y196.972 E.05234
G1 X141.505 Y196.306 E.02348
G1 X141.241 Y195.262 E.03376
G1 X141.241 Y154.738 E1.27062
G1 X141.505 Y153.694 E.03376
G1 X141.848 Y153.028 E.02348
G1 X142.986 Y151.89 E.05045
M204 S1250
G1 X143.229 Y152.169 F9000
M204 S800
G1 F1200
G1 X143.811 Y151.865 E.02058
G1 X144.762 Y151.618 E.03083
G1 X205.229 Y151.621 E1.89588
G1 X205.948 Y151.77 E.02304
G1 X206.608 Y152.065 E.02266
G1 X207.562 Y152.892 E.0396
G1 X208.106 Y153.737 E.03149
G1 X208.382 Y154.763 E.03331
G1 X208.382 Y195.238 E1.26907
G1 X208.135 Y196.189 E.03083
G1 X207.831 Y196.771 E.02058
G1 X206.771 Y197.831 E.04702
G1 X206.189 Y198.135 E.02058
G1 X205.238 Y198.382 E.03083
G1 X144.762 Y198.382 E1.89617
G1 X143.811 Y198.135 E.03083
M73 P0 R249
G1 X143.229 Y197.831 E.02058
G1 X142.169 Y196.771 E.04702
G1 X141.865 Y196.189 E.02058
G1 X141.618 Y195.238 E.03083
G1 X141.618 Y154.762 E1.26909
G1 X141.865 Y153.811 E.03083
G1 X142.169 Y153.229 E.02058
G1 X143.186 Y152.211 E.04513
M204 S1250
G1 X143.431 Y152.488 F9000
M204 S800
G1 F1200
G1 X143.929 Y152.223 E.0177
G1 X144.787 Y151.995 E.02783
G1 X205.21 Y151.998 E1.8945
G1 X205.813 Y152.123 E.01933
G1 X206.428 Y152.397 E.0211
G1 X207.292 Y153.157 E.03609
G1 X207.772 Y153.914 E.02809
G1 X208.005 Y154.787 E.02835
G1 X208.005 Y195.213 E1.26751
G1 X207.777 Y196.071 E.02783
G1 X207.512 Y196.569 E.0177
G1 X206.569 Y197.512 E.04182
G1 X206.071 Y197.777 E.0177
G1 X205.213 Y198.005 E.02783
G1 X144.787 Y198.005 E1.8946
G1 X143.929 Y197.777 E.02783
G1 X143.431 Y197.512 E.0177
G1 X142.488 Y196.569 E.04182
G1 X142.223 Y196.071 E.0177
G1 X141.995 Y195.213 E.02783
G1 X141.995 Y154.787 E1.26751
G1 X142.223 Y153.929 E.02783
G1 X142.488 Y153.431 E.0177
G1 X143.389 Y152.53 E.03994
M204 S1250
G1 X143.635 Y152.806 F9000
M204 S800
G1 F1200
G1 X144.051 Y152.58 E.01483
G1 X144.813 Y152.372 E.02477
G1 X205.189 Y152.376 E1.89305
G1 X205.714 Y152.487 E.01681
G1 X206.245 Y152.728 E.01829
G1 X207.022 Y153.421 E.03263
G1 X207.416 Y154.041 E.02306
G1 X207.628 Y154.813 E.0251
G1 X207.628 Y195.187 E1.26589
G1 X207.42 Y195.949 E.02477
G1 X207.194 Y196.365 E.01483
G1 X206.365 Y197.194 E.03678
G1 X205.949 Y197.42 E.01483
G1 X205.187 Y197.628 E.02477
G1 X144.813 Y197.628 E1.89297
G1 X144.051 Y197.42 E.02477
G1 X143.635 Y197.194 E.01483
G1 X142.806 Y196.365 E.03678
G1 X142.58 Y195.949 E.01483
G1 X142.372 Y195.187 E.02477
G1 X142.372 Y154.813 E1.26589
G1 X142.58 Y154.051 E.02477
G1 X142.806 Y153.635 E.01483
G1 X143.593 Y152.848 E.0349
M204 S1250
G1 X143.842 Y153.122 F9000
M204 S800
G1 F1200
G1 X144.176 Y152.937 E.012
G1 X144.84 Y152.749 E.02163
G1 X205.168 Y152.753 E1.89154
G1 X205.611 Y152.85 E.01424
G1 X206.059 Y153.058 E.01548
G1 X206.75 Y153.683 E.0292
G1 X207.062 Y154.171 E.01818
G1 X207.251 Y154.84 E.02179
G1 X207.251 Y195.16 E1.2642
G1 X207.063 Y195.824 E.02162
G1 X206.878 Y196.158 E.012
G1 X206.158 Y196.878 E.03191
G1 X205.824 Y197.063 E.012
G1 X205.16 Y197.251 E.02162
G1 X144.84 Y197.251 E1.89129
G1 X144.176 Y197.063 E.02162
G1 X143.842 Y196.878 E.012
G1 X143.122 Y196.158 E.03191
G1 X142.937 Y195.824 E.012
G1 X142.749 Y195.16 E.02162
G1 X142.749 Y154.84 E1.2642
G1 X142.937 Y154.176 E.02162
G1 X143.122 Y153.842 E.012
G1 X143.799 Y153.165 E.03003
M204 S1250
G1 X144.051 Y153.437 F9000
M204 S800
G1 F1200
G1 X144.306 Y153.291 E.00919
G1 X144.868 Y153.126 E.01838
G1 X205.146 Y153.13 E1.88996
G1 X205.505 Y153.213 E.01157
G1 X205.871 Y153.385 E.01268
G1 X206.476 Y153.943 E.0258
G1 X206.708 Y154.305 E.01347
G1 X206.874 Y154.868 E.01841
G1 X206.874 Y195.132 E1.26244
G1 X206.709 Y195.694 E.01838
G1 X206.563 Y195.949 E.00919
G1 X205.949 Y196.563 E.02726
G1 X205.694 Y196.709 E.00919
G1 X205.132 Y196.874 E.01838
G1 X144.868 Y196.874 E1.88953
G1 X144.306 Y196.709 E.01838
G1 X144.051 Y196.563 E.00919
G1 X143.437 Y195.949 E.02726
G1 X143.291 Y195.694 E.00919
G1 X143.126 Y195.132 E.01838
G1 X143.126 Y154.868 E1.26245
G1 X143.291 Y154.306 E.01838
G1 X143.437 Y154.051 E.00919
G1 X144.009 Y153.479 E.02537
M204 S1250
G1 X144.264 Y153.748 F9000
M204 S800
G1 F1200
G1 X144.441 Y153.644 E.00641
G1 X144.898 Y153.503 E.015
G1 X205.124 Y153.507 E1.88835
G1 X205.362 Y153.562 E.00767
G1 X205.682 Y153.713 E.01109
G1 X206.201 Y154.201 E.02233
G1 X206.356 Y154.442 E.00898
G1 X206.497 Y154.898 E.01495
G1 X206.497 Y195.102 E1.26059
G1 X206.356 Y195.559 E.015
G1 X206.252 Y195.736 E.00641
G1 X205.736 Y196.252 E.02289
G1 X205.559 Y196.356 E.00641
G1 X205.102 Y196.497 E.015
G1 X144.898 Y196.497 E1.88768
G1 X144.441 Y196.356 E.015
G1 X144.264 Y196.252 E.00641
G1 X143.748 Y195.736 E.02289
G1 X143.644 Y195.559 E.00641
G1 X143.503 Y195.102 E.015
G1 X143.503 Y154.898 E1.26059
G1 X143.644 Y154.441 E.015
G1 X143.748 Y154.264 E.00641
G1 X144.222 Y153.791 E.02101
M204 S1250
G1 X144.483 Y154.056 F9000
M204 S800
G1 F1200
G1 X144.583 Y153.994 E.00369
G1 X144.929 Y153.88 E.01144
G1 X205.102 Y153.884 E1.88667
G1 X205.219 Y153.911 E.00377
M73 P0 R248
G1 X205.492 Y154.04 E.00947
G1 X205.923 Y154.457 E.0188
G1 X206.007 Y154.585 E.00479
G1 X206.12 Y154.929 E.01136
G1 X206.12 Y195.071 E1.2586
G1 X206.006 Y195.417 E.01144
G1 X205.944 Y195.517 E.00369
G1 X205.517 Y195.944 E.01893
G1 X205.417 Y196.006 E.00369
G1 X205.071 Y196.12 E.01144
G1 X144.929 Y196.12 E1.88569
G1 X144.583 Y196.006 E.01144
G1 X144.483 Y195.944 E.00369
G1 X144.056 Y195.517 E.01893
G1 X143.994 Y195.417 E.00369
G1 X143.88 Y195.071 E.01144
G1 X143.88 Y154.929 E1.2586
G1 X143.994 Y154.583 E.01144
G1 X144.056 Y154.483 E.00369
G1 X144.44 Y154.098 E.01705
M204 S1250
G1 X144.704 Y154.362 F9000
M204 S800
G1 F1200
G1 X144.964 Y154.257 E.00879
G1 X205.05 Y154.257 E1.88393
G1 X205.3 Y154.367 E.00856
G1 X205.643 Y154.71 E.01522
G1 X205.743 Y154.964 E.00856
G1 X205.743 Y195.036 E1.2564
G1 X205.643 Y195.29 E.00856
G1 X205.29 Y195.643 E.01566
G1 X205.036 Y195.743 E.00856
G1 X144.964 Y195.743 E1.88349
G1 X144.71 Y195.643 E.00856
G1 X144.357 Y195.29 E.01566
G1 X144.257 Y195.036 E.00856
G1 X144.257 Y154.964 E1.2564
G1 X144.357 Y154.71 E.00856
G1 X144.662 Y154.405 E.01353
M204 S1250
G1 X144.929 Y154.671 F9000
M204 S800
G1 F1200
G1 X145.006 Y154.634 E.0027
G1 X204.994 Y154.634 E1.88086
G1 X205.063 Y154.663 E.00235
M73 P1 R248
G1 X205.337 Y154.937 E.01215
G1 X205.366 Y155.006 E.00235
G1 X205.366 Y194.994 E1.25378
G1 X205.337 Y195.063 E.00235
G1 X205.063 Y195.337 E.01215
G1 X204.994 Y195.366 E.00235
G1 X145.006 Y195.366 E1.88086
G1 X144.937 Y195.337 E.00235
G1 X144.663 Y195.063 E.01215
G1 X144.634 Y194.994 E.00235
G1 X144.634 Y155.006 E1.25378
G1 X144.663 Y154.937 E.00235
G1 X144.886 Y154.714 E.00989
M204 S1250
G1 X145.122 Y155.011 F9000
M204 S800
G1 F1200
G1 X204.878 Y155.011 E1.87361
G1 X204.989 Y155.122 E.0049
G1 X204.989 Y194.878 E1.24653
G1 X204.878 Y194.989 E.0049
G1 X145.122 Y194.989 E1.87361
G1 X145.011 Y194.878 E.0049
G1 X145.011 Y155.122 E1.24653
G1 X145.079 Y155.054 E.00302
M204 S1250
; printing object blade_cutter_jig.stl id:0 copy 0
G1 X145.41 Y155.41 F9000
M204 S800
;TYPE:External perimeter
G1 F1200
G1 X204.59 Y155.41 E1.85555
G1 X204.59 Y194.59 E1.22846
G1 X145.41 Y194.59 E1.85555
G1 X145.41 Y155.47 E1.22658
M204 S1250
G1 X145.802 Y155.487 F9000
G1 X145.787 Y155.787
M204 S800
;TYPE:Perimeter
G1 F1200
G1 X204.213 Y155.787 E1.8319
G1 X204.213 Y194.213 E1.20482
G1 X145.787 Y194.213 E1.8319
G1 X145.787 Y155.847 E1.20293
M204 S1250
G1 E-2.24 F4200
;WIPE_START
G1 F7200
G1 X147.433 Y155.845 E-.912
;WIPE_END
G1 E-.048 F4200
G1 Z.4 F9000
G1 X204.1 Y156.667
G1 Z.2
G1 E3.2 F2400
M204 S800
;TYPE:Solid infill
;WIDTH:0.421908
G1 F1200
G1 X203.503 Y156.07 E.02659
G1 X202.967 Y156.07 E.01689
G1 X203.93 Y157.033 E.04291
G1 X203.93 Y157.569 E.01689
G1 X202.431 Y156.07 E.0668
G1 X201.895 Y156.07 E.01689
G1 X203.93 Y158.105 E.09069
G1 X203.93 Y158.641 E.01689
G1 X201.359 Y156.07 E.11457
G1 X200.823 Y156.07 E.01689
G1 X203.93 Y159.177 E.13846
G1 X203.93 Y159.713 E.01689
G1 X200.287 Y156.07 E.16234
G1 X199.751 Y156.07 E.01689
G1 X203.93 Y160.249 E.18623
G1 X203.93 Y160.785 E.01689
M73 P1 R247
G1 X199.215 Y156.07 E.21012
G1 X198.679 Y156.07 E.01689
G1 X203.93 Y161.321 E.234
G1 X203.93 Y161.857 E.01689
G1 X198.143 Y156.07 E.25789
G1 X197.608 Y156.07 E.01689
G1 X203.93 Y162.392 E.28177
G1 X203.93 Y162.928 E.01689
G1 X197.072 Y156.07 E.30566
G1 X196.536 Y156.07 E.01689
G1 X203.93 Y163.464 E.32955
G1 X203.93 Y164 E.01689
G1 X196 Y156.07 E.35343
G1 X195.464 Y156.07 E.01689
G1 X203.93 Y164.536 E.37732
G1 X203.93 Y165.072 E.01689
G1 X194.928 Y156.07 E.4012
G1 X194.392 Y156.07 E.01689
G1 X203.93 Y165.608 E.42509
G1 X203.93 Y166.144 E.01689
G1 X193.856 Y156.07 E.44898
G1 X193.32 Y156.07 E.01689
G1 X203.93 Y166.68 E.47286
G1 X203.93 Y167.216 E.01689
G1 X192.784 Y156.07 E.49675
G1 X192.248 Y156.07 E.01689
G1 X203.93 Y167.752 E.52064
G1 X203.93 Y168.288 E.01689
G1 X191.712 Y156.07 E.54452
G1 X191.176 Y156.07 E.01689
G1 X203.93 Y168.824 E.56841
G1 X203.93 Y169.36 E.01689
G1 X190.64 Y156.07 E.59229
G1 X190.104 Y156.07 E.01689
G1 X203.93 Y169.896 E.61618
G1 X203.93 Y170.432 E.01689
G1 X189.568 Y156.07 E.64007
G1 X189.032 Y156.07 E.01689
G1 X203.93 Y170.968 E.66395
G1 X203.93 Y171.504 E.01689
G1 X188.496 Y156.07 E.68784
G1 X187.96 Y156.07 E.01689
G1 X203.93 Y172.04 E.71172
G1 X203.93 Y172.576 E.01689
G1 X187.424 Y156.07 E.73561
G1 X186.888 Y156.07 E.01689
G1 X203.93 Y173.112 E.7595
G1 X203.93 Y173.648 E.01689
G1 X186.352 Y156.07 E.78338
G1 X185.816 Y156.07 E.01689
G1 X203.93 Y174.184 E.80727
G1 X203.93 Y174.72 E.01689
G1 X185.28 Y156.07 E.83115
G1 X184.744 Y156.07 E.01689
G1 X203.93 Y175.256 E.85504
G1 X203.93 Y175.792 E.01689
G1 X184.208 Y156.07 E.87893
G1 X183.672 Y156.07 E.01689
G1 X203.93 Y176.328 E.90281
G1 X203.93 Y176.864 E.01689
G1 X183.136 Y156.07 E.9267
G1 X182.6 Y156.07 E.01689
G1 X203.93 Y177.4 E.95058
G1 X203.93 Y177.936 E.01689
G1 X182.064 Y156.07 E.97447
G1 X181.528 Y156.07 E.01689
G1 X203.93 Y178.472 E.99836
G1 X203.93 Y179.008 E.01689
G1 X180.992 Y156.07 E1.02224
G1 X180.456 Y156.07 E.01689
G1 X203.93 Y179.544 E1.04613
G1 X203.93 Y180.08 E.01689
G1 X179.92 Y156.07 E1.07002
G1 X179.385 Y156.07 E.01689
G1 X203.93 Y180.615 E1.0939
G1 X203.93 Y181.151 E.01689
G1 X178.849 Y156.07 E1.11779
G1 X178.313 Y156.07 E.01689
G1 X203.93 Y181.687 E1.14167
G1 X203.93 Y182.223 E.01689
G1 X177.777 Y156.07 E1.16556
G1 X177.241 Y156.07 E.01689
G1 X203.93 Y182.759 E1.18945
G1 X203.93 Y183.295 E.01689
G1 X176.705 Y156.07 E1.21333
G1 X176.169 Y156.07 E.01689
G1 X203.93 Y183.831 E1.23722
G1 X203.93 Y184.367 E.01689
G1 X175.633 Y156.07 E1.2611
G1 X175.097 Y156.07 E.01689
G1 X203.93 Y184.903 E1.28499
G1 X203.93 Y185.439 E.01689
G1 X174.561 Y156.07 E1.30888
G1 X174.025 Y156.07 E.01689
G1 X203.93 Y185.975 E1.33276
G1 X203.93 Y186.511 E.01689
M73 P1 R246
G1 X173.489 Y156.07 E1.35665
G1 X172.953 Y156.07 E.01689
G1 X203.93 Y187.047 E1.38053
G1 X203.93 Y187.583 E.01689
G1 X172.417 Y156.07 E1.40442
G1 X171.881 Y156.07 E.01689
G1 X203.93 Y188.119 E1.42831
G1 X203.93 Y188.655 E.01689
G1 X171.345 Y156.07 E1.45219
G1 X170.809 Y156.07 E.01689
G1 X203.93 Y189.191 E1.47608
G1 X203.93 Y189.727 E.01689
G1 X170.273 Y156.07 E1.49996
G1 X169.737 Y156.07 E.01689
G1 X203.93 Y190.263 E1.52385
G1 X203.93 Y190.799 E.01689
G1 X169.201 Y156.07 E1.54774
G1 X168.665 Y156.07 E.01689
G1 X203.93 Y191.335 E1.57162
G1 X203.93 Y191.871 E.01689
G1 X168.129 Y156.07 E1.59551
G1 X167.593 Y156.07 E.01689
G1 X203.93 Y192.407 E1.61939
G1 X203.93 Y192.943 E.01689
G1 X167.057 Y156.07 E1.64328
G1 X166.521 Y156.07 E.01689
G1 X203.93 Y193.479 E1.66717
G1 X203.93 Y193.93 E.01422
G1 X203.846 Y193.93 E.00267
G1 X165.985 Y156.07 E1.68728
G1 X165.449 Y156.07 E.01689
G1 X203.31 Y193.93 E1.68728
G1 X202.774 Y193.93 E.01689
G1 X164.913 Y156.07 E1.68728
G1 X164.377 Y156.07 E.01689
G1 X202.238 Y193.93 E1.68728
G1 X201.702 Y193.93 E.01689
G1 X163.841 Y156.07 E1.68728
G1 X163.305 Y156.07 E.01689
