; generated by PrusaSlicer 2.4.2 on 2022-05-07 at 17:34:02 UTC

; 

; external perimeters extrusion width = 0.45mm
; perimeters extrusion width = 0.45mm
; infill extrusion width = 0.45mm
; solid infill extrusion width = 0.45mm
; top infill extrusion width = 0.40mm
; support material extrusion width = 0.35mm
; first layer extrusion width = 0.42mm

M107
M190 S60 ; set bed temperature and wait for it to be reached
M104 S210 ; set temperature
;TYPE:Custom
G28 ; home all axes
G1 Z5 F5000 ; lift nozzle
M109 S210 ; set temperature and wait for it to be reached
G21 ; set units to millimeters
G90 ; use absolute coordinates
M82 ; use absolute distances for extrusion
G92 E0
; Filament gcode
M107
;LAYER_CHANGE
;Z:0.35
;HEIGHT:0.35
G1 Z.35 F7800
G1 E-2 F2400
G92 E0
G1 X122.761 Y123.427 F7800
G1 E2 F2400
;TYPE:Skirt/Brim
;WIDTH:0.42
G1 F1800
G1 X124.503 Y122.012 E2.11262
G1 X126.691 Y121.284 E2.22833
G1 X170.147 Y115.216 E4.43039
G1 X171.024 Y115.155 E4.47453
G1 X178.411 Y115.156 E4.84521
G1 X180.332 Y115.193 E4.94164
G1 X182.532 Y115.632 E5.05426
G1 X184.443 Y116.81 E5.16689
G1 X185.824 Y118.578 E5.27951
G1 X186.555 Y121.537 E5.43245
G1 X186.555 Y178.434 E8.28788
G1 X186.159 Y180.643 E8.4005
G1 X185.018 Y182.575 E8.51312
G1 X183.275 Y183.989 E8.62575
G1 X180.429 Y184.775 E8.77395
G1 X178.289 Y184.845 E8.88137
G1 X171.024 Y184.845 E9.24597
G1 X170.088 Y184.775 E9.29309
G1 X129.417 Y178.707 E11.35679
G1 X127.291 Y177.989 E11.46941
G1 X125.548 Y176.575 E11.58203
G1 X124.334 Y174.438 E11.70538
G1 X121.549 Y166.082 E12.14746
G1 X121.223 Y164.075 E12.24947
G1 X121.223 Y127.568 E14.08162
G1 X121.62 Y125.359 E14.19424
G1 X122.73 Y123.478 E14.30385
G1 E12.30385 F2400
G92 E0
G1 X136.147 Y133.158 F7800
G1 E2 F2400
;TYPE:Support material interface
;WIDTH:0.35
G1 F1800
G1 X136.147 Y166.714 E3.34224
G1 X136.433 Y166.714 E3.35366
G1 X136.433 Y133.286 E4.69076
G1 X136.719 Y133.286 E4.70219
G1 X136.719 Y166.714 E6.03929
G1 X137.004 Y166.714 E6.05071
G1 X137.004 Y133.286 E7.38781
G1 X137.29 Y133.286 E7.39923
G1 X137.29 Y166.714 E8.73633
G1 X137.576 Y166.714 E8.74776
G1 X137.576 Y133.286 E10.08486
G1 X137.861 Y133.286 E10.09628
G1 X137.861 Y166.714 E11.43338
G1 X138.147 Y166.714 E11.4448
G1 X138.147 Y133.286 E12.7819
G1 X138.432 Y133.286 E12.79333
G1 X138.432 Y166.714 E14.13043
G1 X138.718 Y166.714 E14.14185
G1 X138.718 Y133.286 E15.47895
G1 X139.004 Y133.286 E15.49037
G1 X139.004 Y166.714 E16.82747
G1 X139.289 Y166.714 E16.8389
G1 X139.289 Y133.286 E18.17599
G1 X139.575 Y133.286 E18.18742
G1 X139.575 Y166.842 E19.52966
G1 X141.574 Y166.842 F7800
G1 F1800
G1 X141.574 Y165.172 E19.59646
G1 X141.289 Y165.225 E19.60808
G1 X141.289 Y166.714 E19.66762
G1 X141.003 Y166.714 E19.67905
G1 X141.003 Y165.289 E19.73603
G1 X140.901 Y165.314 E19.7402
G1 X140.876 Y165.294 E19.74148
G1 X140.717 Y165.332 E19.74802
G1 X140.717 Y166.714 E19.8033
G1 X140.432 Y166.714 E19.81472
G1 X140.432 Y165.4 E19.86727
G1 X140.146 Y165.468 E19.87901
G1 X140.146 Y166.714 E19.92883
G1 X139.86 Y166.714 E19.94025
G1 X139.86 Y165.325 E19.99579
G1 X139.634 Y165.147 E20.00732
G1 X139.611 Y134.853 E21.21908
G1 X139.86 Y134.654 E21.23183
G1 X139.86 Y133.286 E21.28655
G1 X140.146 Y133.286 E21.29798
G1 X140.146 Y134.536 E21.34797
G1 X140.432 Y134.602 E21.3597
G1 X140.432 Y133.286 E21.41233
G1 X140.717 Y133.286 E21.42376
G1 X140.717 Y134.668 E21.47903
G1 X140.887 Y134.707 E21.48599
G1 X140.912 Y134.687 E21.48728
G1 X141.003 Y134.708 E21.49101
G1 X141.003 Y133.286 E21.5479
G1 X141.289 Y133.286 E21.55932
G1 X141.289 Y134.774 E21.61885
G1 X141.574 Y134.832 E21.6305
G1 X141.574 Y133.158 E21.69747
G1 E19.69747 F2400
G92 E0
G1 X140.728 Y135.033 F7800
G1 E2 F2400
;TYPE:Support material
;WIDTH:0.42
G1 F1800
G1 X140.904 Y135.144 E2.01044
G1 X140.998 Y135.07 E2.01646
G1 X141.921 Y135.254 E2.06368
G1 X141.931 Y164.747 E3.5438
G1 X140.986 Y164.931 E3.59215
G1 X140.894 Y164.858 E3.59803
G1 X140.722 Y164.968 E3.60827
G1 X140.15 Y165.104 E3.63775
G1 X139.987 Y164.976 E3.6482
G1 X139.964 Y135.023 E5.1514
G1 X140.126 Y134.894 E5.16181
G1 X140.678 Y135.021 E5.19022
G1 X141.569 Y164.656 F7800
G1 F1800
G1 X141.569 Y135.505 E6.65319
G1 X141.186 Y135.432 E6.67277
G1 X141.186 Y164.57 E8.13509
G1 X141.06 Y164.594 E8.14156
G1 X140.912 Y164.478 E8.15097
G1 X140.803 Y164.548 E8.15749
G1 X140.803 Y135.447 E9.61792
G1 X140.607 Y135.324 E9.62954
G1 X140.42 Y135.28 E9.63919
G1 X140.42 Y164.881 E11.12471
G1 E9.12471 F2400
G92 E0
G1 X139.005 Y130.354 F7800
G1 E2 F2400
G1 F1800
G1 X164.075 Y130.354 E3.25819
G1 X164.075 Y132.313 E3.35653
G1 X162.091 Y133.168 E3.46493
G1 X158.405 Y134.324 E3.65883
G1 X154.645 Y135.092 E3.85143
G1 X150.792 Y135.473 E4.04574
G1 X146.962 Y135.458 E4.23795
G1 X143.142 Y135.05 E4.43075
G1 X142.234 Y134.884 E4.47709
G1 X141.996 Y135.083 E4.49262
G1 X141.996 Y132.933 E4.60047
G1 X135.719 Y132.933 E4.91549
G1 X135.719 Y167.067 E6.6285
G1 X141.996 Y167.067 E6.94353
G1 X141.996 Y164.909 E7.05181
G1 X142.245 Y165.116 E7.06806
G1 X143.144 Y164.949 E7.11393
G1 X146.12 Y164.598 E7.26432
G1 X149.094 Y164.485 E7.4137
G1 X152.942 Y164.69 E7.60709
G1 X156.784 Y165.296 E7.80226
G1 X160.475 Y166.273 E7.99388
G1 X164.075 Y167.634 E8.18706
G1 X164.075 Y169.646 E8.28803
G1 X139.005 Y169.646 E9.54622
G1 X139.005 Y172.432 E9.68602
G1 X130.354 Y172.432 E10.12018
G1 X130.354 Y164.075 E10.53958
G1 X127.568 Y164.075 E10.67938
G1 X127.568 Y127.568 E12.51153
G1 X139.005 Y127.568 E13.08549
G1 X139.005 Y130.302 E13.22269
G1 E11.22269 F2400
G92 E0
G1 X163.412 Y169.491 F7800
G1 E2 F2400
G1 F1800
G1 X163.412 Y167.715 E2.08912
G1 X163.029 Y167.57 E2.10968
G1 X163.029 Y169.336 E2.19829
G1 X162.646 Y169.336 E2.21752
G1 X162.646 Y167.426 E2.3134
G1 X162.263 Y167.281 E2.33396
G1 X162.263 Y169.336 E2.43711
G1 X161.88 Y169.336 E2.45634
G1 X161.88 Y167.136 E2.56677
G1 X161.496 Y166.991 E2.58733
G1 X161.496 Y169.336 E2.70503
G1 X161.113 Y169.336 E2.72426
G1 X161.113 Y166.846 E2.84923
G1 X160.73 Y166.701 E2.86979
G1 X160.73 Y169.336 E3.00203
G1 X160.347 Y169.336 E3.02126
G1 X160.347 Y166.561 E3.16055
G1 X159.963 Y166.459 E3.18044
G1 X159.963 Y169.336 E3.32482
G1 X159.58 Y169.336 E3.34405
G1 X159.58 Y166.358 E3.49353
G1 X159.197 Y166.256 E3.51342
G1 X159.197 Y169.336 E3.66799
G1 X158.814 Y169.336 E3.68722
G1 X158.814 Y166.155 E3.84688
G1 X158.431 Y166.053 E3.86677
G1 X158.431 Y169.336 E4.03152
G1 X158.047 Y169.336 E4.05076
G1 X158.047 Y165.952 E4.2206
G1 X157.664 Y165.85 E4.2405
G1 X157.664 Y169.336 E4.41543
G1 X157.281 Y169.336 E4.43466
G1 X157.281 Y165.749 E4.61469
G1 X156.898 Y165.647 E4.63459
G1 X156.898 Y169.336 E4.81971
G1 X156.515 Y169.336 E4.83894
G1 X156.515 Y165.565 E5.0282
G1 X156.131 Y165.505 E5.04767
G1 X156.131 Y169.336 E5.23995
G1 X155.748 Y169.336 E5.25919
G1 X155.748 Y165.444 E5.4545
G1 X155.365 Y165.384 E5.47397
G1 X155.365 Y169.336 E5.67231
G1 X154.982 Y169.336 E5.69154
G1 X154.982 Y165.324 E5.89291
G1 X154.599 Y165.263 E5.91238
G1 X154.599 Y169.336 E6.11678
G1 X154.215 Y169.336 E6.13601
G1 X154.215 Y165.203 E6.34344
G1 X153.832 Y165.142 E6.36291
G1 X153.832 Y169.336 E6.57337
G1 X153.449 Y169.336 E6.5926
G1 X153.449 Y165.082 E6.80609
G1 X153.066 Y165.022 E6.82556
G1 X153.066 Y169.336 E7.04207
G1 X152.682 Y169.336 E7.0613
G1 X152.682 Y164.987 E7.27959
G1 X152.299 Y164.966 E7.29885
G1 X152.299 Y169.336 E7.51816
G1 X151.916 Y169.336 E7.53739
G1 X151.916 Y164.945 E7.75774
G1 X151.533 Y164.925 E7.777
G1 X151.533 Y169.336 E7.99837
G1 X151.15 Y169.336 E8.01761
G1 X151.15 Y164.904 E8.24001
G1 X150.766 Y164.884 E8.25927
G1 X150.766 Y169.336 E8.48271
G1 X150.383 Y169.336 E8.50194
G1 X150.383 Y164.863 E8.72641
G1 X150 Y164.843 E8.74567
G1 X150 Y169.336 E8.97117
G1 X149.617 Y169.336 E8.9904
G1 X149.617 Y164.822 E9.21693
G1 X149.234 Y164.802 E9.23619
G1 X149.234 Y169.336 E9.46375
G1 X148.85 Y169.336 E9.48298
G1 X148.85 Y164.805 E9.71038
G1 X148.467 Y164.819 E9.72963
G1 X148.467 Y169.336 E9.9563
G1 X148.084 Y169.336 E9.97553
G1 X148.084 Y164.834 E10.20148
G1 X147.701 Y164.848 E10.22073
G1 X147.701 Y169.336 E10.44595
G1 X147.318 Y169.336 E10.46518
G1 X147.318 Y164.863 E10.68967
G1 X146.934 Y164.877 E10.70892
G1 X146.934 Y169.336 E10.93269
G1 X146.551 Y169.336 E10.95192
G1 X146.551 Y164.892 E11.17496
G1 X146.168 Y164.906 E11.19421
G1 X146.168 Y169.336 E11.41652
G1 X145.785 Y169.336 E11.43575
G1 X145.785 Y164.95 E11.65589
G1 X145.401 Y164.995 E11.67526
G1 X145.401 Y169.336 E11.89313
G1 X145.018 Y169.336 E11.91236
G1 X145.018 Y165.04 E12.12795
G1 X144.635 Y165.085 E12.14732
G1 X144.635 Y169.336 E12.36064
G1 X144.252 Y169.336 E12.37987
G1 X144.252 Y165.131 E12.59091
G1 X143.869 Y165.176 E12.61028
G1 X143.869 Y169.336 E12.81905
G1 X143.485 Y169.336 E12.83828
G1 X143.485 Y165.221 E13.04478
G1 X143.102 Y165.272 E13.06418
G1 X143.102 Y169.336 E13.26811
G1 X142.719 Y169.336 E13.28734
G1 X142.719 Y165.344 E13.48771
G1 X142.336 Y165.415 E13.50727
G1 X142.336 Y169.336 E13.70406
G1 X141.953 Y169.336 E13.72329
G1 X141.953 Y167.377 E13.82161
G1 X141.569 Y167.377 E13.84084
G1 X141.569 Y169.336 E13.93915
G1 X141.186 Y169.336 E13.95838
G1 X141.186 Y167.377 E14.0567
G1 X140.803 Y167.377 E14.07593
G1 X140.803 Y169.336 E14.17425
G1 X140.42 Y169.336 E14.19348
G1 X140.42 Y167.377 E14.29179
G1 X140.037 Y167.377 E14.31102
G1 X140.037 Y169.336 E14.40934
G1 X139.653 Y169.336 E14.42857
G1 X139.653 Y167.377 E14.52688
G1 X139.27 Y167.377 E14.54611
G1 X139.27 Y169.336 E14.64443
G1 X138.887 Y169.336 E14.66366
G1 X138.887 Y167.377 E14.76198
G1 X138.504 Y167.377 E14.78121
G1 X138.504 Y172.122 E15.01932
G1 X138.12 Y172.122 E15.03855
G1 X138.12 Y167.377 E15.27666
G1 X137.737 Y167.377 E15.2959
G1 X137.737 Y172.122 E15.53401
G1 X137.354 Y172.122 E15.55324
G1 X137.354 Y167.377 E15.79135
G1 X136.971 Y167.377 E15.81059
G1 X136.971 Y172.122 E16.0487
G1 X136.588 Y172.122 E16.06793
G1 X136.588 Y167.377 E16.30604
G1 X136.204 Y167.377 E16.32527
G1 X136.204 Y172.122 E16.56339
G1 X135.821 Y172.122 E16.58262
G1 X135.821 Y167.222 E16.82852
G1 E14.82852 F2400
G92 E0
G1 X163.412 Y132.43 F7800
G1 E2 F2400
G1 F1800
G1 X163.412 Y130.664 E2.08861
G1 X163.029 Y130.664 E2.10785
G1 X163.029 Y132.426 E2.19627
G1 X162.646 Y132.591 E2.21721
G1 X162.646 Y130.664 E2.31392
G1 X162.263 Y130.664 E2.33316
G1 X162.263 Y132.756 E2.43816
G1 X161.88 Y132.909 E2.45887
G1 X161.88 Y130.664 E2.57155
G1 X161.496 Y130.664 E2.59078
G1 X161.496 Y133.03 E2.7095
G1 X161.113 Y133.15 E2.72966
G1 X161.113 Y130.664 E2.85442
G1 X160.73 Y130.664 E2.87366
G1 X160.73 Y133.27 E3.00446
G1 X160.347 Y133.391 E3.02462
G1 X160.347 Y130.664 E3.16146
G1 X159.963 Y130.664 E3.18069
G1 X159.963 Y133.511 E3.32357
G1 X159.58 Y133.631 E3.34373
G1 X159.58 Y130.664 E3.49265
G1 X159.197 Y130.664 E3.51189
G1 X159.197 Y133.752 E3.66685
G1 X158.814 Y133.872 E3.68701
G1 X158.814 Y130.664 E3.84801
G1 X158.431 Y130.664 E3.86724
G1 X158.431 Y133.992 E4.03428
G1 X158.047 Y134.081 E4.05402
G1 X158.047 Y130.664 E4.22549
G1 X157.664 Y130.664 E4.24472
G1 X157.664 Y134.159 E4.42013
G1 X157.281 Y134.237 E4.43976
G1 X157.281 Y130.664 E4.6191
G1 X156.898 Y130.664 E4.63833
G1 X156.898 Y134.316 E4.8216
G1 X156.515 Y134.394 E4.84123
G1 X156.515 Y130.664 E5.02843
G1 X156.131 Y130.664 E5.04766
G1 X156.131 Y134.472 E5.23879
G1 X155.748 Y134.551 E5.25842
G1 X155.748 Y130.664 E5.45349
G1 X155.365 Y130.664 E5.47272
G1 X155.365 Y134.629 E5.67171
G1 X154.982 Y134.707 E5.69134
G1 X154.982 Y130.664 E5.89427
G1 X154.599 Y130.664 E5.9135
G1 X154.599 Y134.785 E6.12033
G1 X154.215 Y134.824 E6.13966
G1 X154.215 Y130.664 E6.34841
G1 X153.832 Y130.664 E6.36765
G1 X153.832 Y134.862 E6.57831
G1 X153.449 Y134.9 E6.59764
G1 X153.449 Y130.664 E6.81021
G1 X153.066 Y130.664 E6.82944
G1 X153.066 Y134.938 E7.04392
G1 X152.682 Y134.976 E7.06325
G1 X152.682 Y130.664 E7.27964
G1 X152.299 Y130.664 E7.29887
G1 X152.299 Y135.014 E7.51718
G1 X151.916 Y135.052 E7.5365
G1 X151.916 Y130.664 E7.75671
G1 X151.533 Y130.664 E7.77595
G1 X151.533 Y135.09 E7.99807
G1 X151.15 Y135.128 E8.01739
G1 X151.15 Y130.664 E8.24142
G1 X150.766 Y130.664 E8.26066
G1 X150.766 Y135.163 E8.48643
G1 X150.383 Y135.161 E8.50566
G1 X150.383 Y130.664 E8.73137
G1 X150 Y130.664 E8.7506
G1 X150 Y135.16 E8.97624
G1 X149.617 Y135.159 E8.99547
G1 X149.617 Y130.664 E9.22103
G1 X149.234 Y130.664 E9.24026
G1 X149.234 Y135.157 E9.46575
G1 X148.85 Y135.156 E9.48499
G1 X148.85 Y130.664 E9.71041
G1 X148.467 Y130.664 E9.72964
G1 X148.467 Y135.154 E9.95499
G1 X148.084 Y135.153 E9.97422
G1 X148.084 Y130.664 E10.1995
G1 X147.701 Y130.664 E10.21873
G1 X147.701 Y135.151 E10.44394
G1 X147.318 Y135.15 E10.46317
G1 X147.318 Y130.664 E10.68831
G1 X146.934 Y130.664 E10.70754
G1 X146.934 Y135.143 E10.93234
G1 X146.551 Y135.102 E10.95168
G1 X146.551 Y130.664 E11.17442
G1 X146.168 Y130.664 E11.19365
G1 X146.168 Y135.061 E11.41434
G1 X145.785 Y135.02 E11.43368
G1 X145.785 Y130.664 E11.65232
G1 X145.401 Y130.664 E11.67155
G1 X145.401 Y134.98 E11.88813
G1 X145.018 Y134.939 E11.90747
G1 X145.018 Y130.664 E12.122
G1 X144.635 Y130.664 E12.14124
G1 X144.635 Y134.898 E12.35371
G1 X144.252 Y134.857 E12.37305
G1 X144.252 Y130.664 E12.58348
G1 X143.869 Y130.664 E12.60271
G1 X143.869 Y134.816 E12.81108
G1 X143.485 Y134.775 E12.83042
G1 X143.485 Y130.664 E13.03674
G1 X143.102 Y130.664 E13.05597
G1 X143.102 Y134.728 E13.25991
G1 X142.719 Y134.658 E13.27946
G1 X142.719 Y130.664 E13.47989
G1 X142.336 Y130.664 E13.49912
G1 X142.336 Y134.588 E13.69603
G1 X142.306 Y134.582 E13.69753
G1 X142.306 Y132.623 E13.79585
G1 X141.953 Y132.623 E13.81361
G1 X141.953 Y130.664 E13.91193
G1 X141.569 Y130.664 E13.93116
G1 X141.569 Y132.623 E14.02947
G1 X141.186 Y132.623 E14.0487
G1 X141.186 Y130.664 E14.14702
G1 X140.803 Y130.664 E14.16625
G1 X140.803 Y132.623 E14.26456
G1 X140.42 Y132.623 E14.2838
G1 X140.42 Y130.664 E14.38211
G1 X140.037 Y130.664 E14.40134
G1 X140.037 Y132.623 E14.49966
G1 X139.653 Y132.623 E14.51889
G1 X139.653 Y130.664 E14.6172
G1 X139.27 Y130.664 E14.63644
G1 X139.27 Y132.623 E14.73475
G1 X138.887 Y132.623 E14.75398
G1 X138.887 Y130.664 E14.8523
G1 X138.694 Y130.664 E14.86197
G1 X138.694 Y127.878 E15.00177
G1 X138.504 Y127.878 E15.01133
G1 X138.504 Y132.623 E15.24944
G1 X138.12 Y132.623 E15.26867
G1 X138.12 Y127.878 E15.50679
G1 X137.737 Y127.878 E15.52602
G1 X137.737 Y132.623 E15.76413
G1 X137.354 Y132.623 E15.78336
G1 X137.354 Y127.878 E16.02148
G1 X136.971 Y127.878 E16.04071
G1 X136.971 Y132.623 E16.27882
G1 X136.588 Y132.623 E16.29805
G1 X136.588 Y127.878 E16.53617
G1 X136.204 Y127.878 E16.5554
G1 X136.204 Y132.623 E16.79351
G1 X135.821 Y132.623 E16.81274
G1 X135.821 Y127.878 E17.05086
G1 X135.438 Y127.878 E17.07009
G1 X135.438 Y172.122 E19.29048
G1 X135.055 Y172.122 E19.30971
G1 X135.055 Y127.878 E21.5301
G1 X134.672 Y127.878 E21.54933
G1 X134.672 Y172.122 E23.76972
G1 X134.288 Y172.122 E23.78896
G1 X134.288 Y127.878 E26.00935
G1 X133.905 Y127.878 E26.02858
G1 X133.905 Y172.122 E28.24897
G1 X133.522 Y172.122 E28.2682
G1 X133.522 Y127.878 E30.48859
G1 X133.139 Y127.878 E30.50782
G1 X133.139 Y172.122 E32.72821
G1 X132.756 Y172.122 E32.74745
G1 X132.756 Y127.878 E34.96784
G1 X132.372 Y127.878 E34.98707
G1 X132.372 Y172.122 E37.20746
G1 X131.989 Y172.122 E37.22669
G1 X131.989 Y127.878 E39.44708
G1 X131.606 Y127.878 E39.46631
G1 X131.606 Y172.122 E41.6867
G1 X131.223 Y172.122 E41.70594
G1 X131.223 Y127.878 E43.92633
G1 X130.84 Y127.878 E43.94556
G1 X130.839 Y172.122 E46.16595
G1 X130.664 Y172.122 E46.17476
G1 X130.664 Y163.765 E46.59416
G1 X130.456 Y163.765 E46.60458
G1 X130.456 Y127.878 E48.40557
G1 X130.073 Y127.878 E48.4248
G1 X130.073 Y163.765 E50.2258
G1 X129.69 Y163.765 E50.24503
G1 X129.69 Y127.878 E52.04603
G1 X129.307 Y127.878 E52.06526
G1 X129.307 Y163.765 E53.86625
G1 X128.923 Y163.765 E53.88548
G1 X128.923 Y127.878 E55.68648
G1 X128.54 Y127.878 E55.70571
G1 X128.54 Y163.765 E57.5067
G1 X128.157 Y163.765 E57.52594
G1 X128.157 Y127.723 E59.33472
G1 E57.33472 F2400
G92 E0
G1 X178.75 Y124.29 F7800
G1 E2 F2400
;TYPE:Perimeter
G1 F1800
G1 X178.75 Y175.389 E4.56448
G1 X172.75 Y175.389 E4.86557
G1 X172.75 Y124.29 E7.43005
G1 X178.69 Y124.29 E7.72813
G1 X178.405 Y124.635 F7800
G1 F1800
G1 X178.405 Y175.044 E10.25799
