; generated by PrusaSlicer 2.4.2 on 2022-05-07 at 15:34:00 UTC

; 

; external perimeters extrusion width = 0.45mm
; perimeters extrusion width = 0.45mm
; infill extrusion width = 0.45mm
; solid infill extrusion width = 0.45mm
; top infill extrusion width = 0.40mm
; first layer extrusion width = 0.42mm

M107
M190 S60 ; set bed temperature and wait for it to be reached
M104 S210 ; set temperature
;TYPE:Custom
G28 ; home all axes
G1 Z5 F5000 ; lift nozzle
M109 S210 ; set temperature and wait for it to be reached
G21 ; set units to millimeters
G90 ; use absolute coordinates
M82 ; use absolute distances for extrusion
G92 E0
; Filament gcode
M107
;LAYER_CHANGE
;Z:0.35
;HEIGHT:0.35
G1 Z.35 F7800
G1 E-2 F2400
G92 E0
G1 X121.193 Y121.759 F7800
G1 E2 F2400
;TYPE:Skirt/Brim
;WIDTH:0.42
G1 F1800
G1 X122.935 Y120.344 E2.11262
G1 X126 Y119.555 E2.27146
G1 X148.049 Y119.555 E3.378
G1 X174.049 Y119.755 E4.68287
G1 X176.254 Y120.169 E4.79549
G1 X178.178 Y121.325 E4.90811
G1 X179.579 Y123.078 E5.02073
G1 X180.345 Y126.1 E5.17719
G1 X180.345 Y174.1 E7.58612
G1 X179.948 Y176.309 E7.69874
G1 X178.807 Y178.241 E7.81136
G1 X177.065 Y179.656 E7.92398
G1 X174 Y180.445 E8.08282
G1 X151.951 Y180.445 E9.18935
G1 X125.951 Y180.245 E10.49423
G1 X123.746 Y179.831 E10.60685
G1 X121.822 Y178.675 E10.71947
G1 X120.421 Y176.922 E10.83209
G1 X119.655 Y173.9 E10.98855
G1 X119.655 Y125.9 E13.39748
G1 X120.052 Y123.691 E13.5101
G1 X121.162 Y121.811 E13.61971
G1 E11.61971 F2400
G92 E0
G1 X136.1 Y139.974 F7800
G1 E2 F2400
;TYPE:Perimeter
G1 F1800
G1 X136.1 Y143.211 E2.16245
G1 X134.048 Y143.481 E2.26635
G1 X131.296 Y144.621 E2.41581
G1 X128.934 Y146.434 E2.56526
G1 X127.04 Y148.901 E2.72135
G1 X126.9 Y148.854 E2.72879
G1 X126.9 Y126.8 E3.83559
G1 X147.1 Y126.8 E4.84936
G1 X147.1 Y144.245 E5.72488
G1 X144.204 Y142.023 E5.9081
G1 X140.729 Y140.583 E6.09686
G1 X136.16 Y139.982 E6.32815
G1 X136.445 Y140.367 F7800
G1 F1800
G1 X140.639 Y140.919 E6.54043
G1 X144.03 Y142.324 E6.72463
G1 X146.555 Y144.262 E6.88436
G1 X146.555 Y146.974 E7.02049
G1 X145.735 Y147.252 E7.06392
G1 X145.09 Y146.41 E7.11716
G1 X142.72 Y144.592 E7.26704
G1 X139.961 Y143.449 E7.41692
G1 X136.445 Y142.987 E7.59489
G1 X136.445 Y140.427 E7.72334
G1 X136.79 Y140.761 F7800
;TYPE:External perimeter
G1 F1800
G1 X140.549 Y141.255 E7.91361
G1 X143.856 Y142.625 E8.09325
G1 X146.21 Y144.432 E8.24216
G1 X146.21 Y146.727 E8.35735
G1 X145.859 Y146.846 E8.37598
G1 X145.336 Y146.164 E8.41909
G1 X142.894 Y144.291 E8.57353
G1 X140.051 Y143.113 E8.72797
G1 X136.79 Y142.684 E8.89304
G1 X136.79 Y140.821 E8.98657
G1 X136.7 Y140.371 F7800
G1 E6.98657 F2400
G92 E0
G1 X137.555 Y143.367 F7800
G1 E2 F2400
;TYPE:Perimeter
G1 F1800
G1 X137.555 Y145.987 E2.13145
G1 X134.815 Y146.347 E2.27012
G1 X132.78 Y147.19 E2.3807
G1 X131.032 Y148.532 E2.49128
G1 X129.69 Y150.28 E2.60185
G1 X128.847 Y152.315 E2.71243
G1 X128.574 Y154.392 E2.81754
G1 X127.445 Y154.318 E2.87431
G1 X127.445 Y148.94 E3.14421
G1 X129.18 Y146.68 E3.2872
G1 X131.47 Y144.922 E3.4321
G1 X134.138 Y143.817 E3.57699
G1 X137.495 Y143.375 E3.74696
G1 X137.185 Y143.764 F7800
;TYPE:External perimeter
G1 F1800
G1 X137.21 Y143.761 E3.74821
G1 X137.21 Y145.684 E3.84475
G1 X134.725 Y146.011 E3.97051
G1 X132.606 Y146.889 E4.08565
G1 X130.786 Y148.286 E4.20078
G1 X129.389 Y150.106 E4.31592
G1 X128.511 Y152.225 E4.43105
G1 X128.274 Y154.027 E4.52223
G1 X127.79 Y153.995 E4.54658
G1 X127.79 Y149.057 E4.79439
G1 X129.426 Y146.926 E4.92923
G1 X131.644 Y145.223 E5.06956
G1 X134.228 Y144.153 E5.2099
G1 X137.126 Y143.772 E5.35661
G1 X137.194 Y143.74 F7800
G1 E3.35661 F2400
G92 E0
G1 X131.6 Y165.8 F7800
G1 E2 F2400
;TYPE:Perimeter
G1 F1800
G1 X131.6 Y173 E2.36134
G1 X126.9 Y173 E2.59723
G1 X126.9 Y154.628 E3.51927
G1 X128.624 Y154.741 E3.60599
G1 X128.879 Y156.676 E3.70395
G1 X129.719 Y158.704 E3.8141
G1 X131.055 Y160.445 E3.92424
G1 X132.796 Y161.781 E4.03439
G1 X134.824 Y162.621 E4.14454
G1 X136.941 Y162.9 E4.2517
G1 X145.4 Y162.9 E4.67621
G1 X145.4 Y159.6 E4.8418
G1 X139.132 Y159.6 E5.15636
G1 X139.099 Y159.434 E5.16489
G1 X139.704 Y159.183 E5.19775
G1 X140.824 Y158.324 E5.26859
G1 X141.683 Y157.204 E5.33944
G1 X142.223 Y155.9 E5.41028
G1 X142.289 Y155.4 E5.43558
G1 X145.526 Y155.4 E5.59803
G1 X145.121 Y152.324 E5.75372
G1 X144.281 Y150.296 E5.86387
G1 X142.945 Y148.555 E5.97402
G1 X141.204 Y147.219 E6.08417
G1 X139.176 Y146.379 E6.19432
G1 X137.9 Y146.211 E6.25892
G1 X137.9 Y143.526 E6.39367
G1 X139.871 Y143.786 E6.49345
G1 X142.546 Y144.894 E6.63877
G1 X144.844 Y146.656 E6.78409
G1 X145.612 Y147.658 E6.84746
G1 X147.1 Y147.153 E6.92632
G1 X147.1 Y173 E8.22349
G1 X142.4 Y173 E8.45938
G1 X142.4 Y165.8 E8.82072
G1 X131.66 Y165.8 E9.3597
G1 E7.3597 F2400
G92 E0
G1 X139.211 Y153.6 F7800
G1 E2 F2400
G1 F1800
G1 X139.085 Y153.296 E2.01651
G1 X138.702 Y152.798 E2.04805
G1 X138.204 Y152.415 E2.0796
G1 X137.9 Y152.289 E2.09611
G1 X137.9 Y149.526 E2.23478
G1 X138.318 Y149.581 E2.25595
G1 X139.546 Y150.09 E2.32267
G1 X140.601 Y150.899 E2.38938
G1 X141.41 Y151.954 E2.4561
G1 X141.919 Y153.182 E2.52282
G1 X141.974 Y153.6 E2.54399
G1 X139.271 Y153.6 E2.67965
G1 E.67965 F2400
G92 E0
G1 X137.555 Y149.367 F7800
G1 E2 F2400
G1 F1800
G1 X137.555 Y151.987 E2.13145
G1 X136.368 Y152.143 E2.19151
G1 X135.78 Y152.387 E2.22348
G1 X135.274 Y152.774 E2.25546
G1 X134.887 Y153.28 E2.28743
G1 X134.643 Y153.868 E2.3194
G1 X134.487 Y155.055 E2.37946
G1 X131.867 Y155.055 E2.51091
G1 X132.113 Y153.19 E2.60529
G1 X132.618 Y151.97 E2.67157
G1 X133.422 Y150.922 E2.73786
G1 X134.47 Y150.118 E2.80415
G1 X135.69 Y149.613 E2.87044
G1 X137.495 Y149.375 E2.9618
G1 X137.21 Y149.761 F7800
;TYPE:External perimeter
G1 F1800
G1 X137.21 Y151.684 E3.05834
G1 X136.278 Y151.807 E3.1055
G1 X135.606 Y152.085 E3.14203
G1 X135.028 Y152.528 E3.17856
G1 X134.585 Y153.106 E3.21508
G1 X134.307 Y153.778 E3.25161
G1 X134.184 Y154.71 E3.29877
G1 X132.261 Y154.71 E3.39531
G1 X132.449 Y153.28 E3.46767
G1 X132.919 Y152.144 E3.5294
G1 X133.668 Y151.168 E3.59113
G1 X134.644 Y150.419 E3.65286
G1 X135.78 Y149.949 E3.71459
G1 X137.151 Y149.768 E3.78394
G1 X137.609 Y149.727 F7800
G1 E1.78394 F2400
G92 E0
G1 X136.445 Y146.367 F7800
G1 E2 F2400
;TYPE:Perimeter
G1 F1800
G1 X139.086 Y146.715 E2.13368
G1 X141.03 Y147.52 E2.23927
G1 X142.699 Y148.801 E2.34486
G1 X143.98 Y150.47 E2.45045
G1 X144.785 Y152.414 E2.55604
G1 X145.133 Y155.055 E2.68972
G1 X142.513 Y155.055 E2.82118
G1 X142.255 Y153.092 E2.92054
G1 X141.711 Y151.78 E2.99181
G1 X140.847 Y150.653 E3.06309
G1 X139.72 Y149.789 E3.13436
G1 X138.408 Y149.245 E3.20564
G1 X136.445 Y148.987 E3.305
G1 X136.445 Y146.427 E3.43344
G1 X136.79 Y146.761 F7800
;TYPE:External perimeter
G1 F1800
G1 X138.996 Y147.051 E3.54511
G1 X140.856 Y147.821 E3.64614
G1 X142.453 Y149.047 E3.74717
G1 X143.679 Y150.644 E3.84821
G1 X144.449 Y152.504 E3.94924
G1 X144.739 Y154.71 E4.0609
G1 X142.816 Y154.71 E4.15744
G1 X142.591 Y153.002 E4.24391
G1 X142.013 Y151.606 E4.31974
G1 X141.093 Y150.407 E4.39557
G1 X139.894 Y149.487 E4.4714
G1 X138.498 Y148.909 E4.54723
G1 X136.79 Y148.684 E4.6337
G1 X136.79 Y146.821 E4.72722
G1 X136.736 Y146.364 F7800
G1 E2.72722 F2400
G92 E0
G1 X131.711 Y153.6 F7800
G1 E2 F2400
;TYPE:Perimeter
G1 F1800
G1 X129.026 Y153.6 E2.13474
G1 X129.183 Y152.406 E2.19522
G1 X129.992 Y150.454 E2.30124
G1 X131.278 Y148.778 E2.40726
G1 X132.954 Y147.492 E2.51328
G1 X134.906 Y146.683 E2.6193
G1 X136.1 Y146.526 E2.67978
G1 X136.1 Y149.211 E2.81452
G1 X135.6 Y149.277 E2.83982
G1 X134.296 Y149.817 E2.91067
G1 X133.176 Y150.676 E2.98151
G1 X132.317 Y151.796 E3.05236
G1 X131.777 Y153.1 E3.1232
G1 X131.719 Y153.541 E3.14549
G1 E1.14549 F2400
G92 E0
G1 X137.002 Y152.45 F7800
G1 E2 F2400
G1 F1800
G1 X137.528 Y152.508 E2.02656
G1 X138.03 Y152.716 E2.05384
G1 X138.456 Y153.044 E2.08082
G1 X138.784 Y153.47 E2.1078
G1 X138.989 Y153.967 E2.13479
G1 X139.06 Y154.5 E2.16177
G1 X138.989 Y155.033 E2.18876
G1 X138.784 Y155.53 E2.21574
G1 X138.456 Y155.956 E2.24272
G1 X138.03 Y156.284 E2.26971
G1 X137.533 Y156.489 E2.29669
G1 X137 Y156.56 E2.32368
G1 X136.467 Y156.489 E2.35066
G1 X135.97 Y156.284 E2.37765
G1 X135.544 Y155.956 E2.40463
G1 X135.216 Y155.53 E2.43161
G1 X135.011 Y155.033 E2.4586
G1 X134.94 Y154.5 E2.48558
G1 X135.011 Y153.967 E2.51257
G1 X135.216 Y153.47 E2.53955
G1 X135.544 Y153.044 E2.56653
G1 X135.97 Y152.716 E2.59352
G1 X136.467 Y152.511 E2.6205
G1 X136.942 Y152.448 E2.64456
G1 X136.964 Y152.793 F7800
;TYPE:External perimeter
G1 F1800
G1 X137.441 Y152.846 E2.66865
G1 X137.856 Y153.018 E2.69119
G1 X138.21 Y153.29 E2.71361
G1 X138.482 Y153.644 E2.73604
G1 X138.653 Y154.057 E2.75847
G1 X138.712 Y154.5 E2.78089
G1 X138.653 Y154.943 E2.80332
G1 X138.482 Y155.356 E2.82575
G1 X138.21 Y155.71 E2.84817
G1 X137.856 Y155.982 E2.8706
G1 X137.443 Y156.153 E2.89303
G1 X137 Y156.212 E2.91545
G1 X136.557 Y156.153 E2.93788
G1 X136.144 Y155.982 E2.96031
G1 X135.79 Y155.71 E2.98273
G1 X135.518 Y155.356 E3.00516
G1 X135.347 Y154.943 E3.02759
G1 X135.288 Y154.5 E3.05001
G1 X135.347 Y154.057 E3.07244
G1 X135.518 Y153.644 E3.09487
G1 X135.79 Y153.29 E3.11729
G1 X136.144 Y153.018 E3.13972
G1 X136.557 Y152.847 E3.16215
G1 X136.904 Y152.801 E3.17973
G1 X137.158 Y152.443 F7800
G1 E1.17973 F2400
G92 E0
G1 X139.513 Y153.945 F7800
G1 E2 F2400
;TYPE:Perimeter
G1 F1800
G1 X142.133 Y153.945 E2.13145
G1 X141.887 Y155.81 E2.22583
G1 X141.382 Y157.03 E2.29212
G1 X140.578 Y158.078 E2.35841
G1 X139.53 Y158.882 E2.42469
G1 X138.31 Y159.387 E2.49098
G1 X136.445 Y159.633 E2.58536
G1 X136.445 Y157.013 E2.71681
G1 X137.632 Y156.857 E2.77687
G1 X138.22 Y156.613 E2.80884
G1 X138.726 Y156.226 E2.84081
G1 X139.113 Y155.72 E2.87278
G1 X139.357 Y155.132 E2.90475
G1 X139.506 Y154.005 E2.9618
G1 X139.816 Y154.29 F7800
;TYPE:External perimeter
G1 F1800
G1 X141.739 Y154.29 E3.05834
G1 X141.551 Y155.72 E3.1307
G1 X141.081 Y156.856 E3.19243
G1 X140.332 Y157.832 E3.25416
G1 X139.356 Y158.581 E3.31589
G1 X138.22 Y159.051 E3.37762
G1 X136.79 Y159.239 E3.44998
G1 X136.79 Y157.316 E3.54652
G1 X137.722 Y157.193 E3.59368
G1 X138.394 Y156.915 E3.63021
G1 X138.972 Y156.472 E3.66674
G1 X139.415 Y155.894 E3.70326
G1 X139.693 Y155.222 E3.73979
G1 X139.808 Y154.349 E3.78394
G1 X139.848 Y153.891 F7800
G1 E1.78394 F2400
G92 E0
G1 X132.026 Y155.4 F7800
G1 E2 F2400
;TYPE:Perimeter
G1 F1800
G1 X134.789 Y155.4 E2.13867
G1 X134.915 Y155.704 E2.15518
G1 X135.298 Y156.202 E2.18672
G1 X135.796 Y156.585 E2.21826
G1 X136.1 Y156.711 E2.23478
G1 X136.1 Y159.474 E2.37345
G1 X135.682 Y159.419 E2.39462
G1 X134.454 Y158.91 E2.46133
G1 X133.399 Y158.101 E2.52805
G1 X132.59 Y157.046 E2.59477
G1 X132.081 Y155.818 E2.66148
G1 X132.034 Y155.459 E2.67965
G1 X131.487 Y153.945 F7800
G1 F1800
G1 X131.745 Y155.908 E2.77901
G1 X132.289 Y157.22 E2.85028
G1 X133.153 Y158.347 E2.92156
G1 X134.28 Y159.211 E2.99283
G1 X135.592 Y159.755 E3.06411
G1 X137.036 Y159.945 E3.13722
G1 X145.055 Y159.945 E3.53964
G1 X145.055 Y162.555 E3.67061
G1 X136.964 Y162.555 E4.07668
G1 X134.914 Y162.285 E4.18043
G1 X132.97 Y161.48 E4.28602
G1 X131.301 Y160.199 E4.39161
G1 X130.02 Y158.53 E4.4972
G1 X129.215 Y156.586 E4.60279
G1 X128.867 Y153.945 E4.73647
G1 X131.427 Y153.945 E4.86492
G1 X131.184 Y154.29 F7800
;TYPE:External perimeter
G1 F1800
G1 X131.409 Y155.998 E4.95138
G1 X131.987 Y157.394 E5.02721
G1 X132.907 Y158.593 E5.10304
G1 X134.106 Y159.513 E5.17887
G1 X135.502 Y160.091 E5.2547
G1 X137.014 Y160.29 E5.33123
G1 X144.71 Y160.29 E5.71748
G1 X144.71 Y162.21 E5.81383
G1 X136.986 Y162.21 E6.20146
G1 X135.004 Y161.949 E6.30179
G1 X133.144 Y161.179 E6.40283
G1 X131.547 Y159.953 E6.50386
G1 X130.321 Y158.356 E6.60489
G1 X129.551 Y156.496 E6.70593
G1 X129.261 Y154.29 E6.81759
G1 X131.124 Y154.29 E6.91112
G1 X131.553 Y154.135 F7800
G1 E4.91112 F2400
G92 E0
G1 X131.945 Y166.145 F7800
G1 E2 F2400
;TYPE:Perimeter
G1 F1800
G1 X142.055 Y166.145 E2.50737
G1 X142.055 Y172.455 E2.82403
G1 X131.945 Y172.455 E3.3314
G1 X131.945 Y166.205 E3.64505
G1 X132.29 Y166.49 F7800
;TYPE:External perimeter
G1 F1800
G1 X141.71 Y166.49 E4.1178
G1 X141.71 Y172.11 E4.39985
G1 X132.29 Y172.11 E4.8726
G1 X132.29 Y166.55 E5.15163
G1 X132.155 Y166.113 F7800
G1 E3.15163 F2400
G92 E0
G1 X126.555 Y173.345 F7800
G1 E2 F2400
;TYPE:Perimeter
G1 F1800
G1 X126.555 Y126.455 E4.35323
G1 X147.445 Y126.455 E5.40162
G1 X147.445 Y173.345 E7.75485
G1 X126.615 Y173.345 E8.80024
G1 X126.21 Y173.69 F7800
;TYPE:External perimeter
G1 F1800
G1 X126.21 Y126.11 E11.18808
G1 X147.79 Y126.11 E12.27109
G1 X147.79 Y173.69 E14.65894
G1 X126.27 Y173.69 E15.73894
G1 X126.267 Y173.294 F7800
G1 E13.73894 F2400
G92 E0
G1 X131.773 Y172.9 F7800
G1 E2 F2400
;TYPE:Gap fill
;WIDTH:0.620445
G1 F1800
G1 X142.227 Y172.9 E2.82961
G1 E.82961 F2400
G92 E0
G1 X139.667 Y159.417 F7800
G1 E2 F2400
;WIDTH:0.180031
G1 F1800
G1 X140.228 Y159.266 E2.00887
G1 X138.946 Y159.551 F7800
;WIDTH:0.446765
G1 F1800
G1 X138.763 Y159.587 E2.01895
;WIDTH:0.39821
G1 X138.581 Y159.623 E2.02771
;WIDTH:0.349655
G1 X138.398 Y159.66 E2.03516
;WIDTH:0.301099
G1 X138.369 Y159.664 E2.03612
;WIDTH:0.293433
G1 X138.042 Y159.685 E2.04651
;WIDTH:0.251452
G1 X137.716 Y159.706 E2.05491
;WIDTH:0.209472
G1 X137.389 Y159.728 E2.06131
;WIDTH:0.167492
G1 X137.063 Y159.749 E2.06571
G1 E.06571 F2400
G92 E0
G1 X135.997 Y157.571 F7800
G1 E2 F2400
;TYPE:Solid infill
;WIDTH:0.461431
G1 F1800
G1 X134.084 Y155.658 E2.15204
G1 X133.538 Y155.658 E2.18275
G1 X135.842 Y157.962 E2.36588
G1 X135.842 Y158.508 E2.39659
G1 X132.992 Y155.658 E2.62316
G1 X132.445 Y155.658 E2.65387
G1 X135.842 Y159.055 E2.92387
G1 X135.842 Y159.179 E2.93086
G1 X135.749 Y159.167 E2.93608
G1 X135.166 Y158.925 E2.9716
G1 X132.575 Y156.334 E3.17757
G1 X132.816 Y156.916 E3.21296
G1 X133.494 Y157.8 E3.2756
G1 X134.52 Y158.826 E3.35715
G1 E1.35715 F2400
G92 E0
G1 X136.273 Y156.734 F7800
G1 E2 F2400
;TYPE:Gap fill
;WIDTH:0.27721
G1 F1800
G1 X136.384 Y156.748 E2.00331
;WIDTH:0.271692
G1 X136.41 Y156.75 E2.00404
;WIDTH:0.261703
G1 X136.592 Y156.75 E2.00899
;WIDTH:0.216306
G1 X136.774 Y156.75 E2.01274
;WIDTH:0.170908
G1 X136.957 Y156.75 E2.01528
G1 E.01528 F2400
G92 E0
G1 X134.766 Y155.227 F7800
G1 E2 F2400
;WIDTH:0.27721
G1 F1800
G1 X134.752 Y155.116 E2.00331
;WIDTH:0.271691
G1 X134.75 Y155.09 E2.00404
;WIDTH:0.261702
G1 X134.75 Y154.908 E2.00899
;WIDTH:0.216305
G1 X134.75 Y154.726 E2.01274
;WIDTH:0.170908
G1 X134.75 Y154.543 E2.01528
G1 E.01528 F2400
G92 E0
G1 X131.75 Y154.457 F7800
G1 E2 F2400
;WIDTH:0.174276
G1 F1800
G1 X131.75 Y154.229 E2.00329
;WIDTH:0.223041
G1 X131.75 Y154.001 E2.0082
;WIDTH:0.271806
G1 X131.75 Y153.773 E2.01472
G1 E.01472 F2400
G92 E0
G1 X127 Y154.462 F7800
G1 E2 F2400
;WIDTH:0.620445
G1 F1800
G1 X127 Y149.358 E2.40502
;WIDTH:0.620445
G1 X127.021 Y149.343 E2.40705
;WIDTH:0.578784
G1 X127.129 Y149.218 E2.41912
;WIDTH:0.4446
G1 X127.165 Y149.177 E2.42207
;WIDTH:0.399873
G1 X127.201 Y149.135 E2.42467
;WIDTH:0.355145
G1 X127.237 Y149.094 E2.42691
;WIDTH:0.310417
G1 X127.273 Y149.052 E2.42878
G1 E.42878 F2400
G92 E0
G1 X135.377 Y146.726 F7800
G1 E2 F2400
;TYPE:Solid infill
;WIDTH:0.423094
G1 F1800
G1 X135.842 Y147.19 E2.03327
G1 X135.842 Y147.682 E2.05819
G1 X135.08 Y146.921 E2.11269
G1 X134.973 Y146.935 E2.11818
G1 X134.711 Y147.044 E2.13254
G1 X135.842 Y148.174 E2.21349
G1 X135.842 Y148.666 E2.23841
G1 X134.363 Y147.188 E2.34429
G1 X134.015 Y147.332 E2.36336
G1 X135.687 Y149.004 E2.48312
G1 X135.533 Y149.025 E2.49101
G1 X135.309 Y149.118 E2.50331
G1 X133.667 Y147.476 E2.62085
G1 X133.319 Y147.62 E2.63992
G1 X134.961 Y149.262 E2.75747
G1 X134.613 Y149.406 E2.77654
G1 X132.994 Y147.787 E2.89247
G1 X132.715 Y148.001 E2.91024
G1 X134.265 Y149.55 E3.02119
G1 X134.166 Y149.591 E3.0266
G1 X133.966 Y149.744 E3.03933
G1 X132.437 Y148.214 E3.14886
G1 X132.158 Y148.428 E3.16663
G1 X133.688 Y149.958 E3.27617
G1 X133.409 Y150.171 E3.29394
G1 X131.88 Y148.642 E3.40348
G1 X131.601 Y148.855 E3.42125
G1 X133.131 Y150.385 E3.53078
G1 X132.992 Y150.492 E3.53967
G1 X132.885 Y150.631 E3.54855
G1 X131.355 Y149.101 E3.65809
G1 X131.142 Y149.38 E3.67586
G1 X132.671 Y150.91 E3.7854
G1 X132.458 Y151.188 E3.80317
G1 X130.928 Y149.658 E3.9127
G1 X130.714 Y149.937 E3.93047
