; generated by PrusaSlicer 2.4.0 on 2022-03-03 at 00:26:10 UTC


;
;

;
;
; 

; external perimeters extrusion width = 0.40mm
; perimeters extrusion width = 0.40mm
; infill extrusion width = 0.45mm
; solid infill extrusion width = 0.45mm
; top infill extrusion width = 0.40mm
; support material extrusion width = 0.30mm
; first layer extrusion width = 0.42mm

M73 P0 R68
M201 X1250 Y1250 Z400 E5000 ; sets maximum accelerations, mm/sec^2
M203 X180 Y180 Z12 E80 ; sets maximum feedrates, mm/sec
M204 P1250 R1250 T1250 ; sets acceleration (P, T) and retract acceleration (R), mm/sec^2
M205 X8.00 Y8.00 Z2.00 E10.00 ; sets the jerk limits, mm/sec
M205 S0 T0 ; sets the minimum extruding and travel feed rate, mm/sec
M107
;TYPE:Custom
G90 ; use absolute coordinates
M83 ; extruder relative mode
M104 S170 ; set extruder temp for bed leveling
M140 S60 ; set bed temp
M109 R170 ; wait for bed leveling temp
M190 S60 ; wait for bed temp
G28 ; home all without mesh bed level
G29 ; mesh bed leveling 
M104 S225 ; set extruder temp
G92 E0.0
G1 Y-2.0 X179 F2400
G1 Z3 F720
M109 S225 ; wait for extruder temp

; intro line
G1 X170 F1000
G1 Z0.2 F720
G1 X110.0 E8.0 F900
G1 X40.0 E10.0 F700
G92 E0.0

M221 S95 ; set flow
G21 ; set units to millimeters
G90 ; use absolute coordinates
M83 ; use relative distances for extrusion
M900 K0.2 ; Filament gcode LA 1.5
; ; Filament gcode LA 1.0
M107
;LAYER_CHANGE
;Z:0.2
;HEIGHT:0.2
;BEFORE_LAYER_CHANGE
G92 E0.0
;0.2


G1 Z.2 F9000
;AFTER_LAYER_CHANGE
;0.2
M73 P0 R67
G1 E-3.2 F4200
G1 X15.609 Y16.287 F9000
G1 E3.2 F2400
M204 S800
;TYPE:Skirt/Brim
;WIDTH:0.42
G1 F1200
G1 X16.654 Y15.411 E.04278
G1 X17.594 Y15.217 E.03008
G1 X282.406 Y15.217 E8.30299
G1 X283.713 Y15.609 E.04278
G1 X284.589 Y16.654 E.04278
G1 X284.783 Y17.594 E.03008
G1 X284.783 Y282.406 E8.30299
G1 X284.392 Y283.713 E.04278
M73 P1 R67
G1 X283.346 Y284.589 E.04278
G1 X282.406 Y284.783 E.03008
G1 X17.594 Y284.783 E8.30299
G1 X16.287 Y284.392 E.04278
G1 X15.411 Y283.346 E.04278
G1 X15.217 Y282.406 E.03008
G1 X15.217 Y17.594 E8.30299
G1 X15.591 Y16.345 E.0409
M204 S1250
; printing object Bed_Levelling.stl id:0 copy 0
G1 E-2.24 F4200
;WIPE_START
G1 F7200
G1 X16.654 Y15.411 E-.78411
G1 X16.88 Y15.364 E-.12789
;WIPE_END
G1 E-.048 F4200
G1 X17.753 Y67.694 F9000
G1 E3.2 F2400
M204 S800
;TYPE:Support material interface
;WIDTH:0.3
G1 F1200
M73 P1 R66
G1 X17.594 Y67.694 E.00339
G1 X17.594 Y17.594 E1.07094
G1 X17.897 Y17.594 E.00648
G1 X17.897 Y67.694 E1.07094
G1 X18.387 Y67.694 E.01046
G1 X18.387 Y17.594 E1.07094
G1 X18.876 Y17.594 E.01046
G1 X18.876 Y67.694 E1.07094
G1 X19.365 Y67.694 E.01046
G1 X19.365 Y17.594 E1.07094
G1 X19.854 Y17.594 E.01046
M73 P2 R66
G1 X19.854 Y67.694 E1.07094
G1 X20.344 Y67.694 E.01046
G1 X20.344 Y17.594 E1.07094
G1 X20.833 Y17.594 E.01046
G1 X20.833 Y67.694 E1.07094
G1 X21.322 Y67.694 E.01046
G1 X21.322 Y17.594 E1.07094
G1 X21.812 Y17.594 E.01046
G1 X21.812 Y67.694 E1.07094
G1 X22.301 Y67.694 E.01046
G1 X22.301 Y17.594 E1.07094
G1 X22.79 Y17.594 E.01046
G1 X22.79 Y67.694 E1.07094
G1 X23.279 Y67.694 E.01046
G1 X23.279 Y17.594 E1.07094
G1 X23.769 Y17.594 E.01046
G1 X23.769 Y67.694 E1.07094
G1 X24.258 Y67.694 E.01046
G1 X24.258 Y17.594 E1.07094
G1 X24.747 Y17.594 E.01046
G1 X24.747 Y67.694 E1.07094
G1 X25.236 Y67.694 E.01046
G1 X25.236 Y17.594 E1.07094
G1 X25.726 Y17.594 E.01046
G1 X25.726 Y67.694 E1.07094
G1 X26.215 Y67.694 E.01046
G1 X26.215 Y17.594 E1.07094
G1 X26.704 Y17.594 E.01046
G1 X26.704 Y67.694 E1.07094
G1 X27.193 Y67.694 E.01046
G1 X27.193 Y17.594 E1.07094
G1 X27.683 Y17.594 E.01046
M73 P3 R66
G1 X27.683 Y67.694 E1.07094
G1 X28.172 Y67.694 E.01046
G1 X28.172 Y17.594 E1.07094
G1 X28.661 Y17.594 E.01046
G1 X28.661 Y67.694 E1.07094
G1 X29.151 Y67.694 E.01046
M73 P3 R65
G1 X29.151 Y17.594 E1.07094
G1 X29.64 Y17.594 E.01046
G1 X29.64 Y67.694 E1.07094
G1 X30.129 Y67.694 E.01046
G1 X30.129 Y17.594 E1.07094
G1 X30.618 Y17.594 E.01046
G1 X30.618 Y67.694 E1.07094
G1 X31.108 Y67.694 E.01046
G1 X31.108 Y17.594 E1.07094
G1 X31.597 Y17.594 E.01046
G1 X31.597 Y67.694 E1.07094
G1 X32.086 Y67.694 E.01046
G1 X32.086 Y17.594 E1.07094
G1 X32.575 Y17.594 E.01046
G1 X32.575 Y67.694 E1.07094
G1 X33.065 Y67.694 E.01046
G1 X33.065 Y17.594 E1.07094
G1 X33.554 Y17.594 E.01046
G1 X33.554 Y67.694 E1.07094
G1 X34.043 Y67.694 E.01046
G1 X34.043 Y17.594 E1.07094
G1 X34.533 Y17.594 E.01046
G1 X34.533 Y67.694 E1.07094
G1 X35.022 Y67.694 E.01046
G1 X35.022 Y17.594 E1.07094
G1 X35.511 Y17.594 E.01046
M73 P4 R65
G1 X35.511 Y67.694 E1.07094
G1 X36 Y67.694 E.01046
G1 X36 Y17.594 E1.07094
G1 X36.49 Y17.594 E.01046
G1 X36.49 Y67.694 E1.07094
G1 X36.979 Y67.694 E.01046
G1 X36.979 Y17.594 E1.07094
G1 X37.468 Y17.594 E.01046
G1 X37.468 Y67.694 E1.07094
G1 X37.957 Y67.694 E.01046
G1 X37.957 Y17.594 E1.07094
G1 X38.447 Y17.594 E.01046
G1 X38.447 Y67.694 E1.07094
G1 X38.936 Y67.694 E.01046
G1 X38.936 Y17.594 E1.07094
G1 X39.425 Y17.594 E.01046
G1 X39.425 Y67.694 E1.07094
G1 X39.914 Y67.694 E.01046
G1 X39.914 Y17.594 E1.07094
G1 X40.404 Y17.594 E.01046
G1 X40.404 Y67.694 E1.07094
G1 X40.893 Y67.694 E.01046
M73 P4 R64
G1 X40.893 Y17.594 E1.07094
G1 X41.382 Y17.594 E.01046
G1 X41.382 Y67.694 E1.07094
G1 X41.872 Y67.694 E.01046
G1 X41.872 Y17.594 E1.07094
G1 X42.361 Y17.594 E.01046
G1 X42.361 Y67.694 E1.07094
G1 X42.85 Y67.694 E.01046
G1 X42.85 Y17.594 E1.07094
G1 X43.339 Y17.594 E.01046
M73 P5 R64
G1 X43.339 Y67.694 E1.07094
G1 X43.829 Y67.694 E.01046
G1 X43.829 Y17.594 E1.07094
G1 X44.318 Y17.594 E.01046
G1 X44.318 Y67.694 E1.07094
G1 X44.807 Y67.694 E.01046
G1 X44.807 Y17.594 E1.07094
G1 X45.296 Y17.594 E.01046
G1 X45.296 Y67.694 E1.07094
G1 X45.786 Y67.694 E.01046
G1 X45.786 Y17.594 E1.07094
G1 X46.275 Y17.594 E.01046
G1 X46.275 Y67.694 E1.07094
G1 X46.764 Y67.694 E.01046
G1 X46.764 Y17.594 E1.07094
G1 X47.254 Y17.594 E.01046
G1 X47.254 Y67.694 E1.07094
G1 X47.743 Y67.694 E.01046
G1 X47.743 Y17.594 E1.07094
G1 X48.232 Y17.594 E.01046
G1 X48.232 Y67.694 E1.07094
G1 X48.721 Y67.694 E.01046
G1 X48.721 Y17.594 E1.07094
G1 X49.211 Y17.594 E.01046
G1 X49.211 Y67.694 E1.07094
G1 X49.7 Y67.694 E.01046
G1 X49.7 Y17.594 E1.07094
G1 X50.189 Y17.594 E.01046
G1 X50.189 Y67.694 E1.07094
G1 X50.678 Y67.694 E.01046
G1 X50.678 Y17.594 E1.07094
G1 X51.168 Y17.594 E.01046
M73 P6 R64
G1 X51.168 Y67.694 E1.07094
G1 X51.657 Y67.694 E.01046
G1 X51.657 Y17.594 E1.07094
G1 X52.146 Y17.594 E.01046
M73 P6 R63
G1 X52.146 Y67.694 E1.07094
G1 X52.635 Y67.694 E.01046
G1 X52.635 Y17.594 E1.07094
G1 X53.125 Y17.594 E.01046
G1 X53.125 Y67.694 E1.07094
G1 X53.614 Y67.694 E.01046
G1 X53.614 Y17.594 E1.07094
G1 X54.103 Y17.594 E.01046
G1 X54.103 Y67.694 E1.07094
G1 X54.593 Y67.694 E.01046
G1 X54.593 Y17.594 E1.07094
G1 X55.082 Y17.594 E.01046
G1 X55.082 Y67.694 E1.07094
G1 X55.571 Y67.694 E.01046
G1 X55.571 Y17.594 E1.07094
G1 X56.06 Y17.594 E.01046
G1 X56.06 Y67.694 E1.07094
G1 X56.55 Y67.694 E.01046
G1 X56.55 Y17.594 E1.07094
G1 X57.039 Y17.594 E.01046
G1 X57.039 Y67.694 E1.07094
G1 X57.528 Y67.694 E.01046
G1 X57.528 Y17.594 E1.07094
G1 X58.017 Y17.594 E.01046
G1 X58.017 Y67.694 E1.07094
G1 X58.507 Y67.694 E.01046
G1 X58.507 Y17.594 E1.07094
G1 X58.747 Y17.594 E.00514
M73 P7 R63
G1 X58.747 Y67.694 E1.07094
G1 X58.651 Y67.694 E.00205
M204 S1250
G1 E-2.24 F4200
;WIPE_START
G1 F7200
G1 X58.747 Y67.694 E-.05319
G1 X58.747 Y66.144 E-.85881
;WIPE_END
G1 E-.048 F4200
G1 X128.817 Y17.594 F9000
G1 E3.2 F2400
M204 S800
G1 F1200
G1 X128.529 Y17.594 E.00616
G1 X128.529 Y67.694 E1.07094
G1 X128.961 Y67.694 E.00925
G1 X128.961 Y17.594 E1.07094
G1 X129.451 Y17.594 E.01046
G1 X129.451 Y67.694 E1.07094
G1 X129.94 Y67.694 E.01046
G1 X129.94 Y17.594 E1.07094
G1 X130.429 Y17.594 E.01046
G1 X130.429 Y67.694 E1.07094
G1 X130.919 Y67.694 E.01046
G1 X130.919 Y17.594 E1.07094
G1 X131.408 Y17.594 E.01046
G1 X131.408 Y67.694 E1.07094
G1 X131.897 Y67.694 E.01046
G1 X131.897 Y17.594 E1.07094
G1 X132.386 Y17.594 E.01046
M73 P7 R62
G1 X132.386 Y67.694 E1.07094
G1 X132.876 Y67.694 E.01046
G1 X132.876 Y17.594 E1.07094
G1 X133.365 Y17.594 E.01046
G1 X133.365 Y67.694 E1.07094
G1 X133.854 Y67.694 E.01046
G1 X133.854 Y17.594 E1.07094
G1 X134.343 Y17.594 E.01046
G1 X134.343 Y67.694 E1.07094
G1 X134.833 Y67.694 E.01046
G1 X134.833 Y17.594 E1.07094
G1 X135.322 Y17.594 E.01046
G1 X135.322 Y67.694 E1.07094
G1 X135.811 Y67.694 E.01046
M73 P8 R62
G1 X135.811 Y17.594 E1.07094
G1 X136.3 Y17.594 E.01046
G1 X136.3 Y67.694 E1.07094
G1 X136.79 Y67.694 E.01046
G1 X136.79 Y17.594 E1.07094
G1 X137.279 Y17.594 E.01046
G1 X137.279 Y67.694 E1.07094
G1 X137.768 Y67.694 E.01046
G1 X137.768 Y17.594 E1.07094
G1 X138.258 Y17.594 E.01046
G1 X138.258 Y67.694 E1.07094
G1 X138.747 Y67.694 E.01046
G1 X138.747 Y17.594 E1.07094
G1 X139.236 Y17.594 E.01046
G1 X139.236 Y67.694 E1.07094
G1 X139.725 Y67.694 E.01046
G1 X139.725 Y17.594 E1.07094
G1 X140.215 Y17.594 E.01046
G1 X140.215 Y67.694 E1.07094
G1 X140.704 Y67.694 E.01046
G1 X140.704 Y17.594 E1.07094
G1 X141.193 Y17.594 E.01046
G1 X141.193 Y67.694 E1.07094
G1 X141.682 Y67.694 E.01046
G1 X141.682 Y17.594 E1.07094
G1 X142.172 Y17.594 E.01046
G1 X142.172 Y67.694 E1.07094
G1 X142.661 Y67.694 E.01046
G1 X142.661 Y17.594 E1.07094
G1 X143.15 Y17.594 E.01046
G1 X143.15 Y67.694 E1.07094
G1 X143.64 Y67.694 E.01046
M73 P9 R62
G1 X143.64 Y17.594 E1.07094
G1 X144.129 Y17.594 E.01046
M73 P9 R61
G1 X144.129 Y67.694 E1.07094
G1 X144.618 Y67.694 E.01046
G1 X144.618 Y17.594 E1.07094
G1 X145.107 Y17.594 E.01046
G1 X145.107 Y67.694 E1.07094
G1 X145.597 Y67.694 E.01046
G1 X145.597 Y17.594 E1.07094
G1 X146.086 Y17.594 E.01046
G1 X146.086 Y67.694 E1.07094
G1 X146.575 Y67.694 E.01046
G1 X146.575 Y17.594 E1.07094
G1 X147.064 Y17.594 E.01046
G1 X147.064 Y67.694 E1.07094
G1 X147.554 Y67.694 E.01046
G1 X147.554 Y17.594 E1.07094
G1 X148.043 Y17.594 E.01046
G1 X148.043 Y67.694 E1.07094
G1 X148.532 Y67.694 E.01046
G1 X148.532 Y17.594 E1.07094
G1 X149.021 Y17.594 E.01046
G1 X149.021 Y67.694 E1.07094
G1 X149.511 Y67.694 E.01046
G1 X149.511 Y17.594 E1.07094
G1 X150 Y17.594 E.01046
G1 X150 Y67.694 E1.07094
G1 X150.489 Y67.694 E.01046
G1 X150.489 Y17.594 E1.07094
G1 X150.979 Y17.594 E.01046
G1 X150.979 Y67.694 E1.07094
G1 X151.468 Y67.694 E.01046
M73 P10 R61
G1 X151.468 Y17.594 E1.07094
G1 X151.957 Y17.594 E.01046
G1 X151.957 Y67.694 E1.07094
G1 X152.446 Y67.694 E.01046
G1 X152.446 Y17.594 E1.07094
G1 X152.936 Y17.594 E.01046
G1 X152.936 Y67.694 E1.07094
G1 X153.425 Y67.694 E.01046
G1 X153.425 Y17.594 E1.07094
G1 X153.914 Y17.594 E.01046
G1 X153.914 Y67.694 E1.07094
G1 X154.403 Y67.694 E.01046
G1 X154.403 Y17.594 E1.07094
G1 X154.893 Y17.594 E.01046
G1 X154.893 Y67.694 E1.07094
G1 X155.382 Y67.694 E.01046
M73 P10 R60
G1 X155.382 Y17.594 E1.07094
G1 X155.871 Y17.594 E.01046
G1 X155.871 Y67.694 E1.07094
G1 X156.361 Y67.694 E.01046
G1 X156.361 Y17.594 E1.07094
G1 X156.85 Y17.594 E.01046
G1 X156.85 Y67.694 E1.07094
G1 X157.339 Y67.694 E.01046
G1 X157.339 Y17.594 E1.07094
G1 X157.828 Y17.594 E.01046
G1 X157.828 Y67.694 E1.07094
G1 X158.318 Y67.694 E.01046
G1 X158.318 Y17.594 E1.07094
G1 X158.807 Y17.594 E.01046
G1 X158.807 Y67.694 E1.07094
G1 X159.296 Y67.694 E.01046
M73 P11 R60
G1 X159.296 Y17.594 E1.07094
G1 X159.785 Y17.594 E.01046
G1 X159.785 Y67.694 E1.07094
G1 X160.275 Y67.694 E.01046
G1 X160.275 Y17.594 E1.07094
G1 X160.764 Y17.594 E.01046
G1 X160.764 Y67.694 E1.07094
G1 X161.253 Y67.694 E.01046
G1 X161.253 Y17.594 E1.07094
G1 X161.742 Y17.594 E.01046
G1 X161.742 Y67.694 E1.07094
G1 X162.232 Y67.694 E.01046
G1 X162.232 Y17.594 E1.07094
G1 X162.721 Y17.594 E.01046
G1 X162.721 Y67.694 E1.07094
G1 X163.21 Y67.694 E.01046
G1 X163.21 Y17.594 E1.07094
G1 X163.7 Y17.594 E.01046
G1 X163.7 Y67.694 E1.07094
G1 X164.189 Y67.694 E.01046
G1 X164.189 Y17.594 E1.07094
G1 X164.678 Y17.594 E.01046
G1 X164.678 Y67.694 E1.07094
G1 X165.167 Y67.694 E.01046
G1 X165.167 Y17.594 E1.07094
G1 X165.657 Y17.594 E.01046
G1 X165.657 Y67.694 E1.07094
G1 X166.146 Y67.694 E.01046
G1 X166.146 Y17.594 E1.07094
G1 X166.635 Y17.594 E.01046
G1 X166.635 Y67.694 E1.07094
G1 X167.124 Y67.694 E.01046
M73 P12 R59
G1 X167.124 Y17.594 E1.07094
G1 X167.614 Y17.594 E.01046
G1 X167.614 Y67.694 E1.07094
G1 X168.103 Y67.694 E.01046
G1 X168.103 Y17.594 E1.07094
G1 X168.592 Y17.594 E.01046
G1 X168.592 Y67.694 E1.07094
G1 X169.081 Y67.694 E.01046
G1 X169.082 Y17.594 E1.07094
G1 X169.571 Y17.594 E.01046
G1 X169.571 Y67.694 E1.07094
G1 X170.06 Y67.694 E.01046
G1 X170.06 Y17.594 E1.07094
G1 X170.549 Y17.594 E.01046
G1 X170.549 Y67.694 E1.07094
G1 X171.039 Y67.694 E.01046
G1 X171.039 Y17.594 E1.07094
G1 X171.471 Y17.594 E.00925
G1 X171.471 Y67.694 E1.07094
G1 X171.183 Y67.694 E.00616
M204 S1250
G1 E-2.24 F4200
;WIPE_START
G1 F7200
G1 X171.471 Y67.694 E-.15966
G1 X171.471 Y66.336 E-.75234
;WIPE_END
G1 E-.048 F4200
G1 X241.349 Y67.694 F9000
G1 E3.2 F2400
M204 S800
G1 F1200
G1 X241.253 Y67.694 E.00205
G1 X241.253 Y17.594 E1.07094
G1 X241.493 Y17.594 E.00514
G1 X241.493 Y67.694 E1.07094
G1 X241.983 Y67.694 E.01046
G1 X241.983 Y17.594 E1.07094
G1 X242.472 Y17.594 E.01046
G1 X242.472 Y67.694 E1.07094
G1 X242.961 Y67.694 E.01046
G1 X242.961 Y17.594 E1.07094
G1 X243.45 Y17.594 E.01046
G1 X243.45 Y67.694 E1.07094
G1 X243.94 Y67.694 E.01046
M73 P13 R59
G1 X243.94 Y17.594 E1.07094
G1 X244.429 Y17.594 E.01046
G1 X244.429 Y67.694 E1.07094
G1 X244.918 Y67.694 E.01046
G1 X244.918 Y17.594 E1.07094
G1 X245.407 Y17.594 E.01046
G1 X245.407 Y67.694 E1.07094
G1 X245.897 Y67.694 E.01046
G1 X245.897 Y17.594 E1.07094
G1 X246.386 Y17.594 E.01046
G1 X246.386 Y67.694 E1.07094
G1 X246.875 Y67.694 E.01046
G1 X246.875 Y17.594 E1.07094
G1 X247.365 Y17.594 E.01046
M73 P13 R58
G1 X247.365 Y67.694 E1.07094
G1 X247.854 Y67.694 E.01046
G1 X247.854 Y17.594 E1.07094
G1 X248.343 Y17.594 E.01046
G1 X248.343 Y67.694 E1.07094
G1 X248.832 Y67.694 E.01046
G1 X248.832 Y17.594 E1.07094
G1 X249.322 Y17.594 E.01046
G1 X249.322 Y67.694 E1.07094
G1 X249.811 Y67.694 E.01046
G1 X249.811 Y17.594 E1.07094
G1 X250.3 Y17.594 E.01046
G1 X250.3 Y67.694 E1.07094
G1 X250.789 Y67.694 E.01046
G1 X250.789 Y17.594 E1.07094
G1 X251.279 Y17.594 E.01046
G1 X251.279 Y67.694 E1.07094
G1 X251.768 Y67.694 E.01046
M73 P14 R58
G1 X251.768 Y17.594 E1.07094
G1 X252.257 Y17.594 E.01046
G1 X252.257 Y67.694 E1.07094
G1 X252.746 Y67.694 E.01046
G1 X252.747 Y17.594 E1.07094
G1 X253.236 Y17.594 E.01046
G1 X253.236 Y67.694 E1.07094
G1 X253.725 Y67.694 E.01046
G1 X253.725 Y17.594 E1.07094
G1 X254.214 Y17.594 E.01046
G1 X254.214 Y67.694 E1.07094
G1 X254.704 Y67.694 E.01046
G1 X254.704 Y17.594 E1.07094
G1 X255.193 Y17.594 E.01046
G1 X255.193 Y67.694 E1.07094
G1 X255.682 Y67.694 E.01046
G1 X255.682 Y17.594 E1.07094
G1 X256.171 Y17.594 E.01046
G1 X256.171 Y67.694 E1.07094
G1 X256.661 Y67.694 E.01046
G1 X256.661 Y17.594 E1.07094
G1 X257.15 Y17.594 E.01046
G1 X257.15 Y67.694 E1.07094
G1 X257.639 Y67.694 E.01046
G1 X257.639 Y17.594 E1.07094
G1 X258.128 Y17.594 E.01046
G1 X258.128 Y67.694 E1.07094
G1 X258.618 Y67.694 E.01046
G1 X258.618 Y17.594 E1.07094
G1 X259.107 Y17.594 E.01046
M73 P14 R57
G1 X259.107 Y67.694 E1.07094
G1 X259.596 Y67.694 E.01046
M73 P15 R57
G1 X259.596 Y17.594 E1.07094
G1 X260.086 Y17.594 E.01046
G1 X260.086 Y67.694 E1.07094
G1 X260.575 Y67.694 E.01046
G1 X260.575 Y17.594 E1.07094
G1 X261.064 Y17.594 E.01046
G1 X261.064 Y67.694 E1.07094
G1 X261.553 Y67.694 E.01046
G1 X261.553 Y17.594 E1.07094
G1 X262.043 Y17.594 E.01046
G1 X262.043 Y67.694 E1.07094
G1 X262.532 Y67.694 E.01046
G1 X262.532 Y17.594 E1.07094
G1 X263.021 Y17.594 E.01046
G1 X263.021 Y67.694 E1.07094
G1 X263.51 Y67.694 E.01046
G1 X263.51 Y17.594 E1.07094
G1 X264 Y17.594 E.01046
G1 X264 Y67.694 E1.07094
G1 X264.489 Y67.694 E.01046
G1 X264.489 Y17.594 E1.07094
G1 X264.978 Y17.594 E.01046
G1 X264.978 Y67.694 E1.07094
G1 X265.467 Y67.694 E.01046
G1 X265.467 Y17.594 E1.07094
G1 X265.957 Y17.594 E.01046
G1 X265.957 Y67.694 E1.07094
G1 X266.446 Y67.694 E.01046
G1 X266.446 Y17.594 E1.07094
G1 X266.935 Y17.594 E.01046
G1 X266.935 Y67.694 E1.07094
G1 X267.425 Y67.694 E.01046
M73 P16 R57
G1 X267.425 Y17.594 E1.07094
G1 X267.914 Y17.594 E.01046
G1 X267.914 Y67.694 E1.07094
G1 X268.403 Y67.694 E.01046
