; generated by PrusaSlicer 2.5.0 on 2022-10-05 at 15:05:12 UTC

; 

; external perimeters extrusion width = 0.45mm
; perimeters extrusion width = 0.45mm
; infill extrusion width = 0.45mm
; solid infill extrusion width = 0.45mm
; top infill extrusion width = 0.40mm
; support material extrusion width = 0.35mm
; first layer extrusion width = 0.42mm

M107
M190 S60 ; set bed temperature and wait for it to be reached
M104 S215 ; set temperature
;TYPE:Custom
G28 ; home all axes
G1 Z5 F5000 ; lift nozzle
M109 S215 ; set temperature and wait for it to be reached
G21 ; set units to millimeters
G90 ; use absolute coordinates
M82 ; use absolute distances for extrusion
G92 E0
; Filament gcode
M107
;LAYER_CHANGE
;Z:0.35
;HEIGHT:0.35
G1 Z.35 F7800
G1 E-2 F2400
G92 E0
G1 Z3.35 F7800
G1 X196.709 Y104.517
G1 Z.35
G1 E2 F2400
;TYPE:Skirt/Brim
;WIDTH:0.42
G1 F1800
G1 X198.152 Y102.29 E2.1332
G1 X199.786 Y100.655 E2.24919
G1 X201.629 Y99.374 E2.36182
G1 X204.273 Y98.797 E2.49764
G1 X262.582 Y98.797 E5.42394
G1 X264.791 Y99.194 E5.53657
G1 X267.069 Y100.655 E5.67239
G1 X268.703 Y102.29 E5.78838
G1 X269.984 Y104.132 E5.901
G1 X270.561 Y106.776 E6.03683
G1 X270.561 Y126.087 E7.00595
G1 X270.164 Y128.295 E7.11857
G1 X269.617 Y129.417 E7.18121
G1 X166.549 Y296.554 E17.03579
G1 X165.635 Y297.71 E17.10975
G1 X164.001 Y299.345 E17.22575
G1 X162.158 Y300.626 E17.33837
G1 X159.514 Y301.203 E17.47419
G1 X137.418 Y301.203 E18.58311
G1 X135.209 Y300.806 E18.69574
G1 X132.931 Y299.345 E18.83156
G1 X131.297 Y297.71 E18.94755
G1 X130.016 Y295.868 E19.06017
G1 X129.439 Y293.224 E19.196
G1 X129.439 Y282.27 E19.74572
G1 X129.854 Y280.011 E19.86098
G1 X196.688 Y104.573 E29.28274
G1 E27.28274 F2400
G92 E0
G1 Z3.35 F7800
G1 X264.216 Y106.776
G1 Z.35
G1 E2 F2400
;TYPE:Support material
G1 F1800
G1 X264.216 Y126.087 E2.96912
G1 X262.582 Y127.721 E3.08512
G1 X222.432 Y127.721 E5.10008
G1 X222.432 Y131.658 E5.29766
G1 X220.798 Y133.292 E5.41365
G1 X219.647 Y133.292 E5.47143
G1 X219.647 Y137.229 E5.66901
G1 X218.012 Y138.864 E5.785
G1 X216.861 Y138.864 E5.84278
G1 X216.861 Y145.586 E6.18015
G1 X215.227 Y147.22 E6.29615
G1 X214.075 Y147.22 E6.35393
G1 X214.075 Y153.943 E6.6913
G1 X212.441 Y155.577 E6.8073
G1 X211.29 Y155.577 E6.86508
G1 X211.29 Y159.514 E7.06265
G1 X209.655 Y161.149 E7.17865
G1 X208.504 Y161.149 E7.23643
G1 X208.504 Y167.871 E7.5738
G1 X206.87 Y169.505 E7.6898
G1 X205.718 Y169.505 E7.74757
G1 X205.718 Y176.228 E8.08495
G1 X204.084 Y177.862 E8.20095
G1 X202.933 Y177.862 E8.25872
G1 X202.933 Y181.799 E8.4563
G1 X201.298 Y183.433 E8.5723
G1 X200.147 Y183.433 E8.63007
G1 X200.147 Y190.156 E8.96745
G1 X198.513 Y191.79 E9.08344
G1 X197.362 Y191.79 E9.14122
G1 X197.362 Y195.727 E9.3388
G1 X195.727 Y197.362 E9.45479
G1 X194.576 Y197.362 E9.51257
G1 X194.576 Y204.084 E9.84995
G1 X192.942 Y205.718 E9.96594
G1 X191.79 Y205.718 E10.02372
G1 X191.79 Y212.441 E10.3611
G1 X190.156 Y214.075 E10.47709
G1 X189.005 Y214.075 E10.53487
G1 X189.005 Y218.012 E10.73245
G1 X187.37 Y219.647 E10.84844
G1 X186.219 Y219.647 E10.90622
G1 X186.219 Y226.369 E11.24359
G1 X184.585 Y228.003 E11.35959
G1 X183.433 Y228.003 E11.41737
G1 X183.433 Y234.726 E11.75474
G1 X181.799 Y236.36 E11.87074
G1 X180.648 Y236.36 E11.92852
G1 X180.648 Y240.297 E12.12609
G1 X179.014 Y241.932 E12.24209
G1 X177.862 Y241.932 E12.29987
G1 X177.862 Y248.654 E12.63724
G1 X176.228 Y250.288 E12.75324
G1 X175.077 Y250.288 E12.81101
G1 X175.077 Y257.011 E13.14839
G1 X173.442 Y258.645 E13.26438
G1 X172.291 Y258.645 E13.32216
G1 X172.291 Y262.582 E13.51974
G1 X170.657 Y264.216 E13.63573
G1 X169.505 Y264.216 E13.69351
G1 X169.505 Y270.939 E14.03089
G1 X167.871 Y272.573 E14.14688
G1 X166.72 Y272.573 E14.20466
G1 X166.72 Y276.51 E14.40224
G1 X165.085 Y278.145 E14.51823
G1 X163.934 Y278.145 E14.57601
G1 X163.934 Y284.867 E14.91339
G1 X162.3 Y286.501 E15.02938
G1 X161.149 Y286.501 E15.08716
G1 X161.149 Y293.224 E15.42453
G1 X159.514 Y294.858 E15.54053
G1 X137.418 Y294.858 E16.64945
G1 X135.784 Y293.224 E16.76545
G1 X135.784 Y282.27 E17.31517
G1 X137.418 Y280.636 E17.43117
G1 X138.569 Y280.636 E17.48895
G1 X138.569 Y276.699 E17.68652
G1 X140.204 Y275.065 E17.80252
G1 X141.355 Y275.065 E17.8603
G1 X141.355 Y268.342 E18.19767
G1 X142.989 Y266.708 E18.31367
G1 X144.14 Y266.708 E18.37144
G1 X144.14 Y262.771 E18.56902
G1 X145.775 Y261.136 E18.68502
G1 X146.926 Y261.136 E18.74279
G1 X146.926 Y254.414 E19.08017
G1 X148.56 Y252.78 E19.19617
G1 X149.712 Y252.78 E19.25394
G1 X149.712 Y248.843 E19.45152
G1 X151.346 Y247.208 E19.56751
G1 X152.497 Y247.208 E19.62529
G1 X152.497 Y240.486 E19.96267
G1 X154.132 Y238.851 E20.07866
G1 X155.283 Y238.851 E20.13644
G1 X155.283 Y234.915 E20.33402
G1 X156.917 Y233.28 E20.45001
G1 X158.069 Y233.28 E20.50779
G1 X158.069 Y226.558 E20.84517
G1 X159.703 Y224.923 E20.96116
G1 X160.854 Y224.923 E21.01894
G1 X160.854 Y218.201 E21.35631
G1 X162.488 Y216.567 E21.47231
G1 X163.64 Y216.567 E21.53009
G1 X163.64 Y212.63 E21.72766
G1 X165.274 Y210.995 E21.84366
G1 X166.425 Y210.995 E21.90144
G1 X166.425 Y204.273 E22.23881
G1 X168.06 Y202.638 E22.35481
G1 X169.211 Y202.638 E22.41259
G1 X169.211 Y198.702 E22.61016
G1 X170.845 Y197.067 E22.72616
G1 X171.997 Y197.067 E22.78394
G1 X171.997 Y190.345 E23.12131
G1 X173.631 Y188.71 E23.23731
G1 X174.782 Y188.71 E23.29508
G1 X174.782 Y184.773 E23.49266
G1 X176.417 Y183.139 E23.60866
G1 X177.568 Y183.139 E23.66643
G1 X177.568 Y176.417 E24.00381
G1 X179.202 Y174.782 E24.11981
G1 X180.353 Y174.782 E24.17758
G1 X180.353 Y170.845 E24.37516
G1 X181.988 Y169.211 E24.49115
G1 X183.139 Y169.211 E24.54893
G1 X183.139 Y162.488 E24.88631
G1 X184.773 Y160.854 E25.0023
G1 X185.925 Y160.854 E25.06008
G1 X185.925 Y154.132 E25.39746
G1 X187.559 Y152.497 E25.51345
G1 X188.71 Y152.497 E25.57123
G1 X188.71 Y148.56 E25.76881
G1 X190.345 Y146.926 E25.8848
G1 X191.496 Y146.926 E25.94258
G1 X191.496 Y140.204 E26.27995
G1 X193.13 Y138.569 E26.39595
G1 X194.282 Y138.569 E26.45373
G1 X194.282 Y134.632 E26.6513
G1 X195.916 Y132.998 E26.7673
G1 X197.067 Y132.998 E26.82508
G1 X197.067 Y126.275 E27.16245
G1 X198.702 Y124.641 E27.27845
G1 X199.853 Y124.641 E27.33623
G1 X199.853 Y120.704 E27.5338
G1 X201.487 Y119.07 E27.6498
G1 X202.638 Y119.07 E27.70758
G1 X202.638 Y106.776 E28.32455
G1 X204.273 Y105.142 E28.44054
G1 X262.582 Y105.142 E31.36685
G1 X264.18 Y106.74 E31.48025
G1 X262.951 Y105.73 F7800
G1 F1800
G1 X204.123 Y105.73 E34.43259
G1 X203.74 Y106.114 E34.45979
G1 X263.115 Y106.114 E37.43957
G1 X263.498 Y106.497 E37.46677
G1 X203.357 Y106.497 E40.48502
G1 X202.974 Y106.88 E40.51222
G1 X263.881 Y106.88 E43.56893
G1 X263.906 Y106.905 E43.57069
G1 X263.906 Y107.263 E43.58868
G1 X202.949 Y107.263 E46.64787
G1 X202.949 Y107.646 E46.66711
G1 X263.906 Y107.646 E49.7263
G1 X263.906 Y108.03 E49.74553
G1 X202.949 Y108.03 E52.80472
G1 X202.949 Y108.413 E52.82396
G1 X263.906 Y108.413 E55.88315
G1 X263.906 Y108.796 E55.90238
G1 X202.949 Y108.796 E58.96158
G1 X202.949 Y109.179 E58.98081
G1 X263.906 Y109.179 E62.04
G1 X263.906 Y109.562 E62.05923
G1 X202.949 Y109.562 E65.11843
G1 X202.949 Y109.946 E65.13766
G1 X263.906 Y109.946 E68.19685
G1 X263.906 Y110.329 E68.21608
G1 X202.949 Y110.329 E71.27528
G1 X202.949 Y110.712 E71.29451
G1 X263.906 Y110.712 E74.3537
G1 X263.906 Y111.095 E74.37293
G1 X202.949 Y111.095 E77.43213
G1 X202.949 Y111.478 E77.45136
G1 X263.906 Y111.478 E80.51055
G1 X263.906 Y111.862 E80.52978
G1 X202.949 Y111.862 E83.58898
G1 X202.949 Y112.245 E83.60821
G1 X263.906 Y112.245 E86.6674
G1 X263.906 Y112.628 E86.68664
G1 X202.949 Y112.628 E89.74583
G1 X202.949 Y113.011 E89.76506
G1 X263.906 Y113.011 E92.82425
G1 X263.906 Y113.395 E92.84349
G1 X202.949 Y113.395 E95.90268
G1 X202.949 Y113.778 E95.92191
G1 X263.906 Y113.778 E98.98111
G1 X263.906 Y114.161 E99.00034
G1 X202.949 Y114.161 E102.05953
G1 X202.949 Y114.544 E102.07876
G1 X263.906 Y114.544 E105.13796
G1 X263.906 Y114.927 E105.15719
G1 X202.949 Y114.927 E108.21638
G1 X202.949 Y115.311 E108.23561
G1 X263.906 Y115.311 E111.29481
G1 X263.906 Y115.694 E111.31404
G1 X202.949 Y115.694 E114.37323
G1 X202.949 Y116.077 E114.39246
G1 X263.906 Y116.077 E117.45166
G1 X263.906 Y116.46 E117.47089
G1 X202.949 Y116.46 E120.53008
G1 X202.949 Y116.843 E120.54931
G1 X263.906 Y116.843 E123.60851
G1 X263.906 Y117.227 E123.62774
G1 X202.949 Y117.227 E126.68693
G1 X202.949 Y117.61 E126.70617
G1 X263.906 Y117.61 E129.76536
G1 X263.906 Y117.993 E129.78459
G1 X202.949 Y117.993 E132.84378
G1 X202.949 Y118.376 E132.86302
G1 X263.906 Y118.376 E135.92221
G1 X263.906 Y118.759 E135.94144
G1 X202.949 Y118.759 E139.00064
G1 X202.949 Y119.143 E139.01987
G1 X263.906 Y119.143 E142.07906
G1 X263.906 Y119.526 E142.09829
G1 X201.47 Y119.526 E145.2317
G1 X201.087 Y119.909 E145.2589
G1 X263.906 Y119.909 E148.41153
G1 X263.906 Y120.292 E148.43077
G1 X200.704 Y120.292 E151.60264
G1 X200.32 Y120.676 E151.62983
G1 X263.906 Y120.676 E154.82093
G1 X263.906 Y121.059 E154.84017
G1 X200.163 Y121.059 E158.03916
G1 X200.163 Y121.442 E158.05839
G1 X263.906 Y121.442 E161.25738
G1 X263.906 Y121.825 E161.27661
G1 X200.163 Y121.825 E164.47561
G1 X200.163 Y122.208 E164.49484
G1 X263.906 Y122.208 E167.69383
G1 X263.906 Y122.592 E167.71306
G1 X200.163 Y122.592 E170.91206
G1 X200.163 Y122.975 E170.93129
G1 X263.906 Y122.975 E174.13028
G1 X263.906 Y123.358 E174.14951
G1 X200.163 Y123.358 E177.3485
G1 X200.163 Y123.741 E177.36774
G1 X263.906 Y123.741 E180.56673
G1 X263.906 Y124.124 E180.58596
G1 X200.163 Y124.124 E183.78495
G1 X200.163 Y124.508 E183.80418
G1 X263.906 Y124.508 E187.00318
G1 X263.906 Y124.891 E187.02241
G1 X200.163 Y124.891 E190.2214
G1 X200.163 Y124.951 E190.22445
G1 X198.83 Y124.951 E190.29135
G1 X198.508 Y125.274 E190.31424
G1 X263.906 Y125.274 E193.59632
G1 X263.906 Y125.657 E193.61556
G1 X198.124 Y125.657 E196.91687
G1 X197.741 Y126.04 E196.94407
G1 X263.824 Y126.04 E200.26049
G1 X263.441 Y126.424 E200.28768
G1 X197.378 Y126.424 E203.60311
G1 X197.378 Y126.807 E203.62235
G1 X263.057 Y126.807 E206.91854
G1 X262.674 Y127.19 E206.94574
G1 X197.378 Y127.19 E210.22271
G1 X197.378 Y127.573 E210.24194
G1 X222.122 Y127.573 E211.48375
G1 X222.122 Y127.957 E211.50298
G1 X197.378 Y127.957 E212.74479
G1 X197.378 Y128.34 E212.76402
G1 X222.122 Y128.34 E214.00583
G1 X222.122 Y128.723 E214.02506
G1 X197.378 Y128.723 E215.26687
G1 X197.378 Y129.106 E215.2861
G1 X222.122 Y129.106 E216.52791
G1 X222.122 Y129.489 E216.54714
G1 X197.378 Y129.489 E217.78895
G1 X197.378 Y129.873 E217.80818
G1 X222.122 Y129.873 E219.04999
G1 X222.122 Y130.256 E219.06922
G1 X197.378 Y130.256 E220.31103
G1 X197.378 Y130.639 E220.33026
G1 X222.122 Y130.639 E221.57207
G1 X222.122 Y131.022 E221.5913
G1 X197.378 Y131.022 E222.83311
G1 X197.378 Y131.405 E222.85234
G1 X222.122 Y131.405 E224.09415
G1 X222.122 Y131.529 E224.10038
G1 X221.863 Y131.789 E224.11877
G1 X197.378 Y131.789 E225.34757
G1 X197.378 Y132.172 E225.3668
G1 X221.479 Y132.172 E226.57637
G1 X221.096 Y132.555 E226.60357
G1 X197.378 Y132.555 E227.79391
G1 X197.378 Y132.938 E227.81314
G1 X220.713 Y132.938 E228.98425
G1 X220.669 Y132.982 E228.98735
G1 X219.336 Y132.982 E229.05425
G1 X219.336 Y133.321 E229.07129
G1 X196.031 Y133.321 E230.24086
G1 X195.648 Y133.705 E230.26806
G1 X219.336 Y133.705 E231.45686
G1 X219.336 Y134.088 E231.47609
G1 X195.265 Y134.088 E232.68413
G1 X194.882 Y134.471 E232.71132
G1 X219.336 Y134.471 E233.93859
G1 X219.336 Y134.854 E233.95782
G1 X194.592 Y134.854 E235.19963
G1 X194.592 Y135.238 E235.21886
G1 X219.336 Y135.238 E236.46067
G1 X219.336 Y135.621 E236.4799
G1 X194.592 Y135.621 E237.72171
G1 X194.592 Y136.004 E237.74094
G1 X219.336 Y136.004 E238.98275
G1 X219.336 Y136.387 E239.00198
G1 X194.592 Y136.387 E240.24379
G1 X194.592 Y136.77 E240.26302
G1 X219.336 Y136.77 E241.50483
G1 X219.336 Y137.101 E241.52141
G1 X219.283 Y137.154 E241.52516
G1 X194.592 Y137.154 E242.76432
G1 X194.592 Y137.537 E242.78355
G1 X218.9 Y137.537 E244.00347
G1 X218.517 Y137.92 E244.03067
G1 X194.592 Y137.92 E245.23136
G1 X194.592 Y138.303 E245.25059
G1 X218.134 Y138.303 E246.43205
G1 X217.884 Y138.553 E246.44979
G1 X216.551 Y138.553 E246.51669
G1 X216.551 Y138.686 E246.52338
G1 X194.592 Y138.686 E247.62539
G1 X194.592 Y138.88 E247.63509
G1 X193.259 Y138.88 E247.70199
G1 X193.069 Y139.07 E247.71547
G1 X216.551 Y139.07 E248.89392
G1 X216.551 Y139.453 E248.91316
G1 X192.686 Y139.453 E250.11084
G1 X192.302 Y139.836 E250.13803
G1 X216.551 Y139.836 E251.35495
G1 X216.551 Y140.219 E251.37418
G1 X191.919 Y140.219 E252.61032
G1 X191.806 Y140.332 E252.61833
G1 X191.806 Y140.602 E252.6319
G1 X216.551 Y140.602 E253.87371
G1 X216.551 Y140.986 E253.89294
G1 X191.806 Y140.986 E255.13475
G1 X191.806 Y141.369 E255.15398
G1 X216.551 Y141.369 E256.39579
G1 X216.551 Y141.752 E256.41502
G1 X191.806 Y141.752 E257.65683
G1 X191.806 Y142.135 E257.67606
G1 X216.551 Y142.135 E258.91787
G1 X216.551 Y142.519 E258.9371
G1 X191.806 Y142.519 E260.17891
G1 X191.806 Y142.902 E260.19814
G1 X216.551 Y142.902 E261.43995
G1 X216.551 Y143.285 E261.45918
G1 X191.806 Y143.285 E262.70099
G1 X191.806 Y143.668 E262.72022
G1 X216.551 Y143.668 E263.96203
G1 X216.551 Y144.051 E263.98126
G1 X191.806 Y144.051 E265.22307
G1 X191.806 Y144.435 E265.2423
G1 X216.551 Y144.435 E266.48411
G1 X216.551 Y144.818 E266.50334
G1 X191.806 Y144.818 E267.74515
G1 X191.806 Y145.201 E267.76438
G1 X216.551 Y145.201 E269.00619
G1 X216.551 Y145.458 E269.01907
G1 X216.424 Y145.584 E269.02806
G1 X191.806 Y145.584 E270.26351
G1 X191.806 Y145.967 E270.28274
G1 X216.041 Y145.967 E271.49896
G1 X215.657 Y146.351 E271.52616
G1 X191.806 Y146.351 E272.72315
G1 X191.806 Y146.734 E272.74238
G1 X215.274 Y146.734 E273.92014
G1 X215.098 Y146.91 E273.93264
G1 X213.765 Y146.91 E273.99955
G1 X213.765 Y147.117 E274.00994
G1 X191.806 Y147.117 E275.11195
G1 X191.806 Y147.236 E275.11794
G1 X190.473 Y147.236 E275.18484
G1 X190.209 Y147.5 E275.20356
G1 X213.765 Y147.5 E276.38571
G1 X213.765 Y147.883 E276.40495
G1 X189.826 Y147.883 E277.60633
G1 X189.443 Y148.267 E277.63353
G1 X213.765 Y148.267 E278.85414
G1 X213.765 Y148.65 E278.87337
G1 X189.06 Y148.65 E280.11322
G1 X189.021 Y148.689 E280.11599
G1 X189.021 Y149.033 E280.13326
G1 X213.765 Y149.033 E281.37507
G1 X213.765 Y149.416 E281.3943
G1 X189.021 Y149.416 E282.63611
G1 X189.021 Y149.799 E282.65534
G1 X213.765 Y149.799 E283.89715
G1 X213.765 Y150.183 E283.91638
G1 X189.021 Y150.183 E285.15819
G1 X189.021 Y150.566 E285.17742
G1 X213.765 Y150.566 E286.41923
G1 X213.765 Y150.949 E286.43846
G1 X189.021 Y150.949 E287.68027
G1 X189.021 Y151.332 E287.6995
G1 X213.765 Y151.332 E288.94131
G1 X213.765 Y151.716 E288.96055
G1 X189.021 Y151.716 E290.20235
G1 X189.021 Y152.099 E290.22159
G1 X213.765 Y152.099 E291.46339
G1 X213.765 Y152.482 E291.48263
G1 X189.021 Y152.482 E292.72443
G1 X189.021 Y152.808 E292.74078
G1 X187.688 Y152.808 E292.80768
G1 X187.63 Y152.865 E292.81176
G1 X213.765 Y152.865 E294.12336
G1 X213.765 Y153.248 E294.14259
G1 X187.247 Y153.248 E295.47342
G1 X186.864 Y153.632 E295.50062
G1 X213.765 Y153.632 E296.85068
G1 X213.765 Y153.814 E296.85985
G1 X213.564 Y154.015 E296.87408
G1 X186.481 Y154.015 E298.23331
G1 X186.235 Y154.26 E298.25073
G1 X186.235 Y154.398 E298.25764
G1 X213.181 Y154.398 E299.60996
G1 X212.798 Y154.781 E299.63716
G1 X186.235 Y154.781 E300.97024
G1 X186.235 Y155.164 E300.98947
G1 X212.415 Y155.164 E302.30333
G1 X212.312 Y155.267 E302.3106
G1 X210.979 Y155.267 E302.3775
G1 X210.979 Y155.548 E302.39159
G1 X186.235 Y155.548 E303.6334
G1 X186.235 Y155.931 E303.65263
G1 X210.979 Y155.931 E304.89444
G1 X210.979 Y156.314 E304.91367
G1 X186.235 Y156.314 E306.15548
G1 X186.235 Y156.697 E306.17471
G1 X210.979 Y156.697 E307.41652
G1 X210.979 Y157.08 E307.43575
G1 X186.235 Y157.08 E308.67756
G1 X186.235 Y157.464 E308.6968
G1 X210.979 Y157.464 E309.9386
G1 X210.979 Y157.847 E309.95784
G1 X186.235 Y157.847 E311.19964
G1 X186.235 Y158.23 E311.21888
G1 X210.979 Y158.23 E312.46068
G1 X210.979 Y158.613 E312.47992
G1 X186.235 Y158.613 E313.72172
G1 X186.235 Y158.997 E313.74096
G1 X210.979 Y158.997 E314.98276
G1 X210.979 Y159.38 E315.002
G1 X186.235 Y159.38 E316.24381
