; generated by PrusaSlicer 2.5.0 on 2022-10-17 at 23:18:32 UTC

; 

; external perimeters extrusion width = 0.45mm
; perimeters extrusion width = 0.45mm
; infill extrusion width = 0.45mm
; solid infill extrusion width = 0.45mm
; top infill extrusion width = 0.40mm
; support material extrusion width = 0.35mm
; first layer extrusion width = 0.42mm

M107
M190 S60 ; set bed temperature and wait for it to be reached
M104 S215 ; set temperature
;TYPE:Custom
G28 ; home all axes
G1 Z5 F5000 ; lift nozzle
M109 S215 ; set temperature and wait for it to be reached
G21 ; set units to millimeters
G90 ; use absolute coordinates
M82 ; use absolute distances for extrusion
G92 E0
; Filament gcode
M107
;LAYER_CHANGE
;Z:0.35
;HEIGHT:0.35
G1 Z.35 F7800
G1 E-2 F2400
G92 E0
G1 Z3.35 F7800
G1 X178.776 Y176.778
G1 Z.35
G1 E2 F2400
;TYPE:Skirt/Brim
;WIDTH:0.42
G1 F1800
G1 X181.938 Y173.581 E2.22563
G1 X183.781 Y172.3 E2.33825
G1 X186.425 Y171.723 E2.47408
G1 X213.575 Y171.723 E3.83665
G1 X215.784 Y172.12 E3.94927
G1 X218.062 Y173.581 E4.0851
G1 X220.847 Y176.367 E4.2828
G1 X222.059 Y178.062 E4.38734
G1 X225.344 Y184.767 E4.76209
G1 X225.991 Y187.559 E4.90592
G1 X225.986 Y201.557 E5.6084
G1 X225.486 Y213.833 E6.22503
G1 X225 Y216.024 E6.33766
G1 X223.633 Y218.062 E6.46079
G1 X215.276 Y226.419 E7.0539
G1 X213.434 Y227.7 E7.16652
G1 X210.79 Y228.277 E7.30235
G1 X189.21 Y228.277 E8.38532
G1 X187.002 Y227.88 E8.49795
G1 X184.724 Y226.419 E8.63377
G1 X179.153 Y220.847 E9.02918
G1 X177.964 Y219.198 E9.13119
G1 X175.178 Y213.627 E9.44379
G1 X174.517 Y211.123 E9.57375
G1 X174.009 Y201.298 E10.06749
G1 X174.009 Y184.773 E10.89681
G1 X174.405 Y182.565 E11.00943
G1 X175.491 Y180.698 E11.11781
G1 X178.738 Y176.824 E11.37149
G1 E9.37149 F2400
G92 E0
G1 Z3.35 F7800
G1 X213.575 Y180.853
G1 Z.35
G1 E2 F2400
;TYPE:Support material
G1 F1800
G1 X216.361 Y180.853 E2.1398
G1 X216.361 Y184.273 E2.31143
G1 X216.861 Y184.773 E2.34692
G1 X216.861 Y185.925 E2.4047
G1 X218.012 Y185.925 E2.46247
G1 X219.647 Y187.559 E2.57847
G1 X219.647 Y201.298 E3.268
G1 X219.147 Y201.798 E3.30348
G1 X219.147 Y213.575 E3.89451
G1 X216.361 Y213.575 E4.03431
G1 X216.361 Y216.361 E4.17411
G1 X213.575 Y216.361 E4.31391
G1 X213.575 Y219.147 E4.45371
G1 X210.79 Y219.147 E4.59351
G1 X210.79 Y221.932 E4.73331
G1 X189.21 Y221.932 E5.81629
G1 X189.21 Y219.147 E5.95608
G1 X186.425 Y219.147 E6.09588
G1 X186.425 Y216.361 E6.23568
G1 X183.639 Y216.361 E6.37548
G1 X183.639 Y210.79 E6.65508
G1 X180.853 Y210.79 E6.79488
G1 X180.853 Y201.798 E7.24611
G1 X180.353 Y201.298 E7.2816
G1 X180.353 Y184.773 E8.11092
G1 X181.988 Y183.139 E8.22692
G1 X183.639 Y183.139 E8.30979
G1 X183.639 Y180.853 E8.42449
G1 X186.425 Y180.853 E8.56429
G1 X186.425 Y178.068 E8.70409
G1 X213.575 Y178.068 E10.06667
G1 X213.575 Y180.802 E10.20387
G1 E8.20387 F2400
G92 E0
G1 Z3.35 F7800
G1 X216.206 Y181.522
G1 Z.35
G1 E2 F2400
G1 F1800
G1 X215.848 Y181.164 E2.02538
G1 X215.306 Y181.164 E2.05258
G1 X216.051 Y181.908 E2.10541
G1 X216.051 Y182.45 E2.13261
G1 X214.764 Y181.164 E2.2239
G1 X214.222 Y181.164 E2.2511
G1 X216.051 Y182.992 E2.38086
G1 X216.051 Y183.534 E2.40806
G1 X213.68 Y181.164 E2.57628
G1 X213.265 Y181.164 E2.59713
G1 X213.265 Y180.748 E2.61797
G1 X210.895 Y178.378 E2.78619
G1 X211.437 Y178.378 E2.81339
G1 X213.265 Y180.206 E2.94315
G1 X213.265 Y179.665 E2.97035
G1 X211.979 Y178.378 E3.06164
G1 X212.521 Y178.378 E3.08884
G1 X213.265 Y179.123 E3.14167
G1 X213.265 Y178.581 E3.16887
G1 X212.907 Y178.223 E3.19425
G1 E1.19425 F2400
G92 E0
G1 Z3.35 F7800
G1 X216.206 Y184.231
G1 Z.35
G1 E2 F2400
G1 F1800
G1 X210.353 Y178.378 E2.4154
G1 X209.811 Y178.378 E2.4426
G1 X216.551 Y185.118 E2.92094
G1 X216.551 Y185.66 E2.94814
G1 X209.269 Y178.378 E3.46494
G1 X208.727 Y178.378 E3.49214
G1 X219.336 Y188.987 E4.24511
G1 X219.336 Y188.446 E4.27231
G1 X217.126 Y186.235 E4.42919
G1 X217.668 Y186.235 E4.45639
G1 X219.491 Y188.059 E4.58582
G1 X219.491 Y189.685 F7800
G1 F1800
G1 X208.185 Y178.378 E5.38827
G1 X207.643 Y178.378 E5.41547
G1 X219.336 Y190.071 E6.24537
G1 X219.336 Y190.613 E6.27257
G1 X207.101 Y178.378 E7.14093
G1 X206.559 Y178.378 E7.16813
G1 X219.336 Y191.155 E8.07496
G1 X219.336 Y191.697 E8.10216
G1 X206.017 Y178.378 E9.04745
G1 X205.475 Y178.378 E9.07464
G1 X219.336 Y192.239 E10.0584
G1 X219.336 Y192.781 E10.0856
G1 X204.933 Y178.378 E11.10781
G1 X204.391 Y178.378 E11.13501
G1 X219.336 Y193.323 E12.19569
G1 X219.336 Y193.865 E12.22289
G1 X203.85 Y178.378 E13.32203
G1 X203.308 Y178.378 E13.34923
G1 X219.336 Y194.407 E14.48684
G1 X219.336 Y194.949 E14.51404
G1 X202.766 Y178.378 E15.69011
G1 X202.224 Y178.378 E15.7173
G1 X219.336 Y195.491 E16.93184
G1 X219.336 Y196.033 E16.95904
G1 X201.682 Y178.378 E18.21204
G1 X201.14 Y178.378 E18.23923
G1 X219.336 Y196.575 E19.53069
G1 X219.336 Y197.117 E19.55789
G1 X200.598 Y178.378 E20.88782
G1 X200.056 Y178.378 E20.91502
G1 X219.336 Y197.659 E22.2834
G1 X219.336 Y198.2 E22.3106
G1 X199.514 Y178.378 E23.71745
G1 X198.972 Y178.378 E23.74465
G1 X219.336 Y198.742 E25.18997
G1 X219.336 Y199.284 E25.21716
G1 X198.43 Y178.378 E26.70094
G1 X197.888 Y178.378 E26.72814
G1 X219.336 Y199.826 E28.25038
G1 X219.336 Y200.368 E28.27758
G1 X197.346 Y178.378 E29.83829
G1 X196.804 Y178.378 E29.86549
G1 X219.336 Y200.91 E31.46465
G1 X219.336 Y201.17 E31.47769
G1 X219.195 Y201.311 E31.4877
G1 X196.262 Y178.378 E33.11532
G1 X195.72 Y178.378 E33.14252
G1 X218.924 Y201.582 E34.78937
G1 X218.836 Y201.67 E34.79561
G1 X218.836 Y202.036 E34.81398
G1 X195.178 Y178.378 E36.49306
G1 X194.637 Y178.378 E36.52025
G1 X218.836 Y202.578 E38.23779
G1 X218.836 Y203.12 E38.26499
G1 X194.095 Y178.378 E40.02099
G1 X193.553 Y178.378 E40.04819
G1 X218.836 Y203.662 E41.84265
G1 X218.836 Y204.204 E41.86985
G1 X193.011 Y178.378 E43.70277
G1 X192.469 Y178.378 E43.72997
G1 X218.836 Y204.746 E45.60136
G1 X218.836 Y205.288 E45.62856
G1 X191.927 Y178.378 E47.53841
G1 X191.385 Y178.378 E47.56561
G1 X218.836 Y205.83 E49.51393
G1 X218.836 Y206.372 E49.54113
G1 X190.843 Y178.378 E51.52791
G1 X190.301 Y178.378 E51.55511
G1 X218.836 Y206.913 E53.58035
G1 X218.836 Y207.455 E53.60755
G1 X189.759 Y178.378 E55.67126
G1 X189.217 Y178.378 E55.69845
G1 X218.836 Y207.997 E57.80062
G1 X218.836 Y208.539 E57.82782
G1 X188.675 Y178.378 E59.96846
G1 X188.133 Y178.378 E59.99566
G1 X218.836 Y209.081 E62.17475
G1 X218.836 Y209.623 E62.20195
G1 X187.591 Y178.378 E64.41951
G1 X187.049 Y178.378 E64.44671
G1 X218.836 Y210.165 E66.70274
G1 X218.836 Y210.707 E66.72993
G1 X186.735 Y178.606 E69.00826
G1 X186.735 Y179.148 E69.03546
G1 X218.836 Y211.249 E71.31379
G1 X218.836 Y211.791 E71.34099
G1 X186.735 Y179.69 E73.61932
G1 X186.735 Y180.232 E73.64652
G1 X218.836 Y212.333 E75.92485
G1 X218.836 Y212.875 E75.95205
G1 X186.735 Y180.774 E78.23037
G1 X186.735 Y181.164 E78.24996
G1 X186.583 Y181.164 E78.25757
G1 X218.684 Y213.265 E80.53589
G1 X218.142 Y213.265 E80.56309
G1 X186.041 Y181.164 E82.84141
G1 X185.499 Y181.164 E82.86861
G1 X217.6 Y213.265 E85.14693
G1 X217.058 Y213.265 E85.17413
G1 X184.958 Y181.164 E87.45245
G1 X184.416 Y181.164 E87.47965
G1 X216.516 Y213.265 E89.75797
G1 X216.051 Y213.265 E89.78135
G1 X216.051 Y213.341 E89.78517
G1 X183.949 Y181.24 E92.0635
G1 X183.949 Y181.782 E92.09069
G1 X216.051 Y213.883 E94.36902
G1 X216.051 Y214.425 E94.39622
G1 X183.949 Y182.324 E96.67455
G1 X183.949 Y182.866 E96.70175
G1 X216.051 Y214.967 E98.98008
G1 X216.051 Y215.509 E99.00728
G1 X183.949 Y183.407 E101.2856
G1 X183.949 Y183.449 E101.28771
G1 X183.45 Y183.449 E101.3128
G1 X216.05 Y216.051 E103.62661
G1 X215.509 Y216.051 E103.65381
G1 X182.908 Y183.449 E105.96762
G1 X182.366 Y183.449 E105.99481
G1 X214.967 Y216.051 E108.30862
G1 X214.425 Y216.051 E108.33582
G1 X181.97 Y183.596 E110.63924
G1 X181.699 Y183.867 E110.65847
G1 X213.883 Y216.051 E112.94266
G1 X213.341 Y216.051 E112.96986
G1 X181.428 Y184.138 E115.23482
G1 X181.157 Y184.409 E115.25405
G1 X213.265 Y216.517 E117.53286
G1 X213.265 Y217.059 E117.56006
G1 X180.886 Y184.68 E119.8581
G1 X180.664 Y184.902 E119.87387
G1 X180.664 Y184.999 E119.87876
G1 X213.265 Y217.6 E122.19257
G1 X213.265 Y218.142 E122.21977
G1 X180.664 Y185.541 E124.53359
G1 X180.664 Y186.083 E124.56079
G1 X213.265 Y218.684 E126.8746
G1 X213.265 Y218.836 E126.88222
G1 X212.875 Y218.836 E126.9018
G1 X180.664 Y186.625 E129.18793
G1 X180.664 Y187.167 E129.21512
G1 X212.333 Y218.836 E131.46278
G1 X211.791 Y218.836 E131.48998
G1 X180.664 Y187.709 E133.69918
G1 X180.664 Y188.251 E133.72638
G1 X211.249 Y218.836 E135.89711
G1 X210.707 Y218.836 E135.92431
G1 X180.664 Y188.793 E138.05658
G1 X180.664 Y189.335 E138.08378
G1 X210.479 Y219.15 E140.19989
G1 X210.479 Y219.692 E140.22709
G1 X180.664 Y189.877 E142.3432
G1 X180.664 Y190.419 E142.3704
G1 X210.479 Y220.234 E144.48651
G1 X210.479 Y220.776 E144.5137
G1 X180.664 Y190.961 E146.62982
G1 X180.664 Y191.503 E146.65701
G1 X210.479 Y221.318 E148.77312
G1 X210.479 Y221.622 E148.78836
G1 X210.241 Y221.622 E148.80032
G1 X180.664 Y192.045 E150.89952
G1 X180.664 Y192.587 E150.92671
G1 X209.699 Y221.622 E152.98745
G1 X209.157 Y221.622 E153.01464
G1 X180.664 Y193.128 E155.03691
G1 X180.664 Y193.67 E155.06411
G1 X208.615 Y221.622 E157.04791
G1 X208.073 Y221.622 E157.07511
G1 X180.664 Y194.212 E159.02045
G1 X180.664 Y194.754 E159.04765
G1 X207.531 Y221.622 E160.95453
G1 X206.989 Y221.622 E160.98173
G1 X180.664 Y195.296 E162.85014
G1 X180.664 Y195.838 E162.87734
G1 X206.447 Y221.622 E164.70729
G1 X205.905 Y221.622 E164.73449
G1 X180.664 Y196.38 E166.52597
G1 X180.664 Y196.922 E166.55317
G1 X205.363 Y221.622 E168.30619
G1 X204.822 Y221.622 E168.33339
G1 X180.664 Y197.464 E170.04795
G1 X180.664 Y198.006 E170.07515
G1 X204.28 Y221.622 E171.75125
G1 X203.738 Y221.622 E171.77844
G1 X180.664 Y198.548 E173.41608
G1 X180.664 Y199.09 E173.44327
G1 X203.196 Y221.622 E175.04244
G1 X202.654 Y221.622 E175.06964
G1 X180.664 Y199.632 E176.63035
G1 X180.664 Y200.174 E176.65755
G1 X202.112 Y221.622 E178.17979
G1 X201.57 Y221.622 E178.20699
G1 X180.664 Y200.716 E179.69076
G1 X180.664 Y201.17 E179.71356
G1 X181.164 Y201.67 E179.74905
G1 X181.164 Y201.758 E179.75345
G1 X201.028 Y221.622 E181.16328
G1 X200.486 Y221.622 E181.19048
G1 X181.164 Y202.3 E182.56184
G1 X181.164 Y202.841 E182.58904
G1 X199.944 Y221.622 E183.92194
G1 X199.402 Y221.622 E183.94914
G1 X181.164 Y203.383 E185.24358
G1 X181.164 Y203.925 E185.27077
G1 X198.86 Y221.622 E186.52675
G1 X198.318 Y221.622 E186.55395
G1 X181.164 Y204.467 E187.77146
G1 X181.164 Y205.009 E187.79866
G1 X197.776 Y221.622 E188.9777
G1 X197.234 Y221.622 E189.0049
G1 X181.164 Y205.551 E190.14549
G1 X181.164 Y206.093 E190.17268
G1 X196.692 Y221.622 E191.2748
G1 X196.151 Y221.622 E191.302
G1 X181.164 Y206.635 E192.36566
G1 X181.164 Y207.177 E192.39286
G1 X195.609 Y221.622 E193.41805
G1 X195.067 Y221.622 E193.44525
G1 X181.164 Y207.719 E194.43198
G1 X181.164 Y208.261 E194.45918
G1 X183.382 Y210.479 E194.61662
G1 X182.84 Y210.479 E194.64382
G1 X181.164 Y208.803 E194.7628
G1 X181.164 Y209.345 E194.79
G1 X182.298 Y210.479 E194.87052
G1 X181.756 Y210.479 E194.89772
G1 X181.164 Y209.887 E194.93978
G1 X181.164 Y210.429 E194.96697
G1 X181.37 Y210.634 E194.98158
G1 E192.98158 F2400
G92 E0
G1 Z3.35 F7800
G1 X194.68 Y221.777
G1 Z.35
G1 E2 F2400
G1 F1800
G1 X183.949 Y211.047 E2.76158
G1 X183.949 Y211.588 E2.78877
G1 X193.983 Y221.622 E3.50087
G1 X193.441 Y221.622 E3.52807
G1 X183.949 Y212.13 E4.2017
G1 X183.949 Y212.672 E4.2289
G1 X192.899 Y221.622 E4.86407
G1 X192.357 Y221.622 E4.89127
G1 X183.949 Y213.214 E5.48798
G1 X183.949 Y213.756 E5.51517
G1 X186.244 Y216.051 E5.67801
G1 X185.702 Y216.051 E5.70521
G1 X183.949 Y214.298 E5.82958
G1 X183.949 Y214.84 E5.85677
G1 X185.16 Y216.051 E5.94268
G1 X184.618 Y216.051 E5.96988
G1 X183.949 Y215.382 E6.01732
G1 X183.949 Y215.924 E6.04452
G1 X184.231 Y216.206 E6.06451
G1 E4.06451 F2400
G92 E0
G1 Z3.35 F7800
G1 X191.97 Y221.777
G1 Z.35
G1 E2 F2400
G1 F1800
G1 X189.521 Y219.327 E2.17385
G1 X189.521 Y219.869 E2.20104
G1 X191.273 Y221.622 E2.32541
G1 X190.731 Y221.622 E2.35261
G1 X189.521 Y220.411 E2.43852
G1 X189.521 Y220.953 E2.46571
G1 X190.189 Y221.622 E2.51316
G1 X189.647 Y221.622 E2.54035
G1 X189.366 Y221.34 E2.56035
G1 E.56035 F2400
G92 E0
G1 Z3.35 F7800
G1 X189.185 Y218.991
G1 Z.35
G1 E2 F2400
G1 F1800
G1 X186.735 Y216.542 E2.17385
G1 X186.735 Y217.084 E2.20105
G1 X188.487 Y218.836 E2.32541
G1 X187.945 Y218.836 E2.35261
G1 X186.735 Y217.626 E2.43852
G1 X186.735 Y218.168 E2.46572
G1 X187.404 Y218.836 E2.51316
G1 X186.862 Y218.836 E2.54036
G1 X186.58 Y218.554 E2.56035
;LAYER_CHANGE
;Z:0.55
;HEIGHT:0.2
G1 Z.55 F7800
G1 E.56035 F2400
G92 E0
G1 Z3.55 F7800
G1 X191.812 Y216.714
G1 Z.55
G1 E2 F2400
;WIDTH:0.35
G1 F3600
G1 X208.059 Y216.714 E2.41484
G1 X208.059 Y216.416 E2.42244
G1 X210.845 Y216.416 E2.49357
G1 X210.845 Y213.928 E2.55709
G1 X189.155 Y213.928 E3.1109
G1 X189.155 Y213.63 E3.11851
G1 X186.37 Y213.63 E3.18963
G1 X186.37 Y211.142 E3.25316
G1 X213.63 Y211.142 E3.94922
G1 X213.63 Y210.845 E3.95683
G1 X216.416 Y210.845 E4.02795
G1 X216.416 Y208.357 E4.09148
G1 X186.37 Y208.357 E4.85867
G1 X186.37 Y208.059 E4.86627
G1 X183.584 Y208.059 E4.9374
G1 X183.584 Y205.571 E5.00092
G1 X216.416 Y205.571 E5.83924
G1 X216.416 Y202.786 E5.91037
G1 X183.584 Y202.786 E6.74869
G1 X183.584 Y200.583 E6.80492
G1 X189.441 Y200.583 E6.95447
G1 X189.441 Y200 E6.96936
G1 X210.559 Y200 E7.50859
G1 X210.559 Y197.214 E7.57971
G1 X189.441 Y197.214 E8.11894
G1 X189.441 Y194.429 E8.19006
G1 X210.559 Y194.429 E8.72929
G1 X210.559 Y191.643 E8.80041
G1 X189.441 Y191.643 E9.33964
G1 X189.441 Y188.858 E9.41076
G1 X210.559 Y188.858 E9.94999
G1 X210.559 Y186.072 E10.02112
G1 X189.441 Y186.072 E10.56034
G1 X189.441 Y185.488 E10.57524
G1 X186.37 Y185.488 E10.65366
G1 X186.37 Y183.584 E10.70228
G1 X189.155 Y183.584 E10.77341
G1 X189.155 Y183.286 E10.78101
G1 X210.973 Y183.286 E11.33811
G1 X211.11 Y183.272 F7800
G1 F3600
G1 X211.11 Y180.533 E11.40806
G1 X188.89 Y180.533 E11.97543
G1 X188.89 Y183.318 E12.04656
G1 X186.104 Y183.318 E12.11769
G1 X186.104 Y185.754 E12.17988
G1 X189.175 Y185.754 E12.2583
G1 X189.175 Y200.318 E12.63017
G1 X183.318 Y200.318 E12.77971
G1 X183.318 Y208.325 E12.98416
G1 X186.104 Y208.325 E13.05529
G1 X186.104 Y213.896 E13.19754
G1 X188.89 Y213.896 E13.26867
G1 X188.89 Y216.682 E13.3398
G1 X191.675 Y216.682 E13.41092
G1 X191.675 Y219.467 E13.48205
G1 X208.325 Y219.467 E13.90717
G1 X208.325 Y216.682 E13.9783
G1 X211.11 Y216.682 E14.04943
G1 X211.11 Y213.896 E14.12055
G1 X213.896 Y213.896 E14.19168
G1 X213.896 Y211.11 E14.26281
G1 X216.682 Y211.11 E14.33394
G1 X216.682 Y200.318 E14.60951
G1 X210.825 Y200.318 E14.75906
G1 X210.825 Y185.754 E15.13092
G1 X213.896 Y185.754 E15.20934
G1 X213.896 Y183.318 E15.27153
G1 X211.11 Y183.318 E15.34266
G1 E13.34266 F2400
G92 E0
G1 Z3.55 F7800
G1 X211.282 Y188.7
G1 Z.55
G1 E2 F2400
;TYPE:Support material interface
G1 F3600
G1 X211.282 Y186.072 E2.06712
G1 X211.568 Y186.072 E2.07441
G1 X211.568 Y188.572 E2.13824
G1 X211.853 Y188.572 E2.14554
G1 X211.853 Y186.072 E2.20937
G1 X212.139 Y186.072 E2.21667
G1 X212.139 Y188.572 E2.2805
G1 X212.424 Y188.572 E2.28779
G1 X212.424 Y186.072 E2.35163
G1 X212.71 Y186.072 E2.35892
G1 X212.71 Y188.572 E2.42276
G1 X212.996 Y188.572 E2.43005
G1 X212.996 Y186.072 E2.49388
G1 X213.281 Y186.072 E2.50118
G1 X213.281 Y188.572 E2.56501
G1 X213.567 Y188.572 E2.57231
G1 X213.567 Y186.072 E2.63614
G1 X213.852 Y186.072 E2.64343
G1 X213.852 Y188.7 E2.71055
;LAYER_CHANGE
;Z:0.65
;HEIGHT:0.1
G1 Z.65 F7800
G1 E.71055 F2400
G92 E0
G1 Z3.65 F7800
G1 X211.282 Y200.129
G1 Z.65
G1 E2 F2400
;HEIGHT:0.3
G1 F3600
G1 X211.282 Y188.858 E2.40152
G1 X211.568 Y188.858 E2.41169
G1 X211.568 Y200 E2.80864
G1 X211.853 Y200 E2.81881
G1 X211.853 Y188.858 E3.21575
G1 X212.139 Y188.858 E3.22593
G1 X212.139 Y200 E3.62287
G1 X212.424 Y200 E3.63304
G1 X212.424 Y188.858 E4.02998
G1 X212.71 Y188.858 E4.04016
G1 X212.71 Y200 E4.4371
G1 X212.996 Y200 E4.44727
G1 X212.996 Y188.858 E4.84422
G1 X213.281 Y188.858 E4.85439
G1 X213.281 Y200 E5.25133
G1 X213.567 Y200 E5.26151
G1 X213.567 Y188.858 E5.65845
G1 X213.852 Y188.858 E5.66862
