; generated by PrusaSlicer 2.5.0 on 2022-10-18 at 19:04:16 UTC

; 

; external perimeters extrusion width = 0.45mm
; perimeters extrusion width = 0.45mm
; infill extrusion width = 0.45mm
; solid infill extrusion width = 0.45mm
; top infill extrusion width = 0.40mm
; support material extrusion width = 0.35mm
; first layer extrusion width = 0.42mm

M107
M190 S60 ; set bed temperature and wait for it to be reached
M104 S215 ; set temperature
;TYPE:Custom
G28 ; home all axes
G1 Z5 F5000 ; lift nozzle
M109 S215 ; set temperature and wait for it to be reached
G21 ; set units to millimeters
G90 ; use absolute coordinates
M82 ; use absolute distances for extrusion
G92 E0
; Filament gcode
M107
;LAYER_CHANGE
;Z:0.35
;HEIGHT:0.35
G1 Z.35 F7800
G1 E-2 F2400
G92 E0
G1 Z3.35 F7800
G1 X183.559 Y184.53
G1 Z.35
G1 E2 F2400
;TYPE:Skirt/Brim
;WIDTH:0.42
G1 F1800
G1 X184.945 Y183.179 E2.0971
G1 X186.694 Y181.764 E2.21004
G1 X188.576 Y180.53 E2.32298
G1 X190.571 Y179.489 E2.43593
G1 X192.661 Y178.652 E2.54887
G1 X194.823 Y178.027 E2.66181
G1 X197.036 Y177.621 E2.77476
G1 X198.783 Y177.462 E2.86277
G1 X200.721 Y177.437 E2.96006
G1 X202.65 Y177.582 E3.05714
G1 X204.869 Y177.957 E3.17007
G1 X207.846 Y178.8 E3.32539
G1 X208.745 Y179.155 E3.37388
G1 X211.15 Y180.371 E3.50912
G1 X213.049 Y181.579 E3.62207
G1 X214.818 Y182.97 E3.73501
G1 X216.545 Y184.562 E3.85289
G1 X217.379 Y185.507 E3.91616
G1 X219.04 Y187.817 E4.05893
G1 X219.535 Y188.628 E4.10662
G1 X220.407 Y190.348 E4.20339
G1 X221.267 Y192.428 E4.31633
G1 X222.006 Y194.842 E4.44305
G1 X222.345 Y196.792 E4.54237
G1 X222.554 Y199.033 E4.65533
G1 X222.538 Y201.283 E4.76826
G1 X222.298 Y203.521 E4.88121
G1 X221.837 Y205.724 E4.99415
G1 X221.158 Y207.869 E5.1071
G1 X219.906 Y210.762 E5.2653
G1 X219.276 Y211.854 E5.32856
G1 X217.376 Y214.497 E5.49193
G1 X216.541 Y215.442 E5.55519
G1 X214.418 Y217.412 E5.70057
G1 X213.649 Y218.022 E5.74982
G1 X211.15 Y219.629 E5.89891
G1 X208.326 Y221.042 E6.05736
G1 X207.142 Y221.472 E6.12063
G1 X204.312 Y222.193 E6.26715
G1 X202.639 Y222.489 E6.35246
G1 X201.628 Y222.57 E6.40337
G1 X198.372 Y222.57 E6.56674
G1 X197.118 Y222.445 E6.63001
G1 X193.734 Y221.687 E6.80403
G1 X191.606 Y220.956 E6.91698
G1 X188.745 Y219.632 E7.07517
G1 X187.669 Y218.974 E7.13843
G1 X185.182 Y217.03 E7.29688
G1 X184.125 Y216.05 E7.36924
G1 X182.809 Y214.631 E7.46632
G1 X181.438 Y212.847 E7.57926
G1 X180.251 Y210.935 E7.69221
G1 X179.26 Y208.914 E7.80515
G1 X178.634 Y207.276 E7.89317
G1 X178.085 Y205.417 E7.99045
G1 X177.655 Y203.208 E8.10339
G1 X177.446 Y200.967 E8.21634
G1 X177.462 Y198.717 E8.32927
G1 X177.702 Y196.479 E8.44222
G1 X178.163 Y194.276 E8.55517
G1 X178.841 Y192.131 E8.6681
G1 X179.73 Y190.063 E8.78105
G1 X180.82 Y188.094 E8.89399
G1 X182.101 Y186.244 E9.00694
G1 X183.521 Y184.576 E9.11685
G1 E7.11685 F2400
G92 E0
G1 Z3.35 F7800
G1 X200.716 Y183.79
G1 Z.35
G1 E2 F2400
;TYPE:Support material
G1 F1800
G1 X201.213 Y183.814 E2.02495
G1 X202.018 Y183.895 E2.06556
G1 X202.818 Y184.016 E2.10618
G1 X203.612 Y184.176 E2.14679
G1 X204.396 Y184.376 E2.18741
G1 X205.976 Y184.863 E2.27036
G1 X206.209 Y185.009 E2.28419
G1 X206.676 Y185.205 E2.30959
G1 X207.405 Y185.556 E2.3502
G1 X208.115 Y185.943 E2.39082
G1 X208.806 Y186.365 E2.43143
G1 X209.475 Y186.821 E2.47205
G1 X210.12 Y187.31 E2.51266
G1 X210.74 Y187.83 E2.55328
G1 X211.333 Y188.381 E2.5939
G1 X211.885 Y188.947 E2.6336
G1 X212.228 Y189.211 E2.6553
G1 X213.888 Y191.52 E2.79801
G1 X213.98 Y191.762 E2.811
G1 X214.254 Y192.237 E2.83855
G1 X214.624 Y192.958 E2.87916
G1 X214.957 Y193.695 E2.91978
G1 X215.252 Y194.449 E2.96039
G1 X215.762 Y195.966 E3.04071
G1 X216.05 Y197.581 E3.12304
G1 X216.15 Y198.384 E3.16366
G1 X216.211 Y199.191 E3.20428
G1 X216.231 Y200 E3.24489
G1 X216.211 Y200.809 E3.28551
G1 X216.15 Y201.616 E3.32612
G1 X216.05 Y202.419 E3.36674
G1 X215.909 Y203.216 E3.40736
G1 X215.729 Y204.005 E3.44797
G1 X215.51 Y204.784 E3.48859
G1 X215.252 Y205.551 E3.5292
G1 X214.957 Y206.305 E3.56982
G1 X214.123 Y208.152 E3.67153
G1 X213.84 Y208.479 E3.69324
G1 X213.411 Y209.143 E3.73292
G1 X212.938 Y209.8 E3.77354
G1 X212.445 Y210.419 E3.81324
G1 X212.225 Y210.791 E3.83494
G1 X210.103 Y212.761 E3.98024
G1 X209.846 Y212.897 E3.99483
G1 X209.475 Y213.179 E4.01822
G1 X208.806 Y213.634 E4.05884
G1 X208.116 Y214.056 E4.09945
G1 X207.405 Y214.444 E4.14007
G1 X206.676 Y214.795 E4.18069
G1 X205.947 Y215.102 E4.22039
G1 X205.576 Y215.324 E4.24209
G1 X202.748 Y216.044 E4.38853
G1 X202.497 Y216.049 E4.40111
G1 X201.625 Y216.226 E4.44576
G1 X201.194 Y216.186 E4.46747
G1 X200.405 Y216.226 E4.50715
G1 X199.595 Y216.226 E4.54776
G1 X198.805 Y216.187 E4.58746
G1 X198.375 Y216.226 E4.60917
G1 X196.388 Y215.824 E4.71087
G1 X195.604 Y215.624 E4.75149
G1 X194.831 Y215.386 E4.7921
G1 X194.07 Y215.109 E4.83271
G1 X193.324 Y214.795 E4.87333
G1 X191.499 Y213.915 E4.97504
G1 X191.179 Y213.624 E4.99676
G1 X190.525 Y213.179 E5.03644
G1 X189.88 Y212.69 E5.07705
G1 X189.26 Y212.17 E5.11766
G1 X188.449 Y211.396 E5.17394
G1 X188.102 Y211.04 E5.19888
G1 X187.566 Y210.433 E5.2395
G1 X187.062 Y209.8 E5.28011
G1 X186.589 Y209.143 E5.32073
G1 X185.994 Y208.193 E5.377
G1 X185.746 Y207.763 E5.40195
G1 X185.376 Y207.042 E5.44256
G1 X185.043 Y206.305 E5.48318
G1 X184.748 Y205.551 E5.52379
G1 X184.49 Y204.784 E5.56441
G1 X184.271 Y204.005 E5.60502
G1 X184.091 Y203.216 E5.64564
G1 X183.95 Y202.419 E5.68625
G1 X183.85 Y201.616 E5.72687
G1 X183.789 Y200.809 E5.76749
G1 X183.769 Y200 E5.8081
G1 X183.789 Y199.191 E5.84872
G1 X183.85 Y198.384 E5.88933
G1 X183.95 Y197.581 E5.92995
G1 X184.091 Y196.784 E5.97057
G1 X184.271 Y195.995 E6.01118
G1 X184.49 Y195.216 E6.0518
G1 X184.748 Y194.449 E6.09241
G1 X185.043 Y193.695 E6.13303
G1 X185.376 Y192.958 E6.17364
G1 X185.745 Y192.238 E6.21426
G1 X186.15 Y191.537 E6.25487
G1 X186.589 Y190.857 E6.29549
G1 X187.062 Y190.2 E6.33611
G1 X187.566 Y189.567 E6.37672
G1 X188.102 Y188.96 E6.41733
G1 X188.667 Y188.381 E6.45795
G1 X189.26 Y187.83 E6.49857
G1 X189.88 Y187.31 E6.53919
G1 X190.525 Y186.821 E6.5798
G1 X191.194 Y186.365 E6.62042
G1 X191.884 Y185.944 E6.66103
G1 X192.595 Y185.556 E6.70164
G1 X193.324 Y185.205 E6.74226
G1 X194.07 Y184.891 E6.78288
G1 X194.831 Y184.614 E6.82349
G1 X195.604 Y184.376 E6.86411
G1 X196.388 Y184.176 E6.90472
G1 X197.181 Y184.016 E6.94534
G1 X197.982 Y183.895 E6.98595
G1 X198.787 Y183.814 E7.02657
G1 X199.595 Y183.774 E7.06718
G1 X200.665 Y183.787 E7.12086
G1 E5.12086 F2400
G92 E0
G1 Z3.35 F7800
G1 X213.586 Y191.366
G1 Z.35
G1 E2 F2400
G1 F1800
G1 X209.292 Y187.073 E2.30473
G1 X208.638 Y186.626 E2.34448
G1 X207.806 Y186.128 E2.39312
G1 X213.87 Y192.192 E2.82351
G1 X214.439 Y193.304 E2.88616
G1 X206.695 Y185.559 E3.43582
G1 X206.066 Y185.285 E3.47024
G1 X205.845 Y185.148 E3.48328
G1 X205.695 Y185.101 E3.49118
G1 X214.839 Y194.245 E4.14016
G1 X215.139 Y195.088 E4.18505
G1 X204.911 Y184.859 E4.91099
G1 X204.141 Y184.631 E4.95131
G1 X215.414 Y195.904 E5.75138
G1 X215.46 Y196.043 E5.75876
G1 X215.559 Y196.591 E5.7867
G1 X203.422 Y184.454 E6.64809
G1 X202.744 Y184.318 E6.68279
G1 X215.676 Y197.25 E7.60062
G1 X215.776 Y197.892 E7.63321
G1 X202.106 Y184.222 E8.6034
G1 X201.497 Y184.155 E8.63417
G1 X215.848 Y198.506 E9.65274
G1 X215.892 Y199.092 E9.68223
G1 X200.91 Y184.11 E10.74555
G1 X200.343 Y184.084 E10.77407
G1 X215.912 Y199.654 E11.87907
G1 X215.916 Y200.199 E11.90646
G1 X199.801 Y184.084 E13.05019
G1 X199.275 Y184.101 E13.07658
G1 X215.902 Y200.728 E14.25668
G1 X215.868 Y201.235 E14.28219
G1 X198.761 Y184.129 E15.49629
G1 X198.269 Y184.178 E15.52114
G1 X215.823 Y201.733 E16.76704
G1 X215.763 Y202.214 E16.79139
G1 X197.787 Y184.238 E18.06721
G1 X197.316 Y184.309 E18.09111
G1 X215.688 Y202.682 E19.39507
G1 X215.607 Y203.142 E19.41855
G1 X196.862 Y184.397 E20.74899
G1 X196.413 Y184.49 E20.77199
G1 X215.507 Y203.584 E22.12717
G1 X215.402 Y204.021 E22.14974
G1 X195.981 Y184.6 E23.52814
G1 X195.555 Y184.716 E23.55031
G1 X215.283 Y204.444 E24.95052
G1 X215.157 Y204.86 E24.97232
G1 X195.14 Y184.843 E26.39298
G1 X194.734 Y184.979 E26.41446
G1 X215.021 Y205.266 E27.85425
G1 X214.875 Y205.662 E27.87545
G1 X194.337 Y185.124 E29.33311
G1 X193.95 Y185.279 E29.35405
G1 X214.722 Y206.051 E30.82837
G1 X214.559 Y206.43 E30.84907
G1 X193.568 Y185.439 E32.33887
G1 X193.198 Y185.611 E32.35936
G1 X214.391 Y206.804 E33.8635
G1 X214.222 Y207.177 E33.88406
G1 X192.832 Y185.787 E35.4022
G1 X192.477 Y185.974 E35.42233
G1 X214.054 Y207.551 E36.95368
G1 X213.885 Y207.924 E36.97424
G1 X192.127 Y186.165 E38.51854
G1 X191.787 Y186.367 E38.53839
G1 X213.647 Y208.227 E40.08989
G1 X213.426 Y208.548 E40.10945
G1 X191.45 Y186.573 E41.66912
G1 X191.362 Y186.626 E41.67429
G1 X191.124 Y186.789 E41.68875
G1 X213.213 Y208.877 E43.25647
G1 X212.99 Y209.197 E43.276
G1 X190.802 Y187.008 E44.85077
G1 X190.49 Y187.238 E44.87023
G1 X212.763 Y209.512 E46.45109
G1 X212.527 Y209.818 E46.47048
G1 X190.181 Y187.471 E48.05648
G1 X189.882 Y187.714 E48.07582
G1 X212.287 Y210.119 E49.666
G1 X212.189 Y210.242 E49.6739
G1 X212.07 Y210.444 E49.68566
G1 X189.587 Y187.961 E51.28134
G1 X189.3 Y188.216 E51.30061
G1 X211.824 Y210.74 E52.8992
G1 X211.543 Y211.001 E52.91844
G1 X189.019 Y188.477 E54.51703
G1 X188.745 Y188.745 E54.53627
G1 X211.262 Y211.262 E56.13436
G1 X210.981 Y211.523 E56.15361
G1 X188.478 Y189.019 E57.75074
G1 X188.216 Y189.3 E57.76999
G1 X210.7 Y211.784 E59.36574
G1 X210.419 Y212.044 E59.38498
G1 X187.962 Y189.588 E60.97881
G1 X187.713 Y189.881 E60.99811
G1 X210.137 Y212.305 E62.58965
G1 X209.921 Y212.506 E62.60443
G1 X209.839 Y212.549 E62.60909
G1 X187.473 Y190.182 E64.19655
G1 X187.237 Y190.488 E64.21594
G1 X209.51 Y212.762 E65.79681
G1 X209.198 Y212.992 E65.81626
G1 X187.01 Y190.803 E67.39104
G1 X186.787 Y191.123 E67.41057
G1 X208.876 Y213.211 E68.97828
G1 X208.55 Y213.427 E68.99791
G1 X186.574 Y191.452 E70.55758
G1 X186.365 Y191.785 E70.57731
G1 X208.213 Y213.633 E72.12795
G1 X207.873 Y213.835 E72.1478
G1 X186.167 Y192.128 E73.68839
G1 X185.972 Y192.476 E73.70837
G1 X207.523 Y214.026 E75.23788
G1 X207.168 Y214.213 E75.25801
G1 X185.789 Y192.834 E76.77537
G1 X185.609 Y193.196 E76.79567
G1 X206.802 Y214.389 E78.29981
G1 X206.432 Y214.561 E78.3203
G1 X185.441 Y193.57 E79.8101
G1 X185.278 Y193.949 E79.8308
G1 X206.05 Y214.721 E81.30512
G1 X205.806 Y214.824 E81.31842
G1 X205.684 Y214.897 E81.32555
G1 X185.125 Y194.338 E82.78473
G1 X184.979 Y194.734 E82.80593
G1 X205.315 Y215.07 E84.24923
G1 X204.883 Y215.18 E84.2716
G1 X184.843 Y195.14 E85.69391
G1 X184.717 Y195.556 E85.71572
G1 X204.451 Y215.29 E87.11633
G1 X204.019 Y215.4 E87.1387
G1 X184.598 Y195.979 E88.5171
G1 X184.493 Y196.416 E88.53967
G1 X203.587 Y215.51 E89.89485
G1 X203.155 Y215.62 E89.91722
G1 X184.393 Y196.858 E91.24885
G1 X184.312 Y197.318 E91.27233
G1 X202.723 Y215.73 E92.57906
G1 X202.463 Y215.74 E92.59214
G1 X202.237 Y215.785 E92.60372
G1 X184.237 Y197.786 E93.8812
G1 X184.177 Y198.267 E93.90556
G1 X201.786 Y215.876 E95.15533
G1 X201.608 Y215.912 E95.16443
G1 X201.247 Y215.88 E95.18262
G1 X184.132 Y198.765 E96.39732
G1 X184.098 Y199.272 E96.42284
G1 X200.725 Y215.899 E97.60294
G1 X200.199 Y215.916 E97.62933
G1 X184.084 Y199.801 E98.77306
G1 X184.088 Y200.346 E98.80044
G1 X199.657 Y215.916 E99.90545
G1 X199.09 Y215.89 E99.93396
G1 X184.108 Y200.908 E100.99729
G1 X184.152 Y201.494 E101.02677
G1 X198.555 Y215.898 E102.04906
G1 X198.392 Y215.912 E102.0573
G1 X197.936 Y215.82 E102.08063
G1 X184.224 Y202.108 E103.05382
G1 X184.324 Y202.75 E103.08641
G1 X197.257 Y215.683 E104.00432
G1 X196.578 Y215.546 E104.0391
G1 X184.457 Y203.425 E104.89937
G1 X184.632 Y204.142 E104.9364
G1 X195.859 Y215.369 E105.73326
G1 X195.089 Y215.141 E105.77359
G1 X184.861 Y204.912 E106.49952
G1 X185.161 Y205.755 E106.54442
G1 X194.251 Y214.844 E107.18954
G1 X193.305 Y214.441 E107.24112
G1 X185.561 Y206.696 E107.79078
G1 X186.13 Y207.808 E107.85343
G1 X192.26 Y213.937 E108.28849
G1 X191.674 Y213.655 E108.32111
G1 X191.371 Y213.38 E108.34165
G1 X190.708 Y212.927 E108.38195
G1 X186.501 Y208.721 E108.68052
;LAYER_CHANGE
;Z:0.55
;HEIGHT:0.2
G1 Z.55 F7800
G1 E106.68052 F2400
G92 E0
G1 Z3.55 F7800
G1 X192.158 Y188.858
G1 Z.55
G1 E2 F2400
;WIDTH:0.35
G1 F3122
G1 X192.673 Y188.858 E2.01315
G1 X192.211 Y189.173 E2.02742
G1 X191.681 Y189.574 E2.0444
G1 X191.172 Y190.002 E2.06138
G1 X190.684 Y190.454 E2.07836
G1 X190.22 Y190.931 E2.09535
G1 X189.61 Y191.643 E2.1193
G1 X189.403 Y191.643 E2.12457
G1 X188.846 Y192.395 E2.14848
G1 X188.481 Y192.961 E2.16566
G1 X188.144 Y193.544 E2.18285
G1 X187.708 Y194.429 E2.20804
G1 X187.885 Y194.429 E2.21256
G1 X187.708 Y194.823 E2.22359
G1 X187.465 Y195.442 E2.24057
G1 X187.254 Y196.072 E2.25756
G1 X187.074 Y196.712 E2.27453
G1 X186.959 Y197.214 E2.28768
G1 X186.793 Y197.214 E2.29191
G1 X186.651 Y197.988 E2.312
G1 X186.568 Y198.656 E2.32919
G1 X186.517 Y199.327 E2.34637
G1 X186.5 Y200 E2.36356
G1 X186.662 Y200 E2.36769
G1 X186.679 Y200.669 E2.38477
G1 X186.729 Y201.332 E2.40174
G1 X186.812 Y201.992 E2.41873
G1 X186.959 Y202.786 E2.43935
G1 X186.793 Y202.786 E2.44358
G1 X186.918 Y203.331 E2.45787
G1 X187.1 Y203.979 E2.47505
G1 X187.315 Y204.617 E2.49224
G1 X187.708 Y205.571 E2.51859
G1 X187.886 Y205.571 E2.52312
G1 X188.288 Y206.382 E2.54624
G1 X188.621 Y206.958 E2.56322
G1 X188.982 Y207.517 E2.5802
G1 X189.61 Y208.357 E2.60698
G1 X189.403 Y208.357 E2.61226
G1 X189.659 Y208.677 E2.62273
G1 X190.104 Y209.182 E2.63991
G1 X190.574 Y209.664 E2.6571
G1 X191.068 Y210.122 E2.67429
G1 X191.583 Y210.554 E2.69148
G1 X192.12 Y210.961 E2.70866
G1 X192.386 Y211.142 E2.7169
G1 X192.673 Y211.142 E2.72422
G1 X193.334 Y211.553 E2.74409
G1 X193.918 Y211.871 E2.76107
G1 X194.518 Y212.159 E2.77805
G1 X195.13 Y212.417 E2.79503
G1 X195.756 Y212.645 E2.81202
G1 X196.391 Y212.84 E2.829
G1 X197.036 Y213.004 E2.84598
G1 X198.339 Y213.268 E2.87993
G1 X198.379 Y213.238 E2.8812
G1 X199.007 Y213.301 E2.89731
G1 X199.671 Y213.334 E2.9143
G1 X200.336 Y213.334 E2.93128
G1 X201 Y213.3 E2.94826
G1 X201.996 Y213.2 E2.97382
G1 X202.972 Y213.003 E2.99922
G1 X203.616 Y212.838 E3.0162
G1 X204.441 Y212.573 E3.03833
G1 X204.876 Y212.415 E3.05016
G1 X205.489 Y212.156 E3.06714
G1 X206.088 Y211.867 E3.08412
G1 X206.672 Y211.549 E3.1011
G1 X207.327 Y211.142 E3.12079
G1 X207.614 Y211.142 E3.12811
G1 X207.88 Y210.961 E3.13635
G1 X208.293 Y210.648 E3.14958
G1 X208.506 Y210.517 E3.15596
G1 X210.076 Y209.061 E3.21064
G1 X210.244 Y208.799 E3.21858
G1 X210.597 Y208.357 E3.23302
G1 X210.39 Y208.357 E3.23829
G1 X211.022 Y207.511 E3.26526
G1 X211.383 Y206.952 E3.28224
G1 X211.695 Y206.412 E3.29817
G1 X211.742 Y206.396 E3.29944
G1 X212.115 Y205.571 E3.32255
G1 X212.292 Y205.571 E3.32708
G1 X212.685 Y204.617 E3.35343
G1 X212.9 Y203.979 E3.37062
G1 X213.082 Y203.331 E3.38781
G1 X213.207 Y202.786 E3.40209
G1 X213.041 Y202.786 E3.40632
G1 X213.222 Y201.991 E3.42713
G1 X213.194 Y201.95 E3.4284
G1 X213.272 Y201.324 E3.44451
G1 X213.322 Y200.661 E3.46149
G1 X213.338 Y200 E3.47838
G1 X213.5 Y200 E3.48251
G1 X213.483 Y199.327 E3.49969
G1 X213.432 Y198.656 E3.51688
G1 X213.349 Y197.988 E3.53407
G1 X213.212 Y197.214 E3.55413
G1 X213.041 Y197.214 E3.55849
G1 X212.925 Y196.705 E3.57183
G1 X212.744 Y196.065 E3.58881
G1 X212.415 Y195.136 E3.61398
G1 X212.424 Y195.114 E3.61458
G1 X212.114 Y194.429 E3.63378
G1 X212.292 Y194.429 E3.63831
G1 X211.856 Y193.544 E3.6635
G1 X211.555 Y193.024 E3.67883
G1 X211.463 Y192.826 E3.68441
G1 X210.613 Y191.643 E3.7216
G1 X210.39 Y191.643 E3.72729
G1 X209.775 Y190.925 E3.75143
G1 X209.31 Y190.449 E3.76841
G1 X208.827 Y190.001 E3.78525
G1 X208.313 Y189.57 E3.80238
G1 X207.783 Y189.168 E3.81936
G1 X207.327 Y188.858 E3.83345
G1 X207.842 Y188.858 E3.8466
G1 X200.594 Y186.251 F7800
G1 F3122
G1 X201.029 Y186.273 E3.85772
G1 X201.712 Y186.342 E3.87525
G1 X202.39 Y186.444 E3.89277
G1 X203.063 Y186.58 E3.9103
G1 X203.728 Y186.749 E3.92782
G1 X204.943 Y187.124 E3.96028
G1 X205.152 Y187.238 E3.96635
G1 X205.662 Y187.453 E3.98048
G1 X206.28 Y187.751 E3.99801
G1 X206.883 Y188.079 E4.01553
G1 X207.468 Y188.437 E4.03306
G1 X208.035 Y188.823 E4.05058
G1 X208.582 Y189.238 E4.06811
G1 X209.108 Y189.679 E4.08563
