; generated by PrusaSlicer 2.5.0 on 2022-11-12 at 03:16:10 UTC

; 

; external perimeters extrusion width = 0.45mm
; perimeters extrusion width = 0.45mm
; infill extrusion width = 0.45mm
; solid infill extrusion width = 0.45mm
; top infill extrusion width = 0.40mm
; support material extrusion width = 0.35mm
; first layer extrusion width = 0.42mm

M107
M190 S60 ; set bed temperature and wait for it to be reached
M104 S215 ; set temperature
;TYPE:Custom
G28 ; home all axes
G1 Z5 F5000 ; lift nozzle
M109 S215 ; set temperature and wait for it to be reached
G21 ; set units to millimeters
G90 ; use absolute coordinates
M82 ; use absolute distances for extrusion
G92 E0
; Filament gcode
M107
;LAYER_CHANGE
;Z:0.35
;HEIGHT:0.35
G1 Z.35 F7800
G1 E-2 F2400
G92 E0
G1 Z3.35 F7800
G1 X173.899 Y173.899
G1 Z.35
G1 E2 F2400
;TYPE:Skirt/Brim
;WIDTH:0.42
G1 F1800
G1 X177.501 Y170.296 E2.2557
G1 X179.15 Y169.107 E2.35771
G1 X184.722 Y166.322 E2.67031
G1 X187.559 Y165.652 E2.81663
G1 X212.441 Y165.652 E4.06535
G1 X215.278 Y166.322 E4.21167
G1 X220.85 Y169.107 E4.52427
G1 X222.499 Y170.296 E4.62628
G1 X226.919 Y174.716 E4.93998
G1 X228.2 Y176.558 E5.0526
G1 X228.777 Y179.202 E5.18843
G1 X228.777 Y220.798 E7.27594
G1 X228.38 Y223.007 E7.38856
G1 X226.919 Y225.284 E7.52438
G1 X222.499 Y229.704 E7.83808
G1 X220.85 Y230.893 E7.9401
G1 X215.278 Y233.678 E8.25269
G1 X212.441 Y234.348 E8.39901
G1 X187.559 Y234.348 E9.64773
G1 X184.722 Y233.678 E9.79405
G1 X179.15 Y230.893 E10.10665
G1 X177.501 Y229.704 E10.20866
G1 X173.081 Y225.284 E10.52236
G1 X171.8 Y223.442 E10.63498
G1 X171.223 Y220.798 E10.77081
G1 X171.223 Y179.202 E12.85832
G1 X171.62 Y176.993 E12.97094
G1 X173.081 Y174.716 E13.10676
G1 X173.856 Y173.941 E13.16175
G1 E11.16175 F2400
G92 E0
G1 Z3.35 F7800
G1 X214.075 Y173.631
G1 Z.35
G1 E2 F2400
;TYPE:Support material
G1 F1800
G1 X214.075 Y174.782 E2.05778
G1 X218.012 Y174.782 E2.25535
G1 X219.647 Y176.417 E2.37135
G1 X219.647 Y177.568 E2.42913
G1 X220.798 Y177.568 E2.48691
G1 X222.432 Y179.202 E2.6029
G1 X222.432 Y192.942 E3.29243
G1 X220.798 Y194.576 E3.40842
G1 X219.647 Y194.576 E3.4662
G1 X219.647 Y205.424 E4.01062
G1 X220.798 Y205.424 E4.0684
G1 X222.432 Y207.058 E4.18439
G1 X222.432 Y220.798 E4.87392
G1 X220.798 Y222.432 E4.98991
G1 X219.647 Y222.432 E5.04769
G1 X219.647 Y223.583 E5.10547
G1 X218.012 Y225.218 E5.22146
G1 X214.075 Y225.218 E5.41904
G1 X214.075 Y226.369 E5.47682
G1 X212.441 Y228.003 E5.59281
G1 X187.559 Y228.003 E6.84153
G1 X185.925 Y226.369 E6.95753
G1 X185.925 Y225.218 E7.01531
G1 X181.988 Y225.218 E7.21288
G1 X180.353 Y223.583 E7.32888
G1 X180.353 Y222.432 E7.38666
G1 X179.202 Y222.432 E7.44444
G1 X177.568 Y220.798 E7.56043
G1 X177.568 Y207.058 E8.24996
G1 X179.202 Y205.424 E8.36595
G1 X180.353 Y205.424 E8.42373
G1 X180.353 Y194.576 E8.96815
G1 X179.202 Y194.576 E9.02593
G1 X177.568 Y192.942 E9.14192
G1 X177.568 Y179.202 E9.83145
G1 X179.202 Y177.568 E9.94744
G1 X180.353 Y177.568 E10.00522
G1 X180.353 Y176.417 E10.063
G1 X181.988 Y174.782 E10.17899
G1 X185.925 Y174.782 E10.37657
G1 X185.925 Y173.631 E10.43435
G1 X187.559 Y171.997 E10.55034
G1 X212.441 Y171.997 E11.79906
G1 X214.039 Y173.594 E11.91246
G1 E9.91246 F2400
G92 E0
G1 Z3.35 F7800
G1 X197.362 Y197.362
G1 Z.35
G1 E2 F2400
G1 F1800
G1 X197.362 Y202.638 E2.26482
G1 X202.638 Y202.638 E2.52965
G1 X202.638 Y197.362 E2.79447
G1 X197.413 Y197.362 E3.0567
G1 E1.0567 F2400
G92 E0
G1 Z3.35 F7800
G1 X212.634 Y172.409
G1 Z.35
G1 E2 F2400
G1 F1800
G1 X187.586 Y172.409 E3.25706
G1 X187.203 Y172.792 E3.28425
G1 X212.797 Y172.792 E4.56876
G1 X213.181 Y173.175 E4.59595
G1 X186.819 Y173.175 E5.91892
G1 X186.436 Y173.559 E5.94612
G1 X213.564 Y173.559 E7.30755
G1 X213.765 Y173.76 E7.32182
G1 X213.765 Y173.942 E7.33096
G1 X186.235 Y173.942 E8.71257
G1 X186.235 Y174.325 E8.7318
G1 X213.765 Y174.325 E10.11341
G1 X213.765 Y174.708 E10.13264
G1 X186.235 Y174.708 E11.51425
G1 X186.235 Y175.091 E11.53348
G1 X217.884 Y175.093 E13.12179
G1 X218.266 Y175.475 E13.14889
G1 X181.734 Y175.475 E14.98224
G1 X181.351 Y175.858 E15.00944
G1 X218.649 Y175.858 E16.88125
G1 X219.032 Y176.241 E16.90845
G1 X180.968 Y176.241 E18.81872
G1 X180.664 Y176.545 E18.84031
G1 X180.664 Y176.624 E18.84427
G1 X219.336 Y176.624 E20.78508
G1 X219.336 Y177.007 E20.80431
G1 X180.664 Y177.007 E22.74511
G1 X180.664 Y177.391 E22.76434
G1 X219.336 Y177.391 E24.70515
G1 X219.336 Y177.774 E24.72438
G1 X180.664 Y177.774 E26.66518
G1 X180.664 Y177.878 E26.67042
G1 X179.331 Y177.878 E26.73732
G1 X179.052 Y178.157 E26.75711
G1 X220.948 Y178.157 E28.8597
G1 X221.331 Y178.54 E28.8869
G1 X178.669 Y178.54 E31.02795
G1 X178.286 Y178.923 E31.05515
G1 X221.714 Y178.923 E33.23467
G1 X222.098 Y179.307 E33.26186
G1 X177.902 Y179.307 E35.47984
G1 X177.878 Y179.331 E35.48156
G1 X177.878 Y179.69 E35.49958
G1 X222.122 Y179.69 E37.71998
G1 X222.122 Y180.073 E37.73921
G1 X177.878 Y180.073 E39.95961
G1 X177.878 Y180.456 E39.97884
G1 X222.122 Y180.456 E42.19924
G1 X222.122 Y180.84 E42.21847
G1 X177.878 Y180.839 E44.43888
G1 X177.878 Y181.223 E44.45811
G1 X222.122 Y181.223 E46.67851
G1 X222.122 Y181.606 E46.69774
G1 X177.878 Y181.606 E48.91814
G1 X177.878 Y181.989 E48.93737
G1 X222.122 Y181.989 E51.15777
G1 X222.122 Y182.372 E51.177
G1 X177.878 Y182.372 E53.3974
G1 X177.878 Y182.756 E53.41664
G1 X222.122 Y182.756 E55.63704
G1 X222.122 Y183.139 E55.65627
G1 X177.878 Y183.139 E57.87667
G1 X177.878 Y183.522 E57.8959
G1 X222.122 Y183.522 E60.1163
G1 X222.122 Y183.905 E60.13553
G1 X177.878 Y183.905 E62.35593
G1 X177.878 Y184.288 E62.37517
G1 X222.122 Y184.288 E64.59557
G1 X222.122 Y184.672 E64.6148
G1 X177.878 Y184.672 E66.8352
G1 X177.878 Y185.055 E66.85443
G1 X222.122 Y185.055 E69.07483
G1 X222.122 Y185.438 E69.09406
G1 X177.878 Y185.438 E71.31446
G1 X177.878 Y185.821 E71.33369
G1 X222.122 Y185.821 E73.55409
G1 X222.122 Y186.204 E73.57333
G1 X177.878 Y186.204 E75.79373
G1 X177.878 Y186.588 E75.81296
G1 X222.122 Y186.588 E78.03336
G1 X222.122 Y186.971 E78.05259
G1 X177.878 Y186.971 E80.27299
G1 X177.878 Y187.354 E80.29222
G1 X222.122 Y187.354 E82.51262
G1 X222.122 Y187.737 E82.53186
G1 X177.878 Y187.737 E84.75226
G1 X177.878 Y188.12 E84.77149
G1 X222.122 Y188.12 E86.99189
G1 X222.122 Y188.504 E87.01112
G1 X177.878 Y188.504 E89.23152
G1 X177.878 Y188.887 E89.25075
G1 X222.122 Y188.887 E91.47115
G1 X222.122 Y189.27 E91.49038
G1 X177.878 Y189.27 E93.71079
G1 X177.878 Y189.653 E93.73002
G1 X222.122 Y189.653 E95.95042
G1 X222.122 Y190.037 E95.96965
G1 X177.878 Y190.037 E98.19005
G1 X177.878 Y190.42 E98.20928
G1 X222.122 Y190.42 E100.42968
G1 X222.122 Y190.803 E100.44891
G1 X177.878 Y190.803 E102.66931
G1 X177.878 Y191.186 E102.68855
G1 X222.122 Y191.186 E104.90895
G1 X222.122 Y191.569 E104.92818
G1 X177.878 Y191.569 E107.14858
G1 X177.878 Y191.953 E107.16781
G1 X222.122 Y191.953 E109.38821
G1 X222.122 Y192.336 E109.40744
G1 X177.878 Y192.336 E111.62784
G1 X177.878 Y192.719 E111.64708
G1 X222.122 Y192.719 E113.86748
G1 X222.122 Y192.813 E113.8722
G1 X221.833 Y193.102 E113.89272
G1 X178.167 Y193.102 E116.08409
G1 X178.551 Y193.485 E116.11129
G1 X221.449 Y193.485 E118.2642
G1 X221.066 Y193.869 E118.2914
G1 X178.934 Y193.869 E120.40585
G1 X179.317 Y194.252 E120.43305
G1 X220.683 Y194.252 E122.50903
G1 X220.669 Y194.266 E122.51001
G1 X219.336 Y194.266 E122.57691
G1 X219.336 Y194.635 E122.59545
G1 X180.664 Y194.635 E124.53626
G1 X180.664 Y195.018 E124.55549
G1 X219.336 Y195.018 E126.49629
G1 X219.336 Y195.401 E126.51552
G1 X180.664 Y195.401 E128.45633
G1 X180.664 Y195.785 E128.47556
G1 X219.336 Y195.785 E130.41636
G1 X219.336 Y196.168 E130.43559
G1 X180.664 Y196.168 E132.37639
G1 X180.664 Y196.551 E132.39563
G1 X219.336 Y196.551 E134.33643
G1 X219.336 Y196.934 E134.35566
G1 X180.664 Y196.934 E136.29646
G1 X180.664 Y197.318 E136.3157
G1 X197.051 Y197.318 E137.13811
G1 X197.051 Y197.701 E137.15734
G1 X180.664 Y197.701 E137.97975
G1 X180.664 Y198.084 E137.99898
G1 X197.051 Y198.084 E138.8214
G1 X197.051 Y198.467 E138.84063
G1 X180.664 Y198.467 E139.66304
G1 X180.664 Y198.85 E139.68227
G1 X197.051 Y198.85 E140.50468
G1 X197.051 Y199.234 E140.52391
G1 X180.664 Y199.234 E141.34633
G1 X180.664 Y199.617 E141.36556
G1 X197.051 Y199.617 E142.18797
G1 X197.051 Y200 E142.2072
G1 X180.664 Y200 E143.02961
G1 X180.664 Y200.383 E143.04885
G1 X197.051 Y200.383 E143.87126
G1 X197.051 Y200.766 E143.89049
G1 X180.664 Y200.766 E144.7129
G1 X180.664 Y201.15 E144.73213
G1 X197.051 Y201.15 E145.55454
G1 X197.051 Y201.533 E145.57378
G1 X180.664 Y201.533 E146.39619
G1 X180.664 Y201.916 E146.41542
G1 X197.051 Y201.916 E147.23783
G1 X197.051 Y202.299 E147.25706
G1 X180.664 Y202.299 E148.07948
G1 X180.664 Y202.682 E148.09871
G1 X197.051 Y202.682 E148.92112
G1 X197.051 Y202.949 E148.93449
G1 X202.949 Y202.949 E149.23047
G1 X202.949 Y202.682 E149.24383
G1 X219.336 Y202.682 E150.06625
G1 X219.336 Y202.299 E150.08548
G1 X202.949 Y202.299 E150.90789
G1 X202.949 Y201.916 E150.92712
G1 X219.336 Y201.916 E151.74953
G1 X219.336 Y201.533 E151.76876
G1 X202.949 Y201.533 E152.59118
G1 X202.949 Y201.15 E152.61041
G1 X219.336 Y201.15 E153.43282
G1 X219.336 Y200.766 E153.45205
G1 X202.949 Y200.766 E154.27446
G1 X202.949 Y200.383 E154.2937
G1 X219.336 Y200.383 E155.11611
G1 X219.336 Y200 E155.13534
G1 X202.949 Y200 E155.95775
G1 X202.949 Y199.617 E155.97698
G1 X219.336 Y199.617 E156.7994
G1 X219.336 Y199.234 E156.81863
G1 X202.949 Y199.234 E157.64104
G1 X202.949 Y198.85 E157.66027
G1 X219.336 Y198.85 E158.48268
G1 X219.336 Y198.467 E158.50191
G1 X202.949 Y198.467 E159.32433
G1 X202.949 Y198.084 E159.34356
G1 X219.336 Y198.084 E160.16597
G1 X219.336 Y197.701 E160.1852
G1 X202.949 Y197.701 E161.00761
G1 X202.949 Y197.318 E161.02685
G1 X219.491 Y197.318 E161.85705
G1 E159.85705 F2400
G92 E0
G1 Z3.35 F7800
G1 X219.491 Y203.066
G1 Z.35
G1 E2 F2400
G1 F1800
G1 X180.664 Y203.066 E3.94859
G1 X180.664 Y203.449 E3.96782
G1 X219.336 Y203.449 E5.90863
G1 X219.336 Y203.832 E5.92786
G1 X180.664 Y203.832 E7.86866
G1 X180.664 Y204.215 E7.88789
G1 X219.336 Y204.215 E9.8287
G1 X219.336 Y204.599 E9.84793
G1 X180.664 Y204.599 E11.78873
G1 X180.664 Y204.982 E11.80796
G1 X219.336 Y204.982 E13.74876
G1 X219.336 Y205.365 E13.768
G1 X180.664 Y205.365 E15.7088
G1 X180.664 Y205.734 E15.72734
G1 X179.331 Y205.734 E15.79425
G1 X179.317 Y205.748 E15.79522
G1 X220.683 Y205.748 E17.8712
G1 X221.066 Y206.131 E17.8984
G1 X178.934 Y206.131 E20.01285
G1 X178.551 Y206.515 E20.04005
G1 X221.449 Y206.515 E22.19296
G1 X221.833 Y206.898 E22.22016
G1 X178.167 Y206.898 E24.41153
G1 X177.878 Y207.187 E24.43205
G1 X177.878 Y207.281 E24.43677
G1 X222.122 Y207.281 E26.65717
G1 X222.122 Y207.664 E26.67641
G1 X177.878 Y207.664 E28.89681
G1 X177.878 Y208.047 E28.91604
G1 X222.122 Y208.047 E31.13644
G1 X222.122 Y208.431 E31.15567
G1 X177.878 Y208.431 E33.37607
G1 X177.878 Y208.814 E33.3953
G1 X222.122 Y208.814 E35.6157
G1 X222.122 Y209.197 E35.63494
G1 X177.878 Y209.197 E37.85534
G1 X177.878 Y209.58 E37.87457
G1 X222.122 Y209.58 E40.09497
G1 X222.122 Y209.963 E40.1142
G1 X177.878 Y209.963 E42.3346
G1 X177.878 Y210.347 E42.35383
G1 X222.122 Y210.347 E44.57423
G1 X222.122 Y210.73 E44.59346
G1 X177.878 Y210.73 E46.81386
G1 X177.878 Y211.113 E46.8331
G1 X222.122 Y211.113 E49.0535
G1 X222.122 Y211.496 E49.07273
G1 X177.878 Y211.496 E51.29313
G1 X177.878 Y211.88 E51.31236
G1 X222.122 Y211.88 E53.53276
G1 X222.122 Y212.263 E53.55199
G1 X177.878 Y212.263 E55.77239
G1 X177.878 Y212.646 E55.79163
G1 X222.122 Y212.646 E58.01203
G1 X222.122 Y213.029 E58.03126
G1 X177.878 Y213.029 E60.25166
G1 X177.878 Y213.412 E60.27089
G1 X222.122 Y213.412 E62.49129
G1 X222.122 Y213.796 E62.51052
G1 X177.878 Y213.796 E64.73092
G1 X177.878 Y214.179 E64.75015
G1 X222.122 Y214.179 E66.97056
G1 X222.122 Y214.562 E66.98979
G1 X177.878 Y214.562 E69.21019
G1 X177.878 Y214.945 E69.22942
G1 X222.122 Y214.945 E71.44982
G1 X222.122 Y215.328 E71.46905
G1 X177.878 Y215.328 E73.68945
G1 X177.878 Y215.712 E73.70868
G1 X222.122 Y215.712 E75.92908
G1 X222.122 Y216.095 E75.94832
G1 X177.878 Y216.095 E78.16872
G1 X177.878 Y216.478 E78.18795
G1 X222.122 Y216.478 E80.40835
G1 X222.122 Y216.861 E80.42758
G1 X177.878 Y216.861 E82.64798
G1 X177.878 Y217.244 E82.66721
G1 X222.122 Y217.244 E84.88761
G1 X222.122 Y217.628 E84.90685
G1 X177.878 Y217.628 E87.12725
G1 X177.878 Y218.011 E87.14648
G1 X222.122 Y218.011 E89.36688
G1 X222.122 Y218.394 E89.38611
G1 X177.878 Y218.394 E91.60651
G1 X177.878 Y218.777 E91.62574
G1 X222.122 Y218.777 E93.84614
G1 X222.122 Y219.161 E93.86537
G1 X177.878 Y219.16 E96.08578
G1 X177.878 Y219.544 E96.10501
G1 X222.122 Y219.544 E98.32541
G1 X222.122 Y219.927 E98.34464
G1 X177.878 Y219.927 E100.56504
G1 X177.878 Y220.31 E100.58427
G1 X222.122 Y220.31 E102.80467
G1 X222.122 Y220.669 E102.82269
G1 X222.098 Y220.693 E102.8244
G1 X177.902 Y220.693 E105.04239
G1 X178.286 Y221.077 E105.06958
G1 X221.714 Y221.077 E107.2491
G1 X221.331 Y221.46 E107.2763
G1 X178.669 Y221.46 E109.41735
G1 X179.052 Y221.843 E109.44455
G1 X220.948 Y221.843 E111.54714
G1 X220.669 Y222.122 E111.56693
G1 X219.336 Y222.122 E111.63383
G1 X219.336 Y222.226 E111.63907
G1 X180.664 Y222.226 E113.57988
G1 X180.664 Y222.609 E113.59911
G1 X219.336 Y222.609 E115.53991
G1 X219.336 Y222.993 E115.55914
G1 X180.664 Y222.993 E117.49995
G1 X180.664 Y223.376 E117.51918
G1 X219.336 Y223.376 E119.45998
G1 X219.336 Y223.455 E119.46395
G1 X219.032 Y223.759 E119.48553
G1 X180.968 Y223.759 E121.39581
G1 X181.351 Y224.142 E121.42301
G1 X218.649 Y224.142 E123.29482
G1 X218.266 Y224.525 E123.32201
G1 X181.734 Y224.525 E125.15536
G1 X182.116 Y224.907 E125.18247
G1 X213.765 Y224.909 E126.77078
G1 X213.765 Y225.292 E126.79001
G1 X186.235 Y225.292 E128.17162
G1 X186.235 Y225.675 E128.19085
G1 X213.765 Y225.675 E129.57246
G1 X213.765 Y226.058 E129.59169
G1 X186.235 Y226.058 E130.97329
G1 X186.235 Y226.24 E130.98244
G1 X186.436 Y226.441 E130.9967
G1 X213.564 Y226.441 E132.35814
G1 X213.181 Y226.825 E132.38533
G1 X186.819 Y226.825 E133.7083
G1 X187.203 Y227.208 E133.7355
G1 X212.797 Y227.208 E135.02
G1 X212.414 Y227.591 E135.0472
G1 X187.366 Y227.591 E136.30426
;LAYER_CHANGE
;Z:0.65
;HEIGHT:0.3
G1 Z.65 F7800
G1 E134.30426 F2400
G92 E0
G1 Z3.65 F7800
G1 X194.145 Y225.199
G1 Z.65
G1 E2 F2400
;TYPE:Support material interface
;WIDTH:0.35
G1 F3600
G1 X194.145 Y174.929 E3.79081
G1 X193.859 Y174.929 E3.80098
G1 X193.859 Y225.071 E5.58722
G1 X193.574 Y225.071 E5.59739
G1 X193.574 Y174.929 E7.38362
G1 X193.288 Y174.929 E7.3938
G1 X193.288 Y225.071 E9.18003
G1 X193.002 Y225.071 E9.1902
G1 X193.002 Y174.929 E10.97643
G1 X192.717 Y174.929 E10.98661
G1 X192.717 Y225.071 E12.77284
G1 X192.431 Y225.071 E12.78301
G1 X192.431 Y174.929 E14.56924
G1 X192.145 Y174.929 E14.57942
G1 X192.145 Y225.071 E16.36565
G1 X191.86 Y225.071 E16.37583
G1 X191.86 Y174.929 E18.16206
G1 X191.574 Y174.929 E18.17223
G1 X191.574 Y225.071 E19.95846
G1 X191.289 Y225.071 E19.96864
G1 X191.289 Y174.929 E21.75487
G1 X191.003 Y174.929 E21.76504
G1 X191.003 Y225.071 E23.55127
G1 X190.717 Y225.071 E23.56145
G1 X190.717 Y174.929 E25.34768
G1 X190.432 Y174.929 E25.35785
G1 X190.432 Y225.071 E27.14409
G1 X190.146 Y225.071 E27.15426
G1 X190.146 Y174.929 E28.94049
G1 X189.86 Y174.929 E28.95067
G1 X189.86 Y225.071 E30.7369
G1 X189.575 Y225.071 E30.74707
G1 X189.575 Y174.929 E32.5333
G1 X189.289 Y174.929 E32.54348
G1 X189.289 Y225.071 E34.32971
G1 X189.004 Y225.071 E34.33988
G1 X189.004 Y174.929 E36.12611
G1 X188.858 Y174.929 E36.13132
G1 X188.858 Y177.715 E36.23055
G1 X188.718 Y177.715 E36.23552
G1 X188.718 Y222.285 E37.82329
G1 X188.432 Y222.285 E37.83346
G1 X188.432 Y177.715 E39.42122
G1 X188.147 Y177.715 E39.4314
G1 X188.147 Y222.285 E41.01916
G1 X187.861 Y222.285 E41.02933
G1 X187.861 Y177.715 E42.61709
G1 X187.576 Y177.715 E42.62727
G1 X187.576 Y222.285 E44.21503
G1 X187.29 Y222.285 E44.2252
G1 X187.29 Y177.715 E45.81296
G1 X187.004 Y177.715 E45.82314
G1 X187.004 Y222.285 E47.4109
G1 X186.719 Y222.285 E47.42107
G1 X186.719 Y177.715 E49.00884
G1 X186.433 Y177.715 E49.01901
G1 X186.433 Y222.285 E50.60677
G1 X186.147 Y222.285 E50.61695
G1 X186.147 Y177.715 E52.20471
