; generated by PrusaSlicer 2.5.0 on 2022-11-10 at 23:17:48 UTC

; 

; external perimeters extrusion width = 0.45mm
; perimeters extrusion width = 0.45mm
; infill extrusion width = 0.45mm
; solid infill extrusion width = 0.45mm
; top infill extrusion width = 0.40mm
; support material extrusion width = 0.35mm
; first layer extrusion width = 0.42mm

M107
M190 S60 ; set bed temperature and wait for it to be reached
M104 S215 ; set temperature
;TYPE:Custom
G28 ; home all axes
G1 Z5 F5000 ; lift nozzle
M109 S215 ; set temperature and wait for it to be reached
G21 ; set units to millimeters
G90 ; use absolute coordinates
M82 ; use absolute distances for extrusion
G92 E0
; Filament gcode
M107
;LAYER_CHANGE
;Z:0.35
;HEIGHT:0.35
G1 Z.35 F7800
G1 E-2 F2400
G92 E0
G1 Z3.35 F7800
G1 X184.224 Y171.93
G1 Z.35
G1 E2 F2400
;TYPE:Skirt/Brim
;WIDTH:0.42
G1 F1800
G1 X185.858 Y170.296 E2.116
G1 X187.701 Y169.015 E2.22862
G1 X190.345 Y168.437 E2.36444
G1 X209.655 Y168.437 E3.33356
G1 X211.864 Y168.834 E3.44618
G1 X214.142 Y170.296 E3.582
G1 X215.776 Y171.93 E3.698
G1 X217.057 Y173.772 E3.81062
G1 X217.635 Y176.417 E3.94644
G1 X217.635 Y223.583 E6.31355
G1 X217.238 Y225.792 E6.42618
G1 X215.776 Y228.07 E6.562
G1 X214.142 Y229.704 E6.67799
G1 X212.299 Y230.985 E6.79061
G1 X209.655 Y231.563 E6.92644
G1 X190.345 Y231.563 E7.89556
G1 X188.136 Y231.166 E8.00818
G1 X185.858 Y229.704 E8.144
G1 X184.224 Y228.07 E8.26
G1 X182.943 Y226.228 E8.37262
G1 X182.365 Y223.583 E8.50844
G1 X182.365 Y176.417 E10.87555
G1 X182.762 Y174.208 E10.98817
G1 X184.191 Y171.981 E11.12098
G1 E9.12098 F2400
G92 E0
G1 Z3.35 F7800
G1 X211.29 Y176.417
G1 Z.35
G1 E2 F2400
;TYPE:Support material
G1 F1800
G1 X211.29 Y192.942 E2.82932
G1 X209.655 Y194.576 E2.94532
G1 X208.504 Y194.576 E3.0031
G1 X208.504 Y205.424 E3.54752
G1 X209.655 Y205.424 E3.6053
G1 X211.29 Y207.058 E3.72129
G1 X211.29 Y223.583 E4.55062
G1 X209.655 Y225.218 E4.66661
G1 X190.345 Y225.218 E5.63573
G1 X188.71 Y223.583 E5.75173
G1 X188.71 Y207.058 E6.58105
G1 X190.345 Y205.424 E6.69705
G1 X191.496 Y205.424 E6.75483
G1 X191.496 Y194.576 E7.29925
G1 X190.345 Y194.576 E7.35703
G1 X188.71 Y192.942 E7.47302
G1 X188.71 Y176.417 E8.30234
G1 X190.345 Y174.782 E8.41834
G1 X209.655 Y174.782 E9.38746
G1 X211.253 Y176.38 E9.50086
G1 X210.128 Y175.475 F7800
G1 F1800
G1 X190.091 Y175.475 E10.50643
G1 X189.708 Y175.858 E10.53363
G1 X210.292 Y175.858 E11.56664
G1 X210.675 Y176.241 E11.59384
G1 X189.325 Y176.241 E12.66532
G1 X189.021 Y176.545 E12.68691
G1 X189.021 Y176.624 E12.69088
G1 X210.979 Y176.624 E13.79289
G1 X210.979 Y177.007 E13.81212
G1 X189.021 Y177.007 E14.91413
G1 X189.021 Y177.391 E14.93336
G1 X210.979 Y177.391 E16.03537
G1 X210.979 Y177.774 E16.0546
G1 X189.021 Y177.774 E17.15661
G1 X189.021 Y178.157 E17.17584
G1 X210.979 Y178.157 E18.27785
G1 X210.979 Y178.54 E18.29708
G1 X189.021 Y178.54 E19.39909
G1 X189.021 Y178.923 E19.41832
G1 X210.979 Y178.923 E20.52033
G1 X210.979 Y179.307 E20.53957
G1 X189.021 Y179.307 E21.64158
G1 X189.021 Y179.69 E21.66081
G1 X210.979 Y179.69 E22.76282
G1 X210.979 Y180.073 E22.78205
G1 X189.021 Y180.073 E23.88406
G1 X189.021 Y180.456 E23.90329
G1 X210.979 Y180.456 E25.0053
G1 X210.979 Y180.84 E25.02453
G1 X189.021 Y180.84 E26.12654
G1 X189.021 Y181.223 E26.14577
G1 X210.979 Y181.223 E27.24778
G1 X210.979 Y181.606 E27.26702
G1 X189.021 Y181.606 E28.36902
G1 X189.021 Y181.989 E28.38826
G1 X210.979 Y181.989 E29.49027
G1 X210.979 Y182.372 E29.5095
G1 X189.021 Y182.372 E30.61151
G1 X189.021 Y182.756 E30.63074
G1 X210.979 Y182.756 E31.73275
G1 X210.979 Y183.139 E31.75198
G1 X189.021 Y183.139 E32.85399
G1 X189.021 Y183.522 E32.87322
G1 X210.979 Y183.522 E33.97523
G1 X210.979 Y183.905 E33.99446
G1 X189.021 Y183.905 E35.09647
G1 X189.021 Y184.288 E35.11571
G1 X210.979 Y184.288 E36.21772
G1 X210.979 Y184.672 E36.23695
G1 X189.021 Y184.672 E37.33896
G1 X189.021 Y185.055 E37.35819
G1 X210.979 Y185.055 E38.4602
G1 X210.979 Y185.438 E38.47943
G1 X189.021 Y185.438 E39.58144
G1 X189.021 Y185.821 E39.60067
G1 X210.979 Y185.821 E40.70268
G1 X210.979 Y186.204 E40.72191
G1 X189.021 Y186.204 E41.82392
G1 X189.021 Y186.588 E41.84315
G1 X210.979 Y186.588 E42.94516
G1 X210.979 Y186.971 E42.9644
G1 X189.021 Y186.971 E44.06641
G1 X189.021 Y187.354 E44.08564
G1 X210.979 Y187.354 E45.18765
G1 X210.979 Y187.737 E45.20688
G1 X189.021 Y187.737 E46.30889
G1 X189.021 Y188.12 E46.32812
G1 X210.979 Y188.12 E47.43013
G1 X210.979 Y188.504 E47.44936
G1 X189.021 Y188.504 E48.55137
G1 X189.021 Y188.887 E48.5706
G1 X210.979 Y188.887 E49.67261
G1 X210.979 Y189.27 E49.69184
G1 X189.021 Y189.27 E50.79385
G1 X189.021 Y189.653 E50.81309
G1 X210.979 Y189.653 E51.9151
G1 X210.979 Y190.037 E51.93433
G1 X189.021 Y190.037 E53.03634
G1 X189.021 Y190.42 E53.05557
G1 X210.979 Y190.42 E54.15758
G1 X210.979 Y190.803 E54.17681
G1 X189.021 Y190.803 E55.27882
G1 X189.021 Y191.186 E55.29805
G1 X210.979 Y191.186 E56.40006
G1 X210.979 Y191.569 E56.41929
G1 X189.021 Y191.569 E57.5213
G1 X189.021 Y191.953 E57.54053
G1 X210.979 Y191.953 E58.64254
G1 X210.979 Y192.336 E58.66178
G1 X189.021 Y192.336 E59.76379
G1 X189.021 Y192.719 E59.78302
G1 X210.979 Y192.719 E60.88503
G1 X210.979 Y192.813 E60.88975
G1 X210.69 Y193.102 E60.91027
G1 X189.31 Y193.102 E61.98326
G1 X189.693 Y193.485 E62.01045
G1 X210.307 Y193.485 E63.04497
G1 X209.924 Y193.869 E63.07217
G1 X190.076 Y193.869 E64.06823
G1 X190.46 Y194.252 E64.09543
G1 X209.54 Y194.252 E65.05302
G1 X209.527 Y194.266 E65.05399
G1 X208.194 Y194.266 E65.1209
G1 X208.194 Y194.635 E65.13944
G1 X191.806 Y194.635 E65.96185
G1 X191.806 Y195.018 E65.98109
G1 X208.194 Y195.018 E66.8035
G1 X208.194 Y195.401 E66.82273
G1 X191.806 Y195.401 E67.64514
G1 X191.806 Y195.785 E67.66437
G1 X208.194 Y195.785 E68.48678
G1 X208.194 Y196.168 E68.50602
G1 X191.806 Y196.168 E69.32843
G1 X191.806 Y196.551 E69.34766
G1 X208.194 Y196.551 E70.17007
G1 X208.194 Y196.934 E70.1893
G1 X191.806 Y196.934 E71.01172
G1 X191.806 Y197.318 E71.03095
G1 X208.194 Y197.318 E71.85336
G1 X208.194 Y197.701 E71.87259
G1 X191.806 Y197.701 E72.695
G1 X191.806 Y198.084 E72.71424
G1 X208.194 Y198.084 E73.53665
G1 X208.194 Y198.467 E73.55588
G1 X191.806 Y198.467 E74.37829
G1 X191.806 Y198.85 E74.39752
G1 X208.194 Y198.85 E75.21993
G1 X208.194 Y199.234 E75.23917
G1 X191.806 Y199.234 E76.06158
G1 X191.806 Y199.617 E76.08081
G1 X208.194 Y199.617 E76.90322
G1 X208.194 Y200 E76.92245
G1 X191.806 Y200 E77.74487
G1 X191.806 Y200.383 E77.7641
G1 X208.194 Y200.383 E78.58651
G1 X208.194 Y200.766 E78.60574
G1 X191.806 Y200.766 E79.42815
G1 X191.806 Y201.15 E79.44739
G1 X208.194 Y201.15 E80.2698
G1 X208.194 Y201.533 E80.28903
G1 X191.806 Y201.533 E81.11144
G1 X191.806 Y201.916 E81.13067
G1 X208.194 Y201.916 E81.95308
G1 X208.194 Y202.299 E81.97232
G1 X191.806 Y202.299 E82.79473
G1 X191.806 Y202.682 E82.81396
G1 X208.194 Y202.682 E83.63637
G1 X208.194 Y203.066 E83.6556
G1 X191.806 Y203.066 E84.47802
G1 X191.806 Y203.449 E84.49725
G1 X208.194 Y203.449 E85.31966
G1 X208.194 Y203.832 E85.33889
G1 X191.806 Y203.832 E86.1613
G1 X191.806 Y204.215 E86.18054
G1 X208.194 Y204.215 E87.00295
G1 X208.194 Y204.599 E87.02218
G1 X191.806 Y204.599 E87.84459
G1 X191.806 Y204.982 E87.86382
G1 X208.194 Y204.982 E88.68623
G1 X208.194 Y205.365 E88.70547
G1 X191.806 Y205.365 E89.52788
G1 X191.806 Y205.734 E89.54642
G1 X190.473 Y205.734 E89.61333
G1 X190.46 Y205.748 E89.6143
G1 X209.54 Y205.748 E90.57189
G1 X209.924 Y206.131 E90.59909
G1 X190.076 Y206.131 E91.59515
G1 X189.693 Y206.515 E91.62234
G1 X210.307 Y206.515 E92.65686
G1 X210.69 Y206.898 E92.68406
G1 X189.31 Y206.898 E93.75705
G1 X189.021 Y207.187 E93.77757
G1 X189.021 Y207.281 E93.78229
G1 X210.979 Y207.281 E94.8843
G1 X210.979 Y207.664 E94.90353
G1 X189.021 Y207.664 E96.00554
G1 X189.021 Y208.047 E96.02477
G1 X210.979 Y208.047 E97.12678
G1 X210.979 Y208.431 E97.14601
G1 X189.021 Y208.431 E98.24802
G1 X189.021 Y208.814 E98.26726
G1 X210.979 Y208.814 E99.36927
G1 X210.979 Y209.197 E99.3885
G1 X189.021 Y209.197 E100.49051
G1 X189.021 Y209.58 E100.50974
G1 X210.979 Y209.58 E101.61175
G1 X210.979 Y209.963 E101.63098
G1 X189.021 Y209.963 E102.73299
G1 X189.021 Y210.347 E102.75222
G1 X210.979 Y210.347 E103.85423
G1 X210.979 Y210.73 E103.87346
G1 X189.021 Y210.73 E104.97547
G1 X189.021 Y211.113 E104.9947
G1 X210.979 Y211.113 E106.09671
G1 X210.979 Y211.496 E106.11595
G1 X189.021 Y211.496 E107.21796
G1 X189.021 Y211.88 E107.23719
G1 X210.979 Y211.88 E108.3392
G1 X210.979 Y212.263 E108.35843
G1 X189.021 Y212.263 E109.46044
G1 X189.021 Y212.646 E109.47967
G1 X210.979 Y212.646 E110.58168
G1 X210.979 Y213.029 E110.60091
G1 X189.021 Y213.029 E111.70292
G1 X189.021 Y213.412 E111.72215
G1 X210.979 Y213.412 E112.82416
G1 X210.979 Y213.796 E112.84339
G1 X189.021 Y213.796 E113.9454
G1 X189.021 Y214.179 E113.96464
G1 X210.979 Y214.179 E115.06665
G1 X210.979 Y214.562 E115.08588
G1 X189.021 Y214.562 E116.18789
G1 X189.021 Y214.945 E116.20712
G1 X210.979 Y214.945 E117.30913
G1 X210.979 Y215.328 E117.32836
G1 X189.021 Y215.328 E118.43037
G1 X189.021 Y215.712 E118.4496
G1 X210.979 Y215.712 E119.55161
G1 X210.979 Y216.095 E119.57084
G1 X189.021 Y216.095 E120.67285
G1 X189.021 Y216.478 E120.69208
G1 X210.979 Y216.478 E121.79409
G1 X210.979 Y216.861 E121.81333
G1 X189.021 Y216.861 E122.91534
G1 X189.021 Y217.244 E122.93457
G1 X210.979 Y217.244 E124.03658
G1 X210.979 Y217.628 E124.05581
G1 X189.021 Y217.628 E125.15782
G1 X189.021 Y218.011 E125.17705
G1 X210.979 Y218.011 E126.27906
G1 X210.979 Y218.394 E126.29829
G1 X189.021 Y218.394 E127.4003
G1 X189.021 Y218.777 E127.41953
G1 X210.979 Y218.777 E128.52154
G1 X210.979 Y219.161 E128.54078
G1 X189.021 Y219.161 E129.64278
G1 X189.021 Y219.544 E129.66202
G1 X210.979 Y219.544 E130.76403
G1 X210.979 Y219.927 E130.78326
G1 X189.021 Y219.927 E131.88527
G1 X189.021 Y220.31 E131.9045
G1 X210.979 Y220.31 E133.00651
G1 X210.979 Y220.693 E133.02574
G1 X189.021 Y220.693 E134.12775
G1 X189.021 Y221.077 E134.14698
G1 X210.979 Y221.077 E135.24899
G1 X210.979 Y221.46 E135.26822
G1 X189.021 Y221.46 E136.37023
G1 X189.021 Y221.843 E136.38947
G1 X210.979 Y221.843 E137.49148
G1 X210.979 Y222.226 E137.51071
G1 X189.021 Y222.226 E138.61272
G1 X189.021 Y222.609 E138.63195
G1 X210.979 Y222.609 E139.73396
G1 X210.979 Y222.993 E139.75319
G1 X189.021 Y222.993 E140.8552
G1 X189.021 Y223.376 E140.87443
G1 X210.979 Y223.376 E141.97644
G1 X210.979 Y223.455 E141.98041
G1 X210.675 Y223.759 E142.002
G1 X189.325 Y223.759 E143.07348
G1 X189.708 Y224.142 E143.10067
G1 X210.292 Y224.142 E144.13369
G1 X209.909 Y224.525 E144.16089
G1 X189.872 Y224.525 E145.16646
;LAYER_CHANGE
;Z:0.65
;HEIGHT:0.3
G1 Z.65 F7800
G1 E143.16646 F2400
G92 E0
G1 Z3.65 F7800
G1 X205.57 Y222.414
G1 Z.65
G1 E2 F2400
;TYPE:Support material interface
;WIDTH:0.35
G1 F3600
G1 X205.57 Y177.715 E3.59234
G1 X205.284 Y177.715 E3.60251
G1 X205.284 Y222.285 E5.19028
G1 X204.998 Y222.285 E5.20045
G1 X204.998 Y177.715 E6.78821
G1 X204.713 Y177.715 E6.79839
G1 X204.713 Y222.285 E8.38615
G1 X204.427 Y222.285 E8.39632
G1 X204.427 Y177.715 E9.98408
G1 X204.141 Y177.715 E9.99426
G1 X204.141 Y222.285 E11.58202
G1 X203.856 Y222.285 E11.59219
G1 X203.856 Y177.715 E13.17995
G1 X203.57 Y177.715 E13.19013
G1 X203.57 Y222.285 E14.77789
G1 X203.285 Y222.285 E14.78807
G1 X203.285 Y177.715 E16.37583
G1 X202.999 Y177.715 E16.386
G1 X202.999 Y222.285 E17.97376
G1 X202.713 Y222.285 E17.98394
G1 X202.713 Y177.715 E19.5717
G1 X202.428 Y177.715 E19.58187
G1 X202.428 Y222.285 E21.16963
G1 X202.142 Y222.285 E21.17981
G1 X202.142 Y177.715 E22.76757
G1 X201.856 Y177.715 E22.77774
G1 X201.856 Y222.285 E24.36551
G1 X201.571 Y222.285 E24.37568
G1 X201.571 Y177.715 E25.96344
G1 X201.285 Y177.715 E25.97362
G1 X201.285 Y222.285 E27.56138
G1 X201 Y222.285 E27.57155
G1 X201 Y177.715 E29.15931
G1 X200.714 Y177.715 E29.16949
G1 X200.714 Y222.285 E30.75725
G1 X200.428 Y222.285 E30.76742
G1 X200.428 Y177.715 E32.35518
G1 X200.143 Y177.715 E32.36536
G1 X200.143 Y222.285 E33.95312
G1 X199.857 Y222.285 E33.9633
G1 X199.857 Y177.715 E35.55106
G1 X199.572 Y177.715 E35.56123
G1 X199.572 Y222.285 E37.14899
G1 X199.286 Y222.285 E37.15917
G1 X199.286 Y177.715 E38.74693
G1 X199 Y177.715 E38.7571
G1 X199 Y222.285 E40.34486
G1 X198.715 Y222.285 E40.35504
G1 X198.715 Y177.715 E41.9428
G1 X198.429 Y177.715 E41.95297
G1 X198.429 Y222.285 E43.54074
G1 X198.143 Y222.285 E43.55091
G1 X198.143 Y177.715 E45.13867
G1 X197.858 Y177.715 E45.14885
G1 X197.858 Y222.285 E46.73661
G1 X197.572 Y222.285 E46.74678
G1 X197.572 Y177.715 E48.33454
G1 X197.287 Y177.715 E48.34472
G1 X197.287 Y222.285 E49.93248
G1 X197.001 Y222.285 E49.94265
G1 X197.001 Y177.715 E51.53041
G1 X196.715 Y177.715 E51.54059
G1 X196.715 Y222.285 E53.12835
G1 X196.43 Y222.285 E53.13853
G1 X196.43 Y177.715 E54.72629
G1 X196.144 Y177.715 E54.73646
G1 X196.144 Y222.285 E56.32422
G1 X195.858 Y222.285 E56.3344
G1 X195.858 Y177.715 E57.92216
G1 X195.573 Y177.715 E57.93233
G1 X195.573 Y222.285 E59.52009
G1 X195.287 Y222.285 E59.53027
G1 X195.287 Y177.715 E61.11803
G1 X195.002 Y177.715 E61.1282
G1 X195.002 Y222.285 E62.71597
G1 X194.716 Y222.285 E62.72614
G1 X194.716 Y177.715 E64.3139
G1 X194.43 Y177.715 E64.32408
G1 X194.43 Y222.285 E65.91184
G1 X194.145 Y222.285 E65.92201
G1 X194.145 Y208.357 E66.41819
G1 X193.859 Y208.357 E66.42836
G1 X193.859 Y222.285 E66.92454
G1 X193.574 Y222.285 E66.93471
G1 X193.574 Y208.357 E67.43089
G1 X193.288 Y208.357 E67.44106
G1 X193.288 Y222.285 E67.93724
G1 X193.002 Y222.285 E67.94742
G1 X193.002 Y208.357 E68.44359
G1 X192.717 Y208.357 E68.45377
G1 X192.717 Y222.285 E68.94994
G1 X192.431 Y222.285 E68.96012
G1 X192.431 Y208.357 E69.45629
G1 X192.145 Y208.357 E69.46647
G1 X192.145 Y222.285 E69.96264
G1 X191.86 Y222.285 E69.97282
G1 X191.86 Y208.228 E70.47357
G1 E68.47357 F2400
G92 E0
G1 Z3.65 F7800
G1 X194.145 Y191.772
G1 Z.65
G1 E2 F2400
G1 F3600
G1 X194.145 Y177.715 E2.50075
G1 X193.859 Y177.715 E2.51093
G1 X193.859 Y191.643 E3.00711
G1 X193.574 Y191.643 E3.01728
G1 X193.574 Y177.715 E3.51346
G1 X193.288 Y177.715 E3.52363
G1 X193.288 Y191.643 E4.01981
G1 X193.002 Y191.643 E4.02998
G1 X193.002 Y177.715 E4.52616
G1 X192.717 Y177.715 E4.53633
G1 X192.717 Y191.643 E5.03251
G1 X192.431 Y191.643 E5.04268
G1 X192.431 Y177.715 E5.53886
G1 X192.145 Y177.715 E5.54904
G1 X192.145 Y191.643 E6.04521
G1 X191.86 Y191.643 E6.05539
G1 X191.86 Y177.587 E6.55614
G1 E4.55614 F2400
G92 E0
G1 Z3.65 F7800
G1 X208.14 Y177.587
G1 Z.65
G1 E2 F2400
G1 F3600
G1 X208.14 Y191.643 E2.50075
G1 X207.854 Y191.643 E2.51093
G1 X207.854 Y177.715 E3.00711
G1 X207.569 Y177.715 E3.01728
G1 X207.569 Y191.643 E3.51346
G1 X207.283 Y191.643 E3.52363
G1 X207.283 Y177.715 E4.01981
G1 X206.998 Y177.715 E4.02998
G1 X206.998 Y191.643 E4.52616
G1 X206.712 Y191.643 E4.53633
G1 X206.712 Y177.715 E5.03251
G1 X206.426 Y177.715 E5.04268
G1 X206.426 Y191.643 E5.53886
G1 X206.141 Y191.643 E5.54904
G1 X206.141 Y177.715 E6.04521
G1 X205.855 Y177.715 E6.05539
G1 X205.855 Y191.643 E6.55156
G1 X205.571 Y191.643 E6.56168
G1 X205.571 Y208.357 E7.15708
G1 X205.855 Y208.357 E7.1672
G1 X205.855 Y222.285 E7.66337
G1 X206.141 Y222.285 E7.67355
G1 X206.141 Y208.357 E8.16972
G1 X206.426 Y208.357 E8.1799
G1 X206.426 Y222.285 E8.67608
G1 X206.712 Y222.285 E8.68625
G1 X206.712 Y208.357 E9.18243
G1 X206.998 Y208.357 E9.1926
G1 X206.998 Y222.285 E9.68878
G1 X207.283 Y222.285 E9.69895
G1 X207.283 Y208.357 E10.19513
G1 X207.569 Y208.357 E10.2053
G1 X207.569 Y222.285 E10.70148
G1 X207.854 Y222.285 E10.71165
G1 X207.854 Y208.357 E11.20783
G1 X208.14 Y208.357 E11.218
G1 X208.14 Y222.414 E11.71876
;LAYER_CHANGE
;Z:1.05
;HEIGHT:0.4
G1 Z1.05 F7800
G1 E9.71876 F2400
G92 E0
G1 Z4.05 F7800
G1 X202.723 Y206.012
G1 Z1.05
G1 E2 F2400
;TYPE:Perimeter
;WIDTH:0.45
;HEIGHT:0.3
G1 F1800
G1 X203.744 Y217.399 E2.54985
G1 X203.777 Y218.123 E2.58473
G1 X203.677 Y218.444 E2.60089
G1 X203.45 Y218.75 E2.61922
G1 X203.154 Y218.922 E2.63566
G1 X202.731 Y219.004 E2.65639
G1 X197.731 Y219.004 E2.89688
G1 X196.97 Y218.968 E2.93351
G1 X196.686 Y218.844 E2.94844
G1 X196.411 Y218.59 E2.96642
G1 X196.267 Y218.31 E2.98159
