; generated by PrusaSlicer 2.4.2 on 2022-08-30 at 16:04:52 UTC

; 

; external perimeters extrusion width = 0.45mm
; perimeters extrusion width = 0.45mm
; infill extrusion width = 0.45mm
; solid infill extrusion width = 0.45mm
; top infill extrusion width = 0.40mm
; support material extrusion width = 0.35mm
; first layer extrusion width = 0.42mm

M107
M190 S60 ; set bed temperature and wait for it to be reached
M104 S215 ; set temperature
;TYPE:Custom
G28 ; home all axes
G1 Z5 F5000 ; lift nozzle
M109 S215 ; set temperature and wait for it to be reached
G21 ; set units to millimeters
G90 ; use absolute coordinates
M82 ; use absolute distances for extrusion
G92 E0
; Filament gcode
M107
;LAYER_CHANGE
;Z:0.35
;HEIGHT:0.35
G1 Z.35 F7800
G1 E-2 F2400
G92 E0
G1 Z3.35 F7800
G1 X181.643 Y173.898
G1 Z.35
G1 E2 F2400
;TYPE:Skirt/Brim
;WIDTH:0.42
G1 F1800
G1 X182.713 Y172.922 E2.07267
G1 X194.989 Y164.065 E2.83239
G1 X197.013 Y163.095 E2.94502
G1 X198.702 Y162.866 E3.03054
G1 X218.012 Y162.866 E3.99967
G1 X220.221 Y163.263 E4.11229
G1 X222.499 Y164.724 E4.24811
G1 X226.919 Y169.144 E4.56181
G1 X228.2 Y170.987 E4.67443
G1 X228.777 Y173.631 E4.81025
G1 X228.777 Y209.655 E6.61817
G1 X228.38 Y211.864 E6.73079
G1 X226.919 Y214.142 E6.86661
G1 X211.356 Y229.704 E7.97113
G1 X208.876 Y231.237 E8.11745
G1 X192.162 Y236.808 E9.00162
G1 X190.156 Y237.134 E9.10363
G1 X179.202 Y237.134 E9.65336
G1 X176.993 Y236.737 E9.76598
G1 X174.716 Y235.276 E9.9018
G1 X173.081 Y233.641 E10.01779
G1 X171.8 Y231.799 E10.13041
G1 X171.223 Y229.155 E10.26624
G1 X171.223 Y201.487 E11.65476
G1 X171.633 Y199.243 E11.76926
G1 X180.49 Y175.823 E13.02582
G1 X181.612 Y173.949 E13.13543
G1 E11.13543 F2400
G92 E0
G1 Z3.35 F7800
G1 X219.647 Y170.845
G1 Z.35
G1 E2 F2400
;TYPE:Support material
G1 F1800
G1 X219.647 Y171.997 E2.05778
G1 X220.798 Y171.997 E2.11556
G1 X222.432 Y173.631 E2.23155
G1 X222.432 Y209.655 E4.03947
G1 X220.798 Y211.29 E4.15546
G1 X212.735 Y211.29 E4.56008
G1 X214.075 Y212.63 E4.65519
G1 X214.075 Y218.012 E4.92531
G1 X212.441 Y219.647 E5.04131
G1 X211.29 Y219.647 E5.09909
G1 X211.29 Y220.798 E5.15687
G1 X209.655 Y222.432 E5.27286
G1 X208.504 Y222.432 E5.33064
G1 X208.504 Y223.583 E5.38842
G1 X206.87 Y225.218 E5.50441
G1 X195.916 Y225.218 E6.05414
G1 X194.282 Y223.583 E6.17013
G1 X194.282 Y222.432 E6.22791
G1 X191.79 Y222.432 E6.35294
G1 X191.79 Y229.155 E6.69031
G1 X190.156 Y230.789 E6.80631
G1 X179.202 Y230.789 E7.35603
G1 X177.568 Y229.155 E7.47203
G1 X177.568 Y201.487 E8.86055
G1 X179.202 Y199.853 E8.97654
G1 X186.425 Y199.853 E9.33901
G1 X186.425 Y178.068 E10.43231
G1 X197.067 Y178.068 E10.96641
G1 X197.067 Y170.845 E11.32888
G1 X198.702 Y169.211 E11.44488
G1 X218.012 Y169.211 E12.414
G1 X219.61 Y170.809 E12.5274
G1 E10.5274 F2400
G92 E0
G1 Z3.35 F7800
G1 X191.79 Y205.218
G1 Z.35
G1 E2 F2400
G1 F1800
G1 X191.79 Y208.21 E2.15012
G1 X194.282 Y208.21 E2.27514
G1 X194.282 Y207.058 E2.33292
G1 X196.122 Y205.218 E2.46351
G1 X191.842 Y205.218 E2.67828
G1 E.67828 F2400
G92 E0
G1 Z3.35 F7800
G1 X222.277 Y174.044
G1 Z.35
G1 E2 F2400
G1 F1800
G1 X220.54 Y172.307 E2.1233
G1 X219.998 Y172.307 E2.15049
G1 X222.122 Y174.431 E2.30124
G1 X222.122 Y174.973 E2.32843
G1 X216.67 Y169.521 E2.71535
G1 X216.128 Y169.521 E2.74254
G1 X222.122 Y175.515 E3.16792
G1 X222.122 Y176.057 E3.19512
G1 X215.586 Y169.521 E3.65896
G1 X215.044 Y169.521 E3.68616
G1 X222.122 Y176.599 E4.18846
G1 X222.122 Y177.141 E4.21566
G1 X214.503 Y169.521 E4.75642
G1 X213.961 Y169.521 E4.78362
G1 X222.122 Y177.683 E5.36285
G1 X222.122 Y178.225 E5.39005
G1 X213.419 Y169.521 E6.00774
G1 X212.877 Y169.521 E6.03494
G1 X222.122 Y178.766 E6.6911
G1 X222.122 Y179.308 E6.71829
G1 X212.335 Y169.521 E7.41291
G1 X211.793 Y169.521 E7.44011
G1 X222.122 Y179.85 E8.17319
G1 X222.122 Y180.392 E8.20039
G1 X211.251 Y169.521 E8.97194
G1 X210.709 Y169.521 E8.99914
G1 X222.122 Y180.934 E9.80915
G1 X222.122 Y181.476 E9.83635
G1 X210.167 Y169.521 E10.68482
G1 X209.625 Y169.521 E10.71202
G1 X222.122 Y182.018 E11.59896
G1 X222.122 Y182.56 E11.62615
G1 X209.083 Y169.521 E12.55155
G1 X208.541 Y169.521 E12.57875
G1 X222.122 Y183.102 E13.54262
G1 X222.122 Y183.644 E13.56981
G1 X207.999 Y169.521 E14.57214
G1 X207.457 Y169.521 E14.59934
G1 X222.122 Y184.186 E15.64013
G1 X222.122 Y184.728 E15.66733
G1 X206.915 Y169.521 E16.74659
G1 X206.373 Y169.521 E16.77378
G1 X222.122 Y185.27 E17.8915
G1 X222.122 Y185.812 E17.9187
G1 X205.831 Y169.521 E19.07488
G1 X205.29 Y169.521 E19.10208
G1 X222.122 Y186.354 E20.29672
G1 X222.122 Y186.896 E20.32392
G1 X204.748 Y169.521 E21.55703
G1 X204.206 Y169.521 E21.58423
G1 X222.122 Y187.438 E22.8558
G1 X222.122 Y187.98 E22.883
G1 X203.664 Y169.521 E24.19304
G1 X203.122 Y169.521 E24.22023
G1 X222.122 Y188.521 E25.56873
G1 X222.122 Y189.063 E25.59593
G1 X202.58 Y169.521 E26.98289
G1 X202.038 Y169.521 E27.01009
G1 X222.122 Y189.605 E28.43552
G1 X222.122 Y190.147 E28.46272
G1 X201.496 Y169.521 E29.92661
G1 X200.954 Y169.521 E29.9538
G1 X222.122 Y190.689 E31.45616
G1 X222.122 Y191.231 E31.48335
G1 X200.412 Y169.521 E33.02417
G1 X199.87 Y169.521 E33.05137
G1 X222.122 Y191.773 E34.63065
G1 X222.122 Y192.315 E34.65785
G1 X199.328 Y169.521 E36.27559
G1 X198.83 Y169.521 E36.30059
G1 X198.808 Y169.543 E36.30214
G1 X222.122 Y192.857 E37.9568
G1 X222.122 Y193.399 E37.98399
G1 X198.537 Y169.814 E39.65788
G1 X198.266 Y170.085 E39.67711
G1 X222.122 Y193.941 E41.37022
G1 X222.122 Y194.483 E41.39742
G1 X197.995 Y170.356 E43.10977
G1 X197.724 Y170.627 E43.129
G1 X222.122 Y195.025 E44.86058
G1 X222.122 Y195.567 E44.88778
G1 X197.453 Y170.898 E46.63859
G1 X197.378 Y170.974 E46.64396
G1 X197.378 Y171.364 E46.66356
G1 X222.122 Y196.109 E48.41974
G1 X222.122 Y196.651 E48.44694
G1 X197.378 Y171.906 E50.20313
G1 X197.378 Y172.448 E50.23033
G1 X222.122 Y197.193 E51.98651
G1 X222.122 Y197.734 E52.01371
G1 X197.378 Y172.99 E53.7699
G1 X197.378 Y173.532 E53.79709
G1 X222.122 Y198.276 E55.55328
G1 X222.122 Y198.818 E55.58048
G1 X197.378 Y174.074 E57.33666
G1 X197.378 Y174.616 E57.36386
G1 X222.122 Y199.36 E59.12005
G1 X222.122 Y199.902 E59.14724
G1 X197.378 Y175.158 E60.90343
G1 X197.378 Y175.7 E60.93063
G1 X222.122 Y200.444 E62.68681
G1 X222.122 Y200.986 E62.71401
G1 X197.378 Y176.242 E64.4702
G1 X197.378 Y176.784 E64.4974
G1 X222.122 Y201.528 E66.25358
G1 X222.122 Y202.07 E66.28078
G1 X197.378 Y177.326 E68.03697
G1 X197.378 Y177.868 E68.06416
G1 X222.122 Y202.612 E69.82035
G1 X222.122 Y203.154 E69.84755
G1 X197.346 Y178.378 E71.60596
G1 X196.804 Y178.378 E71.63316
G1 X222.122 Y203.696 E73.43003
G1 X222.122 Y204.238 E73.45723
G1 X196.262 Y178.378 E75.29257
G1 X195.72 Y178.378 E75.31977
G1 X222.122 Y204.78 E77.19357
G1 X222.122 Y205.322 E77.22077
G1 X195.178 Y178.378 E79.13303
G1 X194.637 Y178.378 E79.16023
G1 X222.122 Y205.864 E81.11096
G1 X222.122 Y206.406 E81.13816
G1 X194.095 Y178.378 E83.12735
G1 X193.553 Y178.378 E83.15455
G1 X222.122 Y206.947 E85.1822
G1 X222.122 Y207.489 E85.2094
G1 X193.011 Y178.378 E87.27552
G1 X192.469 Y178.378 E87.30272
G1 X222.122 Y208.031 E89.4073
G1 X222.122 Y208.573 E89.4345
G1 X191.927 Y178.378 E91.57755
G1 X191.385 Y178.378 E91.60474
G1 X222.122 Y209.115 E93.78625
G1 X222.122 Y209.527 E93.80691
G1 X222.057 Y209.592 E93.81153
G1 X190.843 Y178.378 E96.02688
G1 X190.301 Y178.378 E96.05408
G1 X221.786 Y209.863 E98.28866
G1 X221.515 Y210.134 E98.30789
G1 X189.759 Y178.378 E100.5617
G1 X189.217 Y178.378 E100.58889
G1 X221.244 Y210.405 E102.86193
G1 X220.973 Y210.676 E102.88117
G1 X188.675 Y178.378 E105.17344
G1 X188.133 Y178.378 E105.20064
G1 X220.702 Y210.947 E107.51214
G1 X220.669 Y210.979 E107.51444
G1 X220.192 Y210.979 E107.53838
G1 X187.591 Y178.378 E109.85219
G1 X187.049 Y178.378 E109.87939
G1 X219.65 Y210.979 E112.1932
G1 X219.108 Y210.979 E112.22039
G1 X186.735 Y178.606 E114.51804
G1 X186.735 Y179.148 E114.54524
G1 X218.566 Y210.979 E116.80443
G1 X218.024 Y210.979 E116.83162
G1 X186.735 Y179.69 E119.05235
G1 X186.735 Y180.232 E119.07954
G1 X217.483 Y210.979 E121.2618
G1 X216.941 Y210.979 E121.289
G1 X186.735 Y180.774 E123.43279
G1 X186.735 Y181.316 E123.45999
G1 X216.399 Y210.979 E125.56532
G1 X215.857 Y210.979 E125.59252
G1 X186.735 Y181.858 E127.65939
G1 X186.735 Y182.4 E127.68659
G1 X215.315 Y210.979 E129.71499
G1 X214.773 Y210.979 E129.74219
G1 X186.735 Y182.941 E131.73213
G1 X186.735 Y183.483 E131.75933
G1 X214.231 Y210.979 E133.7108
G1 X213.689 Y210.979 E133.738
G1 X186.735 Y184.025 E135.65101
G1 X186.735 Y184.567 E135.67821
G1 X213.147 Y210.979 E137.55276
G1 X212.605 Y210.979 E137.57996
G1 X186.735 Y185.109 E139.41605
G1 X186.735 Y185.651 E139.44325
G1 X212.063 Y210.979 E141.24087
G1 X211.986 Y210.979 E141.24474
G1 X213.765 Y212.758 E141.371
G1 X213.765 Y213.223 E141.39432
G1 X186.735 Y186.193 E143.31273
G1 X186.735 Y186.735 E143.33993
G1 X213.765 Y213.765 E145.25833
G1 X213.765 Y214.307 E145.28553
G1 X186.735 Y187.277 E147.20393
G1 X186.735 Y187.819 E147.23113
G1 X213.765 Y214.849 E149.14954
G1 X213.765 Y215.391 E149.17673
G1 X186.735 Y188.361 E151.09514
G1 X186.735 Y188.903 E151.12234
G1 X213.765 Y215.933 E153.04074
G1 X213.765 Y216.475 E153.06794
G1 X186.735 Y189.445 E154.98634
G1 X186.735 Y189.987 E155.01354
G1 X213.765 Y217.017 E156.93195
G1 X213.765 Y217.559 E156.95915
G1 X186.735 Y190.529 E158.87755
G1 X186.735 Y191.071 E158.90475
G1 X213.656 Y217.992 E160.81546
G1 X213.385 Y218.263 E160.83469
G1 X186.735 Y191.613 E162.72617
G1 X186.735 Y192.154 E162.75336
G1 X213.115 Y218.534 E164.62561
G1 X212.844 Y218.805 E164.64484
G1 X186.735 Y192.696 E166.49786
G1 X186.735 Y193.238 E166.52505
G1 X212.573 Y219.076 E168.35883
G1 X212.312 Y219.336 E168.3773
G1 X212.291 Y219.336 E168.37838
G1 X186.735 Y193.78 E170.19217
G1 X186.735 Y194.322 E170.21937
G1 X211.749 Y219.336 E171.99469
G1 X211.207 Y219.336 E172.02189
G1 X186.735 Y194.864 E173.75875
G1 X186.735 Y195.406 E173.78594
G1 X196.237 Y204.908 E174.46033
G1 X195.695 Y204.908 E174.48753
G1 X186.735 Y195.948 E175.12345
G1 X186.735 Y196.49 E175.15064
G1 X195.153 Y204.908 E175.7481
G1 X194.611 Y204.908 E175.7753
G1 X186.735 Y197.032 E176.33429
G1 X186.735 Y197.574 E176.36149
G1 X194.069 Y204.908 E176.88202
G1 X193.527 Y204.908 E176.90922
G1 X186.735 Y198.116 E177.39128
G1 X186.735 Y198.658 E177.41848
G1 X192.985 Y204.908 E177.86208
G1 X192.443 Y204.908 E177.88928
G1 X186.735 Y199.2 E178.29442
G1 X186.735 Y199.742 E178.32162
G1 X191.901 Y204.908 E178.68829
G1 X191.48 Y204.908 E178.70945
G1 X191.48 Y205.028 E178.71549
G1 X186.615 Y200.163 E179.06079
G1 X186.073 Y200.163 E179.08799
G1 X191.48 Y205.57 E179.47176
G1 X191.48 Y206.112 E179.49895
G1 X185.531 Y200.163 E179.92118
G1 X184.989 Y200.163 E179.94838
G1 X191.48 Y206.654 E180.40908
G1 X191.48 Y207.196 E180.43627
G1 X184.447 Y200.163 E180.93543
G1 X183.905 Y200.163 E180.96263
G1 X191.635 Y207.893 E181.51126
G1 E179.51126 F2400
G92 E0
G1 Z3.35 F7800
G1 X219.491 Y171.259
G1 Z.35
G1 E2 F2400
G1 F1800
G1 X217.754 Y169.521 E2.12329
G1 X217.212 Y169.521 E2.15049
G1 X219.491 Y171.801 E2.31225
G1 E.31225 F2400
G92 E0
G1 Z3.35 F7800
G1 X211.134 Y219.806
G1 Z.35
G1 E2 F2400
G1 F1800
G1 X196.554 Y205.225 E3.03484
G1 X196.283 Y205.496 E3.05407
G1 X210.979 Y220.192 E4.09712
G1 X210.979 Y220.669 E4.12105
G1 X210.947 Y220.702 E4.12336
G1 X196.012 Y205.767 E5.18334
G1 X195.741 Y206.038 E5.20257
G1 X210.676 Y220.973 E6.26254
G1 X210.405 Y221.244 E6.28178
G1 X195.47 Y206.309 E7.34175
G1 X195.199 Y206.58 E7.36098
G1 X210.134 Y221.515 E8.42096
G1 X209.863 Y221.786 E8.44019
G1 X194.928 Y206.851 E9.50017
G1 X194.657 Y207.122 E9.5194
G1 X209.592 Y222.057 E10.57937
G1 X209.527 Y222.122 E10.584
G1 X209.115 Y222.122 E10.60466
G1 X194.592 Y207.599 E11.63542
G1 X194.592 Y208.14 E11.66262
G1 X208.573 Y222.122 E12.65492
G1 X208.194 Y222.122 E12.67396
G1 X208.194 Y222.284 E12.68211
G1 X194.43 Y208.52 E13.659
G1 X193.888 Y208.52 E13.6862
G1 X208.194 Y222.826 E14.70155
G1 X208.194 Y223.368 E14.72874
G1 X193.346 Y208.52 E15.78256
G1 X192.804 Y208.52 E15.80976
G1 X207.966 Y223.682 E16.88588
G1 X207.695 Y223.953 E16.90511
G1 X192.107 Y208.365 E18.01148
G1 E16.01148 F2400
G92 E0
G1 Z3.35 F7800
G1 X207.534 Y224.334
G1 Z.35
G1 E2 F2400
G1 F1800
G1 X183.363 Y200.163 E3.71549
G1 X182.821 Y200.163 E3.74269
G1 X207.153 Y224.495 E5.46963
G1 X206.882 Y224.766 E5.48886
G1 X182.279 Y200.163 E7.23503
G1 X181.737 Y200.163 E7.26222
G1 X206.481 Y224.907 E9.0184
G1 X205.939 Y224.907 E9.0456
G1 X181.195 Y200.163 E10.80178
G1 X180.653 Y200.163 E10.82898
G1 X205.397 Y224.907 E12.58516
G1 X204.856 Y224.907 E12.61235
G1 X180.111 Y200.163 E14.36853
G1 X179.569 Y200.163 E14.39573
G1 X204.314 Y224.907 E16.15191
G1 X203.772 Y224.907 E16.17911
G1 X179.179 Y200.315 E17.92453
G1 X178.908 Y200.586 E17.94376
G1 X203.23 Y224.907 E19.66995
G1 X202.688 Y224.907 E19.69714
G1 X178.637 Y200.857 E21.4041
G1 X178.366 Y201.128 E21.42333
G1 X202.146 Y224.907 E23.11106
G1 X201.604 Y224.907 E23.13825
G1 X178.095 Y201.399 E24.80675
G1 X177.878 Y201.616 E24.82215
G1 X177.878 Y201.724 E24.82756
G1 X201.062 Y224.907 E26.473
G1 X200.52 Y224.907 E26.50019
G1 X177.878 Y202.266 E28.10716
G1 X177.878 Y202.807 E28.13436
G1 X199.978 Y224.907 E29.70287
G1 X199.436 Y224.907 E29.73006
G1 X177.878 Y203.349 E31.2601
G1 X177.878 Y203.891 E31.2873
G1 X198.894 Y224.907 E32.77888
G1 X198.352 Y224.907 E32.80608
G1 X177.878 Y204.433 E34.25919
G1 X177.878 Y204.975 E34.28639
G1 X197.81 Y224.907 E35.70104
G1 X197.268 Y224.907 E35.72824
G1 X177.878 Y205.517 E37.10443
G1 X177.878 Y206.059 E37.13163
G1 X193.941 Y222.122 E38.27165
G1 X193.399 Y222.122 E38.29884
G1 X177.878 Y206.601 E39.4004
G1 X177.878 Y207.143 E39.4276
G1 X192.857 Y222.122 E40.49069
G1 X192.315 Y222.122 E40.51789
G1 X177.878 Y207.685 E41.54252
G1 X177.878 Y208.227 E41.56971
G1 X191.773 Y222.122 E42.55588
G1 X191.48 Y222.122 E42.57059
G1 X191.48 Y222.371 E42.58308
G1 X177.878 Y208.769 E43.54844
G1 X177.878 Y209.311 E43.57564
G1 X191.48 Y222.913 E44.541
G1 X191.48 Y223.454 E44.5682
G1 X177.878 Y209.853 E45.53356
G1 X177.878 Y210.395 E45.56076
G1 X191.48 Y223.996 E46.52612
G1 X191.48 Y224.538 E46.55332
G1 X177.878 Y210.937 E47.51868
G1 X177.878 Y211.479 E47.54588
G1 X191.48 Y225.08 E48.51124
G1 X191.48 Y225.622 E48.53844
G1 X177.878 Y212.021 E49.5038
G1 X177.878 Y212.562 E49.531
G1 X191.48 Y226.164 E50.49636
G1 X191.48 Y226.706 E50.52356
G1 X177.878 Y213.104 E51.48892
G1 X177.878 Y213.646 E51.51612
G1 X191.48 Y227.248 E52.48148
G1 X191.48 Y227.79 E52.50868
G1 X177.878 Y214.188 E53.47404
G1 X177.878 Y214.73 E53.50124
G1 X191.48 Y228.332 E54.4666
G1 X191.48 Y228.874 E54.4938
G1 X177.878 Y215.272 E55.45916
G1 X177.878 Y215.814 E55.48636
G1 X191.285 Y229.221 E56.43789
G1 X191.014 Y229.492 E56.45713
G1 X177.878 Y216.356 E57.38943
G1 X177.878 Y216.898 E57.41662
G1 X190.743 Y229.763 E58.32969
G1 X190.472 Y230.034 E58.34892
G1 X177.878 Y217.44 E59.24276
G1 X177.878 Y217.982 E59.26996
G1 X190.201 Y230.305 E60.14456
G1 X190.027 Y230.479 E60.1569
G1 X189.833 Y230.479 E60.16665
G1 X177.878 Y218.524 E61.01513
G1 X177.878 Y219.066 E61.04233
G1 X189.291 Y230.479 E61.85234
G1 X188.749 Y230.479 E61.87953
G1 X177.878 Y219.608 E62.65108
G1 X177.878 Y220.15 E62.67828
G1 X188.207 Y230.479 E63.41136
G1 X187.665 Y230.479 E63.43856
G1 X177.878 Y220.692 E64.13318
G1 X177.878 Y221.234 E64.16038
G1 X187.123 Y230.479 E64.81654
G1 X186.581 Y230.479 E64.84373
G1 X177.878 Y221.775 E65.46143
G1 X177.878 Y222.317 E65.48863
G1 X186.039 Y230.479 E66.06786
G1 X185.497 Y230.479 E66.09505
G1 X177.878 Y222.859 E66.63582
G1 X177.878 Y223.401 E66.66302
G1 X184.956 Y230.479 E67.16532
G1 X184.414 Y230.479 E67.19252
G1 X177.878 Y223.943 E67.65636
G1 X177.878 Y224.485 E67.68356
G1 X183.872 Y230.479 E68.10893
G1 X183.33 Y230.479 E68.13613
G1 X177.878 Y225.027 E68.52304
G1 X177.878 Y225.569 E68.55024
G1 X182.788 Y230.479 E68.89869
G1 X182.246 Y230.479 E68.92589
G1 X177.878 Y226.111 E69.23587
G1 X177.878 Y226.653 E69.26307
G1 X181.704 Y230.479 E69.53459
G1 X181.162 Y230.479 E69.56179
G1 X177.878 Y227.195 E69.79485
G1 X177.878 Y227.737 E69.82205
G1 X180.62 Y230.479 E70.01664
G1 X180.078 Y230.479 E70.04384
G1 X177.878 Y228.279 E70.19997
