; generated by PrusaSlicer 2.4.2 on 2022-08-06 at 15:49:16 UTC

; 

; external perimeters extrusion width = 0.45mm
; perimeters extrusion width = 0.45mm
; infill extrusion width = 0.45mm
; solid infill extrusion width = 0.45mm
; top infill extrusion width = 0.40mm
; support material extrusion width = 0.35mm
; first layer extrusion width = 0.42mm

M107
M190 S60 ; set bed temperature and wait for it to be reached
M104 S215 ; set temperature
;TYPE:Custom
G28 ; home all axes
G1 Z5 F5000 ; lift nozzle
M109 S215 ; set temperature and wait for it to be reached
G21 ; set units to millimeters
G90 ; use absolute coordinates
M82 ; use absolute distances for extrusion
G92 E0
; Filament gcode
M107
;LAYER_CHANGE
;Z:0.35
;HEIGHT:0.35
G1 Z.35 F7800
G1 E-2 F2400
G92 E0
G1 Z3.35 F7800
G1 X170.528 Y158.981
G1 Z.35
G1 E2 F2400
;TYPE:Skirt/Brim
;WIDTH:0.42
G1 F1800
G1 X170.695 Y158.801 E2.01235
G1 X172.707 Y157.793 E2.12527
G1 X189.715 Y152.789 E3.015
G1 X191.405 Y152.532 E3.1008
G1 X207.825 Y152.271 E3.92493
G1 X209.802 Y152.554 E4.02515
G1 X226.81 Y157.819 E4.91867
G1 X228.802 Y158.851 E5.03129
G1 X230.266 Y160.442 E5.13981
G1 X235.874 Y169.143 E5.65928
G1 X243.023 Y180.561 E6.33535
G1 X244.546 Y183.632 E6.5074
G1 X245.091 Y185.246 E6.59287
G1 X247.73 Y198.888 E7.29022
G1 X247.846 Y200.093 E7.35096
G1 X247.73 Y201.592 E7.42645
G1 X245.091 Y215.235 E8.1238
G1 X244.546 Y216.848 E8.20928
G1 X242.708 Y220.481 E8.41358
G1 X235.874 Y231.338 E9.05739
G1 X230.266 Y240.038 E9.57687
G1 X228.736 Y241.679 E9.68949
G1 X226.81 Y242.661 E9.79801
G1 X209.802 Y247.926 E10.69152
G1 X207.825 Y248.209 E10.79175
G1 X191.405 Y247.948 E11.61588
G1 X189.715 Y247.691 E11.70168
G1 X172.707 Y242.687 E12.59141
G1 X170.7 Y241.683 E12.70403
G1 X169.165 Y240.038 E12.81695
G1 X163.536 Y231.303 E13.33847
G1 X156.798 Y220.447 E13.97971
G1 X154.958 Y216.989 E14.17627
G1 X154.327 Y215.161 E14.27333
G1 X151.854 Y201.519 E14.96915
G1 X151.753 Y200.092 E15.04093
G1 X151.855 Y198.962 E15.09788
G1 X154.327 Y185.319 E15.79369
G1 X154.958 Y183.491 E15.89076
G1 X156.798 Y180.034 E16.08732
G1 X163.594 Y169.085 E16.73404
G1 X169.165 Y160.442 E17.25008
G1 X170.487 Y159.025 E17.34734
G1 E15.34734 F2400
G92 E0
G1 Z3.35 F7800
G1 X180.436 Y166.684
G1 Z.35
G1 E2 F2400
;TYPE:Support material interface
;WIDTH:0.35
G1 F1800
G1 X180.436 Y168.711 E2.08107
G1 X180.722 Y168.715 E2.09249
G1 X180.722 Y166.813 E2.16857
G1 X181.008 Y166.813 E2.18
G1 X181.008 Y168.719 E2.25624
G1 X181.293 Y168.719 E2.26766
G1 X181.293 Y166.813 E2.34391
G1 X181.579 Y166.813 E2.35533
G1 X181.579 Y168.702 E2.43091
G1 X181.865 Y168.679 E2.44237
G1 X181.865 Y166.813 E2.51704
G1 X182.15 Y166.813 E2.52846
G1 X182.15 Y168.641 E2.60159
G1 X182.436 Y168.592 E2.61318
G1 X182.436 Y166.813 E2.68435
G1 X182.721 Y166.813 E2.69577
G1 X182.721 Y168.665 E2.76987
G1 E.76987 F2400
G92 E0
G1 Z3.35 F7800
G1 X185.863 Y166.941
G1 Z.35
G1 E2 F2400
G1 F1800
G1 X185.863 Y164.027 E2.11657
G1 X186.149 Y164.027 E2.12799
G1 X186.149 Y166.626 E2.23193
G1 X186.434 Y166.325 E2.24852
G1 X186.434 Y164.027 E2.34043
G1 X186.72 Y164.027 E2.35186
G1 X186.72 Y165.986 E2.43019
G1 X187.006 Y165.613 E2.44898
G1 X187.006 Y164.027 E2.5124
G1 X187.291 Y164.027 E2.52383
G1 X187.291 Y165.262 E2.57323
G1 X187.577 Y164.948 E2.59023
G1 X187.577 Y164.027 E2.62705
G1 X187.863 Y164.027 E2.63847
G1 X187.863 Y164.676 E2.66444
G1 X188.148 Y164.427 E2.67961
G1 X188.148 Y164.027 E2.6956
G1 X188.434 Y164.027 E2.70703
G1 X188.434 Y164.362 E2.7204
G1 E.7204 F2400
G92 E0
G1 Z3.35 F7800
G1 X191.506 Y159.704
G1 Z.35
G1 E2 F2400
;TYPE:Support material
;WIDTH:0.42
G1 F1800
G1 X195.005 Y160.326 E2.17832
G1 X195.754 Y160.524 E2.21721
G1 X196.376 Y160.737 E2.25024
G1 X196.74 Y160.889 E2.27003
G1 X193.792 Y160.889 E2.41801
G1 X193.792 Y163.152 E2.53162
G1 X193.247 Y163.098 E2.5591
G1 X192.688 Y163.087 E2.58716
G1 X192.146 Y163.12 E2.61438
G1 X191.609 Y163.194 E2.6416
G1 X191.096 Y163.305 E2.66797
G1 X190.576 Y163.46 E2.69519
G1 X190.054 Y163.661 E2.72325
G1 X189.565 Y163.896 E2.75047
G1 X188.926 Y164.284 E2.78798
G1 X188.926 Y163.674 E2.81858
G1 X185.435 Y163.674 E2.9938
G1 X185.435 Y167.166 E3.16902
G1 X186.088 Y167.166 E3.2018
G1 X185.545 Y167.612 E3.23706
G1 X185.131 Y167.895 E3.26223
G1 X184.7 Y168.151 E3.28741
G1 X184.252 Y168.377 E3.31258
G1 X183.79 Y168.573 E3.33776
G1 X183.355 Y168.724 E3.36088
G1 X183.355 Y166.46 E3.47452
G1 X179.864 Y166.46 E3.64975
G1 X179.864 Y169.086 E3.78152
G1 X179.221 Y169.164 E3.814
G1 X178.675 Y169.283 E3.84206
G1 X178.171 Y169.434 E3.86844
G1 X177.665 Y169.628 E3.89565
G1 X177.161 Y169.87 E3.92372
G1 X176.705 Y170.132 E3.95009
G1 X176.258 Y170.439 E3.97731
G1 X175.823 Y170.79 E4.00537
G1 X175.429 Y171.162 E4.03259
G1 X175.075 Y171.551 E4.05897
G1 X174.708 Y172.031 E4.08929
G1 X171.507 Y172.031 E4.24995
G1 X171.507 Y175.523 E4.42517
G1 X173.378 Y175.523 E4.5191
G1 X173.249 Y175.941 E4.54108
G1 X173.068 Y176.409 E4.56626
G1 X172.857 Y176.864 E4.59143
G1 X172.616 Y177.304 E4.6166
G1 X172.213 Y177.908 E4.65307
G1 X172.213 Y177.602 E4.66842
G1 X167.975 Y177.602 E4.88107
G1 X168.323 Y177.43 E4.90056
G1 X168.582 Y177.276 E4.91568
G1 X168.927 Y177.03 E4.93694
G1 X168.927 Y172.523 E5.16315
G1 X171.084 Y172.523 E5.27141
G1 X171.199 Y172.22 E5.28765
G1 X171.471 Y171.621 E5.32067
G1 X171.842 Y170.94 E5.35957
G1 X172.816 Y169.451 E5.44885
G1 X174.498 Y169.451 E5.53329
G1 X174.498 Y163.88 E5.81289
G1 X182.864 Y163.88 E6.23272
G1 X182.864 Y165.752 E6.32669
G1 X183.317 Y165.628 E6.3503
G1 X184.225 Y164.807 E6.41171
G1 X184.641 Y164.346 E6.44289
G1 X185.216 Y163.61 E6.48978
G1 X185.657 Y163.124 E6.52269
G1 X186.217 Y162.589 E6.56156
G1 X186.813 Y162.102 E6.60019
G1 X191.506 Y158.876 E6.88598
G1 X191.506 Y159.653 E6.92495
G1 E4.92495 F2400
G92 E0
G1 Z3.35 F7800
G1 X172.891 Y176.422
G1 Z.35
G1 E2 F2400
G1 F1800
G1 X172.891 Y175.833 E2.02957
G1 X172.508 Y175.833 E2.0488
G1 X172.508 Y176.855 E2.10012
G1 X172.255 Y177.292 E2.12542
G1 X172.125 Y177.292 E2.13199
G1 X172.125 Y175.833 E2.20521
G1 X171.741 Y175.833 E2.22444
G1 X171.741 Y177.292 E2.29766
G1 X171.358 Y177.292 E2.31689
G1 X171.358 Y175.833 E2.39011
G1 X171.196 Y175.833 E2.39824
G1 X171.196 Y172.833 E2.54879
G1 X170.975 Y172.833 E2.5599
G1 X170.975 Y177.292 E2.78368
G1 X170.592 Y177.292 E2.80291
G1 X170.592 Y172.833 E3.02669
G1 X170.209 Y172.833 E3.04592
G1 X170.209 Y177.292 E3.2697
G1 X169.825 Y177.292 E3.28893
G1 X169.825 Y172.833 E3.51271
G1 X169.442 Y172.833 E3.53194
G1 X169.442 Y177.447 E3.7635
G1 E1.7635 F2400
G92 E0
G1 Z3.35 F7800
G1 X185.154 Y167.692
G1 Z.35
G1 E2 F2400
G1 F1800
G1 X185.154 Y167.476 E2.01083
G1 X185.124 Y167.476 E2.0123
G1 X185.124 Y164.225 E2.17545
G1 X184.771 Y164.674 E2.20411
G1 X184.771 Y167.748 E2.35841
G1 X184.387 Y167.961 E2.38041
G1 X184.387 Y165.079 E2.52507
G1 X184.004 Y165.425 E2.551
G1 X184.004 Y168.145 E2.6875
G1 X183.665 Y168.288 E2.70594
G1 X183.665 Y166.149 E2.81327
G1 X183.621 Y166.149 E2.8155
G1 X183.621 Y165.772 E2.83444
G1 X183.471 Y165.908 E2.84461
G1 X183.238 Y165.972 E2.85673
G1 X183.238 Y166.149 E2.86565
G1 X182.855 Y166.149 E2.88488
G1 X182.855 Y165.916 E2.8966
G1 X182.471 Y166.305 F7800
G1 F1800
G1 X182.471 Y164.19 E3.00271
G1 X182.088 Y164.19 E3.02194
G1 X182.088 Y166.149 E3.12025
G1 X181.705 Y166.149 E3.13948
G1 X181.705 Y164.19 E3.2378
G1 X181.322 Y164.19 E3.25703
G1 X181.322 Y166.149 E3.35534
G1 X180.938 Y166.149 E3.37458
G1 X180.938 Y164.19 E3.47289
G1 X180.555 Y164.19 E3.49212
G1 X180.555 Y166.149 E3.59044
G1 X180.172 Y166.149 E3.60967
G1 X180.172 Y164.19 E3.70798
G1 X179.789 Y164.19 E3.72721
G1 X179.789 Y166.149 E3.82553
G1 X179.553 Y166.149 E3.83736
G1 X179.553 Y168.806 E3.97067
G1 X179.406 Y168.826 E3.97814
G1 X179.406 Y164.19 E4.21078
G1 X179.022 Y164.19 E4.23002
G1 X179.022 Y168.889 E4.46583
G1 X178.639 Y168.972 E4.48551
G1 X178.639 Y164.19 E4.72549
G1 X178.256 Y164.19 E4.74472
G1 X178.256 Y169.084 E4.99032
G1 X177.873 Y169.215 E5.01064
G1 X177.873 Y164.19 E5.26282
G1 X177.49 Y164.19 E5.28206
G1 X177.49 Y169.367 E5.54187
G1 X177.106 Y169.551 E5.56319
G1 X177.106 Y164.19 E5.83219
G1 X176.723 Y164.19 E5.85143
G1 X176.723 Y169.764 E6.13112
G1 X176.34 Y170.006 E6.15387
G1 X176.34 Y164.19 E6.44572
G1 X175.957 Y164.19 E6.46495
G1 X175.957 Y170.282 E6.77065
G1 X175.574 Y170.598 E6.79558
G1 X175.574 Y164.19 E7.11714
G1 X175.19 Y164.19 E7.13637
G1 X175.19 Y170.963 E7.47625
G1 X174.807 Y171.39 E7.50504
G1 X174.807 Y169.762 E7.58674
G1 X174.424 Y169.762 E7.60598
G1 X174.424 Y171.721 E7.70429
G1 X174.041 Y171.721 E7.72352
G1 X174.041 Y169.762 E7.82184
G1 X173.658 Y169.762 E7.84107
G1 X173.657 Y171.721 E7.93938
G1 X173.274 Y171.721 E7.95862
G1 X173.274 Y169.762 E8.05693
G1 X172.983 Y169.762 E8.07155
G1 X172.891 Y169.901 E8.07994
G1 X172.891 Y171.721 E8.17125
G1 X172.508 Y171.721 E8.19048
G1 X172.508 Y170.484 E8.25254
G1 X172.125 Y171.072 E8.28777
G1 X172.125 Y171.876 E8.3281
G1 E6.3281 F2400
G92 E0
G1 Z3.35 F7800
G1 X194.351 Y160.733
G1 Z.35
G1 E2 F2400
G1 F1800
G1 X194.351 Y160.521 E2.01065
G1 X193.968 Y160.454 E2.03018
G1 X193.968 Y160.578 E2.03643
G1 X193.584 Y160.578 E2.05566
G1 X193.584 Y160.386 E2.06531
G1 X193.201 Y160.318 E2.08484
G1 X193.201 Y162.786 E2.20869
G1 X192.818 Y162.779 E2.22792
G1 X192.818 Y160.251 E2.35479
G1 X192.435 Y160.183 E2.37432
G1 X192.435 Y162.791 E2.50521
G1 X192.052 Y162.819 E2.52449
G1 X192.052 Y160.116 E2.66017
G1 X191.668 Y160.048 E2.6797
G1 X191.668 Y162.872 E2.8214
G1 X191.285 Y162.946 E2.84099
G1 X191.285 Y159.981 E2.98982
G1 X191.196 Y159.965 E2.99439
G1 X191.196 Y159.466 E3.01944
G1 X190.902 Y159.667 E3.03731
G1 X190.902 Y163.038 E3.20649
G1 X190.519 Y163.153 E3.22656
G1 X190.519 Y159.93 E3.3883
G1 X190.136 Y160.193 E3.41162
G1 X190.136 Y163.296 E3.56736
G1 X189.752 Y163.462 E3.5883
G1 X189.752 Y160.456 E3.73912
G1 X189.369 Y160.719 E3.76244
G1 X189.369 Y163.651 E3.90955
G1 X189.237 Y163.727 E3.91723
G1 X189.237 Y163.364 E3.93546
G1 X188.986 Y163.364 E3.94804
G1 X188.986 Y160.982 E4.06756
G1 X188.603 Y161.245 E4.09089
G1 X188.603 Y163.364 E4.1972
G1 X188.219 Y163.364 E4.21644
G1 X188.219 Y161.508 E4.30955
G1 X187.836 Y161.771 E4.33288
G1 X187.836 Y163.364 E4.4128
G1 X187.453 Y163.364 E4.43203
G1 X187.453 Y162.034 E4.49875
G1 X187.07 Y162.298 E4.5221
G1 X187.07 Y163.364 E4.57557
G1 X186.687 Y163.364 E4.5948
G1 X186.687 Y162.604 E4.63295
G1 X186.303 Y162.935 E4.65837
G1 X186.303 Y163.364 E4.6799
G1 X185.92 Y163.364 E4.69913
G1 X185.92 Y163.083 E4.71323
G1 E2.71323 F2400
G92 E0
G1 Z3.35 F7800
G1 X194.146 Y162.988
G1 Z.35
G1 E2 F2400
;TYPE:Support material interface
;WIDTH:0.35
G1 F1800
G1 X194.146 Y161.242 E2.06987
G1 X194.432 Y161.242 E2.0813
G1 X194.432 Y162.912 E2.14811
G1 X194.717 Y162.985 E2.15991
G1 X194.717 Y161.242 E2.22966
G1 X195.003 Y161.242 E2.24109
G1 X195.003 Y163.064 E2.31401
G1 X195.289 Y163.162 E2.32608
G1 X195.289 Y161.242 E2.40291
G1 X195.574 Y161.242 E2.41433
G1 X195.574 Y163.268 E2.49541
G1 X195.86 Y163.392 E2.50785
G1 X195.86 Y161.242 E2.59386
G1 X196.145 Y161.242 E2.60529
G1 X196.145 Y163.526 E2.69668
G1 X196.431 Y163.671 E2.70948
G1 X196.431 Y161.242 E2.80664
G1 X196.717 Y161.242 E2.81806
G1 X196.717 Y163.952 E2.9265
G1 E.9265 F2400
G92 E0
G1 Z3.35 F7800
G1 X197.464 Y161.227
G1 Z.35
G1 E2 F2400
;TYPE:Support material
;WIDTH:0.42
G1 F1800
G1 X197.815 Y161.403 E2.0197
G1 X199.716 Y162.209 E2.12333
G1 X201.617 Y161.403 E2.22695
G1 X202.148 Y161.138 E2.25679
G1 X202.148 Y164.415 E2.42124
G1 X201.456 Y164.62 E2.45749
G1 X200.964 Y164.719 E2.48267
G1 X200.467 Y164.786 E2.50784
G1 X199.967 Y164.82 E2.53302
G1 X199.465 Y164.82 E2.55819
G1 X198.964 Y164.786 E2.58337
G1 X198.467 Y164.719 E2.60854
G1 X197.976 Y164.62 E2.63372
G1 X197.283 Y164.415 E2.66997
G1 X197.283 Y161.135 E2.83456
G1 X197.418 Y161.203 E2.84213
G1 X201.632 Y164.41 F7800
G1 F1800
G1 X201.632 Y161.734 E2.97646
G1 X201.249 Y161.896 E2.99735
G1 X201.249 Y164.345 E3.12024
G1 X200.865 Y164.42 E3.13983
G1 X200.865 Y162.059 E3.25831
G1 X200.482 Y162.221 E3.2792
G1 X200.482 Y164.471 E3.39211
G1 X200.099 Y164.5 E3.41139
G1 X200.099 Y162.384 E3.51759
G1 X199.716 Y162.546 E3.53848
G1 X199.716 Y164.509 E3.637
G1 X199.333 Y164.5 E3.65624
G1 X199.333 Y162.384 E3.76244
G1 X198.949 Y162.221 E3.78333
G1 X198.949 Y164.471 E3.89623
G1 X198.566 Y164.42 E3.91564
G1 X198.566 Y162.059 E4.03412
G1 X198.183 Y161.896 E4.055
G1 X198.183 Y164.345 E4.17789
G1 X197.8 Y164.25 E4.19771
G1 X197.8 Y161.565 E4.33242
G1 E2.33242 F2400
G92 E0
G1 Z3.35 F7800
G1 X202.715 Y163.952
G1 Z.35
G1 E2 F2400
;TYPE:Support material interface
;WIDTH:0.35
G1 F1800
G1 X202.715 Y161.242 E2.10843
G1 X203 Y161.242 E2.11986
G1 X203 Y163.671 E2.21702
G1 X203.286 Y163.528 E2.2298
G1 X203.286 Y161.242 E2.32125
G1 X203.572 Y161.242 E2.33268
G1 X203.572 Y163.391 E2.41867
G1 X203.857 Y163.27 E2.43108
G1 X203.857 Y161.242 E2.51222
G1 X204.143 Y161.242 E2.52364
G1 X204.143 Y163.16 E2.60038
G1 X204.428 Y163.067 E2.61238
G1 X204.428 Y161.242 E2.68542
G1 X204.714 Y161.242 E2.69685
G1 X204.714 Y162.982 E2.76646
G1 X205 Y162.916 E2.77819
G1 X205 Y161.242 E2.84516
G1 X205.285 Y161.242 E2.85658
G1 X205.285 Y162.985 E2.92633
G1 E.92633 F2400
G92 E0
G1 Z3.35 F7800
G1 X210.998 Y164.363
G1 Z.35
G1 E2 F2400
G1 F1800
G1 X210.998 Y164.027 E2.01343
G1 X211.283 Y164.027 E2.02486
G1 X211.283 Y164.425 E2.04075
G1 X211.569 Y164.674 E2.05592
G1 X211.569 Y164.027 E2.08178
G1 X211.855 Y164.027 E2.09321
G1 X211.855 Y164.954 E2.1303
G1 X212.14 Y165.263 E2.14712
G1 X212.14 Y164.027 E2.19655
G1 X212.426 Y164.027 E2.20797
G1 X212.426 Y165.607 E2.27115
G1 X212.711 Y165.985 E2.29013
G1 X212.711 Y164.027 E2.36846
G1 X212.997 Y164.027 E2.37988
G1 X212.997 Y166.325 E2.47179
G1 X213.283 Y166.626 E2.48838
G1 X213.283 Y164.027 E2.59232
G1 X213.568 Y164.027 E2.60374
G1 X213.568 Y166.941 E2.72031
G1 E.72031 F2400
G92 E0
G1 Z3.35 F7800
G1 X216.71 Y166.684
G1 Z.35
G1 E2 F2400
G1 F1800
G1 X216.71 Y168.534 E2.07399
G1 X216.996 Y168.592 E2.08565
G1 X216.996 Y166.813 E2.15681
G1 X217.281 Y166.813 E2.16824
G1 X217.281 Y168.641 E2.24137
G1 X217.567 Y168.679 E2.25289
G1 X217.567 Y166.813 E2.32756
G1 X217.853 Y166.813 E2.33898
G1 X217.853 Y168.702 E2.41456
G1 X218.1 Y168.719 E2.42448
G1 X218.138 Y168.719 E2.42601
G1 X218.138 Y166.813 E2.50225
G1 X218.424 Y166.813 E2.51367
G1 X218.424 Y168.719 E2.58992
G1 X218.709 Y168.714 E2.60134
G1 X218.709 Y166.813 E2.6774
G1 X218.995 Y166.813 E2.68882
G1 X218.995 Y168.84 E2.76991
G1 E.76991 F2400
G92 E0
G1 Z3.35 F7800
G1 X225.564 Y173.046
G1 Z.35
G1 E2 F2400
G1 F1800
G1 X225.564 Y172.384 E2.0265
G1 X225.85 Y172.384 E2.03792
G1 X225.85 Y173.401 E2.0786
G1 X226.079 Y174.077 E2.10713
G1 X226.135 Y174.313 E2.11688
G1 X226.135 Y172.384 E2.19406
G1 X226.421 Y172.384 E2.20548
G1 X226.421 Y175.17 E2.31691
G1 X226.707 Y175.17 E2.32833
G1 X226.707 Y172.384 E2.43976
G1 X226.992 Y172.384 E2.45118
G1 X226.992 Y175.17 E2.56261
G1 X227.278 Y175.17 E2.57404
G1 X227.278 Y172.384 E2.68546
G1 X227.564 Y172.384 E2.69689
G1 X227.564 Y175.298 E2.81345
G1 E.81345 F2400
G92 E0
G1 Z3.35 F7800
G1 X227.849 Y177.827
G1 Z.35
G1 E2 F2400
G1 F1800
G1 X227.849 Y178.137 E2.01242
G1 X228.135 Y178.45 E2.02937
G1 X228.135 Y177.955 E2.04917
G1 X228.42 Y177.955 E2.0606
G1 X228.42 Y178.73 E2.09159
G1 X228.706 Y178.982 E2.10683
G1 X228.706 Y177.955 E2.14792
G1 X228.992 Y177.955 E2.15935
G1 X228.992 Y179.208 E2.20946
G1 X229.277 Y179.408 E2.2234
G1 X229.277 Y177.955 E2.28151
G1 X229.563 Y177.955 E2.29294
G1 X229.563 Y179.591 E2.35837
G1 X229.849 Y179.759 E2.37163
G1 X229.849 Y177.955 E2.44378
G1 X230.134 Y177.955 E2.4552
G1 X230.134 Y179.903 E2.53313
G1 X230.42 Y180.038 E2.54577
G1 X230.42 Y177.955 E2.62909
G1 X230.705 Y177.955 E2.64052
G1 X230.705 Y180.167 E2.72899
G1 X230.991 Y180.313 E2.74183
G1 X230.991 Y177.955 E2.83616
G1 X231.277 Y177.955 E2.84758
G1 X231.277 Y180.465 E2.94799
G1 X231.562 Y180.646 E2.9615
G1 X231.562 Y177.955 E3.06911
G1 X231.848 Y177.955 E3.08054
G1 X231.848 Y180.741 E3.19196
G1 X232.133 Y180.741 E3.20339
G1 X232.133 Y177.955 E3.31481
G1 X232.419 Y177.955 E3.32624
G1 X232.419 Y180.741 E3.43766
G1 X232.705 Y180.741 E3.44909
G1 X232.705 Y177.955 E3.56051
G1 X232.99 Y177.955 E3.57194
G1 X232.99 Y180.869 E3.68851
