; generated by PrusaSlicer 2.4.2 on 2022-08-07 at 18:02:17 UTC

; 

; external perimeters extrusion width = 0.45mm
; perimeters extrusion width = 0.45mm
; infill extrusion width = 0.45mm
; solid infill extrusion width = 0.45mm
; top infill extrusion width = 0.40mm
; support material extrusion width = 0.35mm
; first layer extrusion width = 0.42mm

M107
M190 S60 ; set bed temperature and wait for it to be reached
M104 S215 ; set temperature
;TYPE:Custom
G28 ; home all axes
G1 Z5 F5000 ; lift nozzle
M109 S215 ; set temperature and wait for it to be reached
G21 ; set units to millimeters
G90 ; use absolute coordinates
M82 ; use absolute distances for extrusion
G92 E0
; Filament gcode
M107
;LAYER_CHANGE
;Z:0.35
;HEIGHT:0.35
G1 Z.35 F7800
G1 E-2 F2400
G92 E0
G1 Z3.35 F7800
G1 X192.971 Y180.783
G1 Z.35
G1 E2 F2400
;TYPE:Skirt/Brim
;WIDTH:0.42
G1 F1800
G1 X194.982 Y179.776 E2.11292
G1 X211.99 Y174.772 E3.00265
G1 X213.68 Y174.515 E3.08845
G1 X230.1 Y174.254 E3.91258
G1 X232.077 Y174.537 E4.01281
G1 X249.085 Y179.801 E4.90632
G1 X251.077 Y180.834 E5.01894
G1 X252.541 Y182.425 E5.12746
G1 X258.149 Y191.125 E5.64694
G1 X265.298 Y202.543 E6.32301
G1 X266.821 Y205.614 E6.49505
G1 X267.366 Y207.228 E6.58052
G1 X270.005 Y220.871 E7.27788
G1 X270.121 Y222.075 E7.33861
G1 X270.005 Y223.575 E7.4141
G1 X267.366 Y237.217 E8.11146
G1 X266.821 Y238.831 E8.19693
G1 X264.983 Y242.464 E8.40123
G1 X258.149 Y253.32 E9.04505
G1 X252.541 Y262.021 E9.56453
G1 X251.011 Y263.662 E9.67715
G1 X249.085 Y264.644 E9.78566
G1 X232.077 Y269.909 E10.67918
G1 X230.1 Y270.192 E10.7794
G1 X213.68 Y269.931 E11.60354
G1 X211.99 Y269.674 E11.68933
G1 X194.982 Y264.67 E12.57906
G1 X192.975 Y263.666 E12.69168
G1 X191.44 Y262.021 E12.80461
G1 X185.811 Y253.286 E13.32612
G1 X179.074 Y242.429 E13.96737
G1 X177.233 Y238.972 E14.16393
G1 X176.602 Y237.144 E14.26099
G1 X174.13 Y223.501 E14.9568
G1 X174.028 Y222.074 E15.02859
G1 X174.13 Y220.944 E15.08554
G1 X176.602 Y207.302 E15.78135
G1 X177.233 Y205.474 E15.87841
G1 X179.074 Y202.016 E16.07497
G1 X185.869 Y191.067 E16.72169
G1 X191.44 Y182.425 E17.23773
G1 X192.93 Y180.827 E17.34734
G1 E15.34734 F2400
G92 E0
G1 Z3.35 F7800
G1 X202.712 Y188.667
G1 Z.35
G1 E2 F2400
;TYPE:Support material interface
;WIDTH:0.35
G1 F1800
G1 X202.712 Y190.693 E2.08107
G1 X202.997 Y190.697 E2.09249
G1 X202.997 Y188.795 E2.16857
G1 X203.283 Y188.795 E2.18
G1 X203.283 Y190.701 E2.25624
G1 X203.568 Y190.701 E2.26766
G1 X203.568 Y188.795 E2.34391
G1 X203.854 Y188.795 E2.35533
G1 X203.854 Y190.685 E2.43091
G1 X204.14 Y190.662 E2.44237
G1 X204.14 Y188.795 E2.51704
G1 X204.425 Y188.795 E2.52846
G1 X204.425 Y190.623 E2.60159
G1 X204.711 Y190.575 E2.61318
G1 X204.711 Y188.795 E2.68435
G1 X204.996 Y188.795 E2.69577
G1 X204.996 Y190.648 E2.76987
G1 E.76987 F2400
G92 E0
G1 Z3.35 F7800
G1 X208.138 Y188.924
G1 Z.35
G1 E2 F2400
G1 F1800
G1 X208.138 Y186.01 E2.11657
G1 X208.424 Y186.01 E2.12799
G1 X208.424 Y188.608 E2.23193
G1 X208.71 Y188.307 E2.24852
G1 X208.71 Y186.01 E2.34043
G1 X208.995 Y186.01 E2.35186
G1 X208.995 Y187.968 E2.43019
G1 X209.281 Y187.595 E2.44898
G1 X209.281 Y186.01 E2.5124
G1 X209.566 Y186.01 E2.52383
G1 X209.566 Y187.245 E2.57323
G1 X209.852 Y186.93 E2.59023
G1 X209.852 Y186.01 E2.62705
G1 X210.138 Y186.01 E2.63847
G1 X210.138 Y186.659 E2.66444
G1 X210.423 Y186.409 E2.67961
G1 X210.423 Y186.01 E2.6956
G1 X210.709 Y186.01 E2.70703
G1 X210.709 Y186.344 E2.7204
G1 E.7204 F2400
G92 E0
G1 Z3.35 F7800
G1 X213.781 Y181.687
G1 Z.35
G1 E2 F2400
;TYPE:Support material
;WIDTH:0.42
G1 F1800
G1 X217.28 Y182.308 E2.17832
G1 X218.029 Y182.506 E2.21721
G1 X218.652 Y182.719 E2.25024
G1 X219.015 Y182.871 E2.27003
G1 X216.067 Y182.871 E2.41801
G1 X216.067 Y185.135 E2.53162
G1 X215.522 Y185.081 E2.5591
G1 X214.963 Y185.07 E2.58716
G1 X214.421 Y185.102 E2.61438
G1 X213.884 Y185.176 E2.6416
G1 X213.371 Y185.288 E2.66797
G1 X212.851 Y185.442 E2.69519
G1 X212.329 Y185.644 E2.72325
G1 X211.84 Y185.878 E2.75047
G1 X211.201 Y186.266 E2.78798
G1 X211.201 Y185.657 E2.81858
G1 X207.71 Y185.657 E2.9938
G1 X207.71 Y189.148 E3.16902
G1 X208.363 Y189.148 E3.2018
G1 X207.82 Y189.594 E3.23706
G1 X207.407 Y189.878 E3.26223
G1 X206.975 Y190.134 E3.28741
G1 X206.527 Y190.36 E3.31258
G1 X206.065 Y190.556 E3.33776
G1 X205.63 Y190.707 E3.36088
G1 X205.63 Y188.442 E3.47452
G1 X202.139 Y188.442 E3.64975
G1 X202.139 Y191.068 E3.78152
G1 X201.496 Y191.147 E3.814
G1 X200.95 Y191.265 E3.84206
G1 X200.446 Y191.416 E3.86844
G1 X199.94 Y191.611 E3.89565
G1 X199.436 Y191.852 E3.92372
G1 X198.981 Y192.115 E3.95009
G1 X198.533 Y192.421 E3.97731
G1 X198.098 Y192.772 E4.00537
G1 X197.704 Y193.145 E4.03259
G1 X197.35 Y193.534 E4.05897
G1 X196.983 Y194.014 E4.08929
G1 X193.782 Y194.014 E4.24995
G1 X193.782 Y197.505 E4.42517
G1 X195.653 Y197.505 E4.5191
G1 X195.524 Y197.923 E4.54108
G1 X195.343 Y198.391 E4.56626
G1 X195.132 Y198.846 E4.59143
G1 X194.891 Y199.286 E4.6166
G1 X194.488 Y199.891 E4.65307
G1 X194.488 Y199.585 E4.66842
G1 X190.25 Y199.585 E4.88107
G1 X190.598 Y199.412 E4.90056
G1 X190.857 Y199.259 E4.91568
G1 X191.202 Y199.012 E4.93694
G1 X191.202 Y194.505 E5.16315
G1 X193.359 Y194.505 E5.27141
G1 X193.474 Y194.203 E5.28765
G1 X193.746 Y193.603 E5.32067
G1 X194.117 Y192.923 E5.35957
G1 X195.091 Y191.434 E5.44885
G1 X196.773 Y191.434 E5.53329
G1 X196.773 Y185.863 E5.81289
G1 X205.139 Y185.863 E6.23272
G1 X205.139 Y187.735 E6.32669
G1 X205.592 Y187.611 E6.3503
G1 X206.5 Y186.79 E6.41171
G1 X206.916 Y186.329 E6.44289
G1 X207.491 Y185.592 E6.48978
G1 X207.932 Y185.107 E6.52269
G1 X208.492 Y184.572 E6.56156
G1 X209.088 Y184.085 E6.60019
G1 X213.781 Y180.859 E6.88598
G1 X213.781 Y181.635 E6.92495
G1 E4.92495 F2400
G92 E0
G1 Z3.35 F7800
G1 X195.166 Y198.405
G1 Z.35
G1 E2 F2400
G1 F1800
G1 X195.166 Y197.815 E2.02957
G1 X194.783 Y197.815 E2.0488
G1 X194.783 Y198.838 E2.10012
G1 X194.531 Y199.274 E2.12542
G1 X194.4 Y199.274 E2.13199
G1 X194.4 Y197.815 E2.20521
G1 X194.017 Y197.815 E2.22444
G1 X194.017 Y199.274 E2.29766
G1 X193.633 Y199.274 E2.31689
G1 X193.633 Y197.815 E2.39011
G1 X193.471 Y197.815 E2.39824
G1 X193.471 Y194.815 E2.54879
G1 X193.25 Y194.815 E2.5599
G1 X193.25 Y199.274 E2.78368
G1 X192.867 Y199.274 E2.80291
G1 X192.867 Y194.815 E3.02669
G1 X192.484 Y194.815 E3.04592
G1 X192.484 Y199.274 E3.2697
G1 X192.1 Y199.274 E3.28893
G1 X192.1 Y194.815 E3.51271
G1 X191.717 Y194.815 E3.53194
G1 X191.717 Y199.43 E3.7635
G1 E1.7635 F2400
G92 E0
G1 Z3.35 F7800
G1 X207.429 Y189.674
G1 Z.35
G1 E2 F2400
G1 F1800
G1 X207.429 Y189.459 E2.01083
G1 X207.399 Y189.459 E2.0123
G1 X207.399 Y186.208 E2.17545
G1 X207.046 Y186.656 E2.20411
G1 X207.046 Y189.731 E2.35841
G1 X206.662 Y189.944 E2.38041
G1 X206.662 Y187.061 E2.52507
G1 X206.279 Y187.408 E2.551
G1 X206.279 Y190.128 E2.6875
G1 X205.94 Y190.27 E2.70594
G1 X205.94 Y188.132 E2.81327
G1 X205.896 Y188.132 E2.8155
G1 X205.896 Y187.755 E2.83444
G1 X205.746 Y187.891 E2.84461
G1 X205.513 Y187.954 E2.85673
G1 X205.513 Y188.132 E2.86565
G1 X205.13 Y188.132 E2.88488
G1 X205.13 Y187.898 E2.8966
G1 X204.746 Y188.287 F7800
G1 F1800
G1 X204.746 Y186.173 E3.00271
G1 X204.363 Y186.173 E3.02194
G1 X204.363 Y188.132 E3.12025
G1 X203.98 Y188.132 E3.13948
G1 X203.98 Y186.173 E3.2378
G1 X203.597 Y186.173 E3.25703
G1 X203.597 Y188.132 E3.35534
G1 X203.214 Y188.132 E3.37458
G1 X203.214 Y186.173 E3.47289
G1 X202.83 Y186.173 E3.49212
G1 X202.83 Y188.132 E3.59044
G1 X202.447 Y188.132 E3.60967
G1 X202.447 Y186.173 E3.70798
G1 X202.064 Y186.173 E3.72721
G1 X202.064 Y188.132 E3.82553
G1 X201.828 Y188.132 E3.83736
G1 X201.828 Y190.788 E3.97067
G1 X201.681 Y190.809 E3.97814
G1 X201.681 Y186.173 E4.21078
G1 X201.298 Y186.173 E4.23002
G1 X201.298 Y190.872 E4.46583
G1 X200.914 Y190.955 E4.48551
G1 X200.914 Y186.173 E4.72549
G1 X200.531 Y186.173 E4.74472
G1 X200.531 Y191.067 E4.99032
G1 X200.148 Y191.198 E5.01064
G1 X200.148 Y186.173 E5.26282
G1 X199.765 Y186.173 E5.28206
G1 X199.765 Y191.35 E5.54187
G1 X199.381 Y191.533 E5.56319
G1 X199.381 Y186.173 E5.83219
G1 X198.998 Y186.173 E5.85143
G1 X198.998 Y191.746 E6.13112
G1 X198.615 Y191.988 E6.15387
G1 X198.615 Y186.173 E6.44572
G1 X198.232 Y186.173 E6.46495
G1 X198.232 Y192.264 E6.77065
G1 X197.849 Y192.58 E6.79558
G1 X197.849 Y186.173 E7.11714
G1 X197.465 Y186.173 E7.13637
G1 X197.465 Y192.945 E7.47625
G1 X197.082 Y193.372 E7.50504
G1 X197.082 Y191.744 E7.58674
G1 X196.699 Y191.744 E7.60598
G1 X196.699 Y193.703 E7.70429
G1 X196.316 Y193.703 E7.72352
G1 X196.316 Y191.744 E7.82184
G1 X195.933 Y191.744 E7.84107
G1 X195.933 Y193.703 E7.93938
G1 X195.549 Y193.703 E7.95862
G1 X195.549 Y191.744 E8.05693
G1 X195.258 Y191.744 E8.07155
G1 X195.166 Y191.884 E8.07994
G1 X195.166 Y193.703 E8.17125
G1 X194.783 Y193.703 E8.19048
G1 X194.783 Y192.467 E8.25254
G1 X194.4 Y193.055 E8.28777
G1 X194.4 Y193.858 E8.3281
G1 E6.3281 F2400
G92 E0
G1 Z3.35 F7800
G1 X216.626 Y182.716
G1 Z.35
G1 E2 F2400
G1 F1800
G1 X216.626 Y182.504 E2.01065
G1 X216.243 Y182.436 E2.03018
G1 X216.243 Y182.561 E2.03643
G1 X215.86 Y182.561 E2.05566
G1 X215.86 Y182.369 E2.06531
G1 X215.476 Y182.301 E2.08484
G1 X215.476 Y184.769 E2.20869
G1 X215.093 Y184.761 E2.22792
G1 X215.093 Y182.233 E2.35479
G1 X214.71 Y182.166 E2.37432
G1 X214.71 Y184.774 E2.50521
G1 X214.327 Y184.802 E2.52449
G1 X214.327 Y182.098 E2.66017
G1 X213.943 Y182.031 E2.6797
G1 X213.943 Y184.854 E2.8214
G1 X213.56 Y184.929 E2.84099
G1 X213.56 Y181.963 E2.98982
G1 X213.471 Y181.947 E2.99439
G1 X213.471 Y181.448 E3.01944
G1 X213.177 Y181.65 E3.03731
G1 X213.177 Y185.021 E3.20649
G1 X212.794 Y185.135 E3.22656
G1 X212.794 Y181.913 E3.3883
G1 X212.411 Y182.176 E3.41162
G1 X212.411 Y185.279 E3.56736
G1 X212.027 Y185.444 E3.5883
G1 X212.027 Y182.439 E3.73912
G1 X211.644 Y182.702 E3.76244
G1 X211.644 Y185.633 E3.90955
G1 X211.512 Y185.71 E3.91723
G1 X211.512 Y185.346 E3.93546
G1 X211.261 Y185.346 E3.94804
G1 X211.261 Y182.965 E4.06756
G1 X210.878 Y183.228 E4.09089
G1 X210.878 Y185.346 E4.1972
G1 X210.495 Y185.346 E4.21644
G1 X210.495 Y183.491 E4.30955
G1 X210.111 Y183.754 E4.33288
G1 X210.111 Y185.346 E4.4128
G1 X209.728 Y185.346 E4.43203
G1 X209.728 Y184.017 E4.49875
G1 X209.345 Y184.281 E4.5221
G1 X209.345 Y185.346 E4.57557
G1 X208.962 Y185.346 E4.5948
G1 X208.962 Y184.586 E4.63295
G1 X208.579 Y184.917 E4.65837
G1 X208.579 Y185.346 E4.6799
G1 X208.195 Y185.346 E4.69913
G1 X208.195 Y185.066 E4.71323
G1 E2.71323 F2400
G92 E0
G1 Z3.35 F7800
G1 X216.421 Y184.971
G1 Z.35
G1 E2 F2400
;TYPE:Support material interface
;WIDTH:0.35
G1 F1800
G1 X216.421 Y183.224 E2.06987
G1 X216.707 Y183.224 E2.0813
G1 X216.707 Y184.894 E2.14811
G1 X216.992 Y184.968 E2.15991
G1 X216.992 Y183.224 E2.22966
G1 X217.278 Y183.224 E2.24109
G1 X217.278 Y185.047 E2.31401
G1 X217.564 Y185.145 E2.32608
G1 X217.564 Y183.224 E2.40291
G1 X217.849 Y183.224 E2.41433
G1 X217.849 Y185.251 E2.49541
G1 X218.135 Y185.374 E2.50785
G1 X218.135 Y183.224 E2.59386
G1 X218.421 Y183.224 E2.60529
G1 X218.421 Y185.509 E2.69668
G1 X218.706 Y185.653 E2.70948
G1 X218.706 Y183.224 E2.80664
G1 X218.992 Y183.224 E2.81806
G1 X218.992 Y185.935 E2.9265
G1 E.9265 F2400
G92 E0
G1 Z3.35 F7800
G1 X219.739 Y183.209
G1 Z.35
G1 E2 F2400
;TYPE:Support material
;WIDTH:0.42
G1 F1800
G1 X220.09 Y183.386 E2.0197
G1 X221.991 Y184.192 E2.12333
G1 X223.892 Y183.386 E2.22695
G1 X224.424 Y183.12 E2.25679
G1 X224.424 Y186.397 E2.42124
G1 X223.731 Y186.602 E2.45749
G1 X223.239 Y186.702 E2.48267
G1 X222.742 Y186.769 E2.50784
G1 X222.242 Y186.802 E2.53302
G1 X221.74 Y186.802 E2.55819
G1 X221.24 Y186.769 E2.58337
G1 X220.742 Y186.702 E2.60854
G1 X220.251 Y186.602 E2.63372
G1 X219.558 Y186.397 E2.66997
G1 X219.558 Y183.118 E2.83456
G1 X219.693 Y183.186 E2.84213
G1 X223.907 Y186.393 F7800
G1 F1800
G1 X223.907 Y183.716 E2.97646
G1 X223.524 Y183.879 E2.99735
G1 X223.524 Y186.328 E3.12024
G1 X223.141 Y186.402 E3.13983
G1 X223.141 Y184.041 E3.25831
G1 X222.757 Y184.204 E3.2792
G1 X222.757 Y186.454 E3.39211
G1 X222.374 Y186.482 E3.41139
G1 X222.374 Y184.366 E3.51759
G1 X221.991 Y184.529 E3.53848
G1 X221.991 Y186.492 E3.637
G1 X221.608 Y186.482 E3.65624
G1 X221.608 Y184.366 E3.76244
G1 X221.224 Y184.204 E3.78333
G1 X221.224 Y186.454 E3.89623
G1 X220.841 Y186.402 E3.91564
G1 X220.841 Y184.041 E4.03412
G1 X220.458 Y183.879 E4.055
G1 X220.458 Y186.328 E4.17789
G1 X220.075 Y186.232 E4.19771
G1 X220.075 Y183.548 E4.33242
G1 E2.33242 F2400
G92 E0
G1 Z3.35 F7800
G1 X224.99 Y185.935
G1 Z.35
G1 E2 F2400
;TYPE:Support material interface
;WIDTH:0.35
G1 F1800
G1 X224.99 Y183.224 E2.10843
G1 X225.275 Y183.224 E2.11986
G1 X225.275 Y185.653 E2.21702
G1 X225.561 Y185.51 E2.2298
G1 X225.561 Y183.224 E2.32125
G1 X225.847 Y183.224 E2.33268
G1 X225.847 Y185.374 E2.41867
G1 X226.132 Y185.253 E2.43108
G1 X226.132 Y183.224 E2.51222
G1 X226.418 Y183.224 E2.52364
G1 X226.418 Y185.142 E2.60038
G1 X226.704 Y185.05 E2.61238
G1 X226.704 Y183.224 E2.68542
G1 X226.989 Y183.224 E2.69685
G1 X226.989 Y184.964 E2.76646
G1 X227.275 Y184.898 E2.77819
G1 X227.275 Y183.224 E2.84516
G1 X227.56 Y183.224 E2.85658
G1 X227.56 Y184.968 E2.92633
G1 E.92633 F2400
G92 E0
G1 Z3.35 F7800
G1 X233.273 Y186.345
G1 Z.35
G1 E2 F2400
G1 F1800
G1 X233.273 Y186.01 E2.01343
G1 X233.558 Y186.01 E2.02486
G1 X233.558 Y186.407 E2.04075
G1 X233.844 Y186.656 E2.05592
G1 X233.844 Y186.01 E2.08178
G1 X234.13 Y186.01 E2.09321
G1 X234.13 Y186.937 E2.1303
G1 X234.415 Y187.245 E2.14712
G1 X234.415 Y186.01 E2.19655
G1 X234.701 Y186.01 E2.20797
G1 X234.701 Y187.589 E2.27115
G1 X234.986 Y187.968 E2.29013
G1 X234.986 Y186.01 E2.36846
G1 X235.272 Y186.01 E2.37988
G1 X235.272 Y188.307 E2.47179
G1 X235.558 Y188.608 E2.48838
G1 X235.558 Y186.01 E2.59232
G1 X235.843 Y186.01 E2.60374
G1 X235.843 Y188.924 E2.72031
G1 E.72031 F2400
G92 E0
G1 Z3.35 F7800
G1 X238.985 Y188.667
G1 Z.35
G1 E2 F2400
G1 F1800
G1 X238.985 Y190.516 E2.07399
G1 X239.271 Y190.575 E2.08565
G1 X239.271 Y188.795 E2.15681
G1 X239.556 Y188.795 E2.16824
G1 X239.556 Y190.623 E2.24137
G1 X239.842 Y190.662 E2.25289
G1 X239.842 Y188.795 E2.32756
G1 X240.128 Y188.795 E2.33898
G1 X240.128 Y190.685 E2.41456
G1 X240.375 Y190.701 E2.42448
G1 X240.413 Y190.701 E2.42601
G1 X240.413 Y188.795 E2.50225
G1 X240.699 Y188.795 E2.51367
G1 X240.699 Y190.701 E2.58992
G1 X240.984 Y190.697 E2.60134
G1 X240.984 Y188.795 E2.6774
G1 X241.27 Y188.795 E2.68882
G1 X241.27 Y190.823 E2.76991
G1 E.76991 F2400
G92 E0
G1 Z3.35 F7800
G1 X247.839 Y195.029
G1 Z.35
G1 E2 F2400
G1 F1800
G1 X247.839 Y194.367 E2.0265
G1 X248.125 Y194.367 E2.03792
G1 X248.125 Y195.384 E2.0786
G1 X248.354 Y196.059 E2.10713
G1 X248.411 Y196.296 E2.11688
G1 X248.411 Y194.367 E2.19406
G1 X248.696 Y194.367 E2.20548
G1 X248.696 Y197.152 E2.31691
G1 X248.982 Y197.152 E2.32833
G1 X248.982 Y194.367 E2.43976
G1 X249.267 Y194.367 E2.45118
G1 X249.267 Y197.152 E2.56261
G1 X249.553 Y197.152 E2.57404
G1 X249.553 Y194.367 E2.68546
G1 X249.839 Y194.367 E2.69689
G1 X249.839 Y197.281 E2.81345
G1 E.81345 F2400
G92 E0
G1 Z3.35 F7800
G1 X250.124 Y199.809
G1 Z.35
G1 E2 F2400
G1 F1800
G1 X250.124 Y200.12 E2.01242
G1 X250.41 Y200.433 E2.02937
G1 X250.41 Y199.938 E2.04917
G1 X250.696 Y199.938 E2.0606
G1 X250.696 Y200.713 E2.09159
G1 X250.981 Y200.965 E2.10683
G1 X250.981 Y199.938 E2.14792
G1 X251.267 Y199.938 E2.15935
G1 X251.267 Y201.191 E2.20946
G1 X251.552 Y201.391 E2.2234
G1 X251.552 Y199.938 E2.28151
G1 X251.838 Y199.938 E2.29294
G1 X251.838 Y201.574 E2.35837
G1 X252.124 Y201.742 E2.37163
G1 X252.124 Y199.938 E2.44378
G1 X252.409 Y199.938 E2.4552
G1 X252.409 Y201.886 E2.53313
G1 X252.695 Y202.021 E2.54577
G1 X252.695 Y199.938 E2.62909
G1 X252.98 Y199.938 E2.64052
G1 X252.98 Y202.15 E2.72899
G1 X253.266 Y202.296 E2.74183
G1 X253.266 Y199.938 E2.83616
G1 X253.552 Y199.938 E2.84758
G1 X253.552 Y202.448 E2.94799
G1 X253.837 Y202.628 E2.9615
G1 X253.837 Y199.938 E3.06911
G1 X254.123 Y199.938 E3.08054
G1 X254.123 Y202.723 E3.19196
G1 X254.409 Y202.723 E3.20339
G1 X254.409 Y199.938 E3.31481
G1 X254.694 Y199.938 E3.32624
G1 X254.694 Y202.723 E3.43766
G1 X254.98 Y202.723 E3.44909
G1 X254.98 Y199.938 E3.56051
G1 X255.265 Y199.938 E3.57194
G1 X255.265 Y202.852 E3.68851
G1 E1.68851 F2400
