; generated by PrusaSlicer 2.4.2 on 2022-07-15 at 21:58:40 UTC

; 

; external perimeters extrusion width = 0.45mm
; perimeters extrusion width = 0.45mm
; infill extrusion width = 0.45mm
; solid infill extrusion width = 0.45mm
; top infill extrusion width = 0.40mm
; first layer extrusion width = 0.42mm

M107
M190 S60 ; set bed temperature and wait for it to be reached
M104 S215 ; set temperature
;TYPE:Custom
G28 ; home all axes
G1 Z5 F5000 ; lift nozzle
M109 S215 ; set temperature and wait for it to be reached
G21 ; set units to millimeters
G90 ; use absolute coordinates
M82 ; use absolute distances for extrusion
G92 E0
; Filament gcode
M107
;LAYER_CHANGE
;Z:0.35
;HEIGHT:0.35
G1 Z.35 F7800
G1 E-2 F2400
G92 E0
G1 X104.122 Y119.413 F7800
G1 E2 F2400
;TYPE:Skirt/Brim
;WIDTH:0.42
G1 F1800
G1 X104.752 Y118.863 E2.04199
G1 X105.742 Y118.229 E2.10099
G1 X106.819 Y117.743 E2.16026
G1 X107.989 Y117.415 E2.22126
G1 X109.445 Y117.258 E2.29477
G1 X189.52 Y115.748 E6.31411
G1 X194.589 Y115.763 E6.56851
G1 X226.87 Y118.475 E8.19425
G1 X227.819 Y118.616 E8.2424
G1 X228.815 Y118.891 E8.29428
G1 X229.559 Y119.191 E8.33453
G1 X230.591 Y119.766 E8.39382
G1 X231.411 Y120.383 E8.44532
G1 X233.832 Y122.547 E8.60825
G1 X234.596 Y123.536 E8.67101
G1 X235.347 Y124.992 E8.75321
G1 X235.621 Y125.811 E8.79655
G1 X235.833 Y126.846 E8.84959
G1 X248.424 Y223.988 E13.76552
G1 X248.435 Y225.287 E13.83074
G1 X248.211 Y226.849 E13.90989
G1 X247.67 Y228.505 E13.99734
G1 X247.084 Y229.643 E14.0616
G1 X246.246 Y230.819 E14.13403
G1 X245.181 Y231.907 E14.21042
G1 X243.843 Y232.882 E14.29354
G1 X242.58 Y233.522 E14.36462
G1 X241.342 Y233.94 E14.43017
G1 X239.642 Y234.224 E14.51665
G1 X238.039 Y234.21 E14.5971
G1 X236.375 Y233.907 E14.68203
G1 X120.304 Y200.861 E20.73863
G1 X118.288 Y199.874 E20.85125
G1 X116.585 Y197.996 E20.97849
G1 X106.678 Y181.302 E21.95274
G1 X106.042 Y179.949 E22.02774
G1 X105.742 Y178.913 E22.08186
G1 X105.59 Y177.924 E22.1321
G1 X101.555 Y125.67 E24.76234
G1 X101.56 Y124.818 E24.80508
G1 X101.672 Y123.863 E24.85332
G1 X101.97 Y122.707 E24.91322
G1 X102.245 Y122.001 E24.95124
G1 X102.805 Y120.963 E25.01044
G1 X103.195 Y120.407 E25.04454
G1 X103.869 Y119.633 E25.09603
G1 X104.076 Y119.452 E25.10985
G1 E23.10985 F2400
G92 E0
G1 X140.181 Y160.963 F7800
G1 E2 F2400
;TYPE:Perimeter
G1 F1800
G1 X140.595 Y167.399 E2.32368
G1 X146.083 Y167.046 E2.5997
G1 X146.763 Y177.613 E3.13112
G1 X145.678 Y177.622 E3.18557
G1 X145.005 Y177.665 E3.2194
G1 X144.222 Y177.763 E3.25903
G1 X143.601 Y177.875 E3.29067
G1 X143.206 Y177.979 E3.31122
G1 X136.928 Y170.712 E3.79315
G1 X134.359 Y172.931 E3.96352
G1 X133.574 Y172.023 E4.02376
G1 X136.143 Y169.804 E4.19413
G1 X129.303 Y161.884 E4.71931
G1 X129.444 Y161.267 E4.75109
G1 X129.649 Y160.129 E4.80913
G1 X129.807 Y158.933 E4.86965
G1 X129.911 Y157.677 E4.93293
G1 X129.954 Y156.357 E4.99919
G1 X129.929 Y154.973 E5.06868
G1 X129.828 Y153.531 E5.14123
G1 X129.645 Y152.041 E5.21653
G1 X129.374 Y150.516 E5.29428
G1 X129.011 Y148.966 E5.37418
G1 X128.554 Y147.401 E5.45597
G1 X127.999 Y145.832 E5.53952
G1 X127.34 Y144.255 E5.62531
G1 X126.569 Y142.664 E5.71401
G1 X125.68 Y141.056 E5.80622
G1 X124.672 Y139.43 E5.90223
G1 X123.544 Y137.789 E6.00218
G1 X122.297 Y136.135 E6.10614
G1 X120.94 Y134.467 E6.21405
G1 X119.479 Y132.786 E6.32585
G1 X117.923 Y131.086 E6.44146
G1 X116.281 Y129.369 E6.56073
G1 X114.54 Y127.611 E6.68487
G1 X114.221 Y127.333 E6.70612
G1 X113.844 Y127.087 E6.7287
G1 X113.435 Y126.895 E6.75139
G1 X113.003 Y126.762 E6.77408
G1 X112.547 Y126.69 E6.79724
G1 X111.492 Y126.697 E6.85021
G1 X110.725 Y126.649 E6.88874
G1 X110.073 Y126.535 E6.92197
G1 X109.672 Y126.412 E6.94304
G1 X109.296 Y126.229 E6.96399
G1 X109.093 Y126.071 E6.97693
G1 X108.956 Y125.906 E6.98768
G1 X108.849 Y125.662 E7.00107
G1 X108.812 Y125.497 E7.00952
G1 X108.796 Y125.261 E7.02139
G1 X108.818 Y125.09 E7.03006
G1 X108.899 Y124.884 E7.04118
G1 X109.046 Y124.705 E7.05281
G1 X109.18 Y124.611 E7.06099
G1 X109.348 Y124.536 E7.07024
G1 X109.599 Y124.501 E7.08298
G1 X115.776 Y124.511 E7.39294
G1 X115.949 Y124.541 E7.40176
G1 X116.13 Y124.625 E7.41178
G1 X137.316 Y142.821 E8.81337
G1 X142.524 Y148.268 E9.19156
G1 X143.011 Y148.64 E9.22232
G1 X143.345 Y148.855 E9.24224
G1 X144.001 Y149.207 E9.27962
G1 X144.723 Y149.498 E9.31866
G1 X144.959 Y149.563 E9.33096
G1 X145.669 Y160.61 E9.88647
G1 X140.24 Y160.959 E10.15949
G1 X140.547 Y161.285 F7800
G1 F1800
G1 X140.917 Y167.033 E10.44854
G1 X146.405 Y166.68 E10.72457
G1 X147.132 Y177.973 E11.29251
G1 X146.521 Y177.949 E11.32318
G1 X145.693 Y177.966 E11.36475
G1 X145.038 Y178.009 E11.39769
G1 X144.274 Y178.104 E11.43633
G1 X143.676 Y178.211 E11.4668
G1 X143.085 Y178.368 E11.49747
G1 X136.893 Y171.199 E11.97292
G1 X134.324 Y173.418 E12.14328
G1 X133.088 Y171.987 E12.23815
G1 X135.657 Y169.768 E12.40851
G1 X128.928 Y161.978 E12.92516
G1 X129.106 Y161.198 E12.9653
G1 X129.309 Y160.076 E13.02252
G1 X129.464 Y158.897 E13.08222
G1 X129.567 Y157.657 E13.14463
G1 X129.609 Y156.355 E13.21002
G1 X129.584 Y154.988 E13.27863
G1 X129.484 Y153.564 E13.35028
G1 X129.304 Y152.093 E13.42466
G1 X129.036 Y150.586 E13.50148
G1 X128.678 Y149.053 E13.58044
G1 X128.226 Y147.507 E13.66128
G1 X127.677 Y145.956 E13.74386
G1 X127.025 Y144.397 E13.82868
G1 X126.263 Y142.823 E13.91644
G1 X125.383 Y141.23 E14.00776
G1 X124.383 Y139.619 E14.10292
G1 X123.264 Y137.99 E14.20208
G1 X122.026 Y136.347 E14.30534
G1 X120.676 Y134.69 E14.41265
G1 X119.221 Y133.015 E14.52395
G1 X117.671 Y131.322 E14.63915
G1 X116.033 Y129.609 E14.75809
G1 X114.304 Y127.863 E14.88143
G1 X114.012 Y127.608 E14.90085
G1 X113.676 Y127.389 E14.921
G1 X113.31 Y127.218 E14.94127
G1 X112.925 Y127.099 E14.96153
G1 X112.521 Y127.035 E14.98204
G1 X111.482 Y127.042 E15.03419
G1 X110.685 Y126.992 E15.07428
G1 X109.992 Y126.871 E15.10955
G1 X109.553 Y126.736 E15.13262
G1 X109.309 Y126.631 E15.14595
G1 X109.105 Y126.517 E15.15767
G1 X108.851 Y126.32 E15.17381
G1 X108.669 Y126.1 E15.18812
G1 X108.586 Y125.947 E15.19689
G1 X108.517 Y125.759 E15.20694
G1 X108.47 Y125.547 E15.21784
G1 X108.449 Y125.251 E15.23271
G1 X108.481 Y125.01 E15.24491
G1 X108.605 Y124.702 E15.2616
G1 X108.707 Y124.558 E15.27043
G1 X108.822 Y124.441 E15.27865
G1 X109.009 Y124.31 E15.29011
G1 X109.238 Y124.208 E15.30268
G1 X109.393 Y124.171 E15.31069
G1 X109.586 Y124.156 E15.32043
G1 X115.806 Y124.166 E15.63255
G1 X116.039 Y124.206 E15.64444
G1 X116.316 Y124.333 E15.65973
G1 X116.46 Y124.44 E15.66872
G1 X137.554 Y142.571 E17.06465
G1 X142.754 Y148.01 E17.44233
G1 X143.21 Y148.358 E17.47106
G1 X143.52 Y148.558 E17.48959
G1 X144.148 Y148.894 E17.52532
G1 X144.834 Y149.171 E17.56245
G1 X145.287 Y149.297 E17.58608
G1 X146.036 Y160.932 E18.17121
G1 X140.607 Y161.281 E18.44422
G1 X140.913 Y161.607 F7800
;TYPE:External perimeter
G1 F1800
G1 X141.239 Y166.666 E18.69866
G1 X146.727 Y166.313 E18.97468
G1 X147.5 Y178.333 E19.57914
G1 X146.518 Y178.294 E19.62849
G1 X145.708 Y178.311 E19.66915
G1 X145.07 Y178.352 E19.70121
G1 X144.326 Y178.445 E19.73887
G1 X143.751 Y178.548 E19.76816
G1 X142.965 Y178.757 E19.80895
G1 X136.857 Y171.685 E20.27792
G1 X134.288 Y173.904 E20.44828
G1 X132.602 Y171.952 E20.57776
G1 X135.171 Y169.733 E20.74813
G1 X128.552 Y162.071 E21.25623
G1 X128.768 Y161.129 E21.30473
G1 X128.968 Y160.023 E21.36114
G1 X129.121 Y158.86 E21.42001
G1 X129.222 Y157.637 E21.48156
G1 X129.264 Y156.352 E21.54608
G1 X129.239 Y155.003 E21.6138
G1 X129.141 Y153.597 E21.68456
G1 X128.962 Y152.144 E21.75802
G1 X128.698 Y150.655 E21.83391
G1 X128.344 Y149.141 E21.91193
G1 X127.897 Y147.613 E21.99182
G1 X127.355 Y146.08 E22.07343
G1 X126.711 Y144.538 E22.15729
G1 X125.956 Y142.982 E22.2441
G1 X125.085 Y141.405 E22.33452
G1 X124.095 Y139.807 E22.42885
G1 X122.984 Y138.192 E22.52722
G1 X121.754 Y136.56 E22.62977
G1 X120.412 Y134.912 E22.73648
G1 X118.964 Y133.245 E22.84728
G1 X117.419 Y131.558 E22.96207
G1 X115.786 Y129.85 E23.08067
G1 X114.068 Y128.114 E23.20323
G1 X113.804 Y127.884 E23.22081
G1 X113.508 Y127.691 E23.23854
G1 X113.186 Y127.54 E23.25638
G1 X112.846 Y127.436 E23.27421
G1 X112.495 Y127.38 E23.29207
G1 X111.472 Y127.387 E23.34339
G1 X110.644 Y127.335 E23.38506
G1 X109.912 Y127.207 E23.42235
G1 X109.434 Y127.061 E23.44743
G1 X109.156 Y126.941 E23.46261
G1 X108.914 Y126.806 E23.47655
G1 X108.61 Y126.569 E23.4959
G1 X108.383 Y126.294 E23.51377
G1 X108.271 Y126.089 E23.52548
G1 X108.185 Y125.856 E23.53798
G1 X108.128 Y125.596 E23.55133
G1 X108.103 Y125.241 E23.56919
G1 X108.143 Y124.93 E23.58494
G1 X108.241 Y124.652 E23.59972
G1 X108.442 Y124.336 E23.61851
G1 X108.598 Y124.177 E23.62965
G1 X108.838 Y124.009 E23.64438
G1 X109.127 Y123.879 E23.66028
G1 X109.34 Y123.83 E23.67125
G1 X109.573 Y123.811 E23.68299
G1 X115.835 Y123.821 E23.99727
G1 X116.129 Y123.872 E24.01224
G1 X116.32 Y123.943 E24.02246
G1 X116.502 Y124.042 E24.03284
G1 X116.675 Y124.17 E24.04368
G1 X137.792 Y142.32 E25.44107
G1 X142.985 Y147.753 E25.81824
G1 X143.408 Y148.075 E25.84495
G1 X143.695 Y148.26 E25.86209
G1 X144.294 Y148.581 E25.89618
G1 X144.945 Y148.844 E25.9314
G1 X145.616 Y149.03 E25.96635
G1 X146.402 Y161.254 E26.58109
G1 X140.973 Y161.603 E26.8541
G1 X140.553 Y161.78 F7800
G1 E24.8541 F2400
G92 E0
G1 X146.016 Y167.614 F7800
G1 E2 F2400
;TYPE:Solid infill
;WIDTH:0.420344
G1 F1800
G1 X145.73 Y167.328 E2.0203
G1 X145.272 Y167.357 E2.04339
G1 X145.883 Y167.969 E2.08685
G1 X145.917 Y168.491 E2.11312
G1 X144.813 Y167.387 E2.19156
G1 X144.354 Y167.416 E2.21465
G1 X145.951 Y169.013 E2.32807
G1 X145.984 Y169.535 E2.35433
G1 X143.895 Y167.446 E2.50272
G1 X143.437 Y167.475 E2.52581
G1 X146.018 Y170.056 E2.70918
G1 X146.051 Y170.578 E2.73544
G1 X142.978 Y167.505 E2.95378
G1 X142.519 Y167.534 E2.97687
G1 X146.085 Y171.1 E3.23018
G1 X146.118 Y171.622 E3.25645
G1 X142.061 Y167.564 E3.54474
G1 X141.602 Y167.593 E3.56783
G1 X146.152 Y172.143 E3.89109
G1 X146.185 Y172.665 E3.91736
G1 X140.997 Y167.477 E4.28597
G1 E2.28597 F2400
G92 E0
G1 X143.65 Y149.136 F7800
G1 E2 F2400
G1 F1800
G1 X144.742 Y150.228 E2.07758
G1 X144.776 Y150.75 E2.10385
G1 X136.404 Y142.378 E2.69861
G1 X132.929 Y139.391 E2.92884
G1 X144.81 Y151.272 E3.77292
G1 X144.843 Y151.794 E3.79918
G1 X129.453 Y136.403 E4.89256
G1 X125.977 Y133.416 E5.1228
G1 X144.877 Y152.315 E6.46549
G1 X144.91 Y152.837 E6.49176
G1 X122.502 Y130.429 E8.08376
G1 X119.026 Y127.441 E8.31399
G1 X144.944 Y153.359 E10.1553
G1 X144.977 Y153.881 E10.18157
G1 X115.904 Y124.807 E12.24707
G1 X115.745 Y124.77 E12.25526
G1 X115.378 Y124.77 E12.27371
G1 X145.011 Y154.403 E14.37895
G1 X145.044 Y154.924 E14.40522
G1 X114.89 Y124.77 E16.54752
G1 X114.402 Y124.77 E16.57204
G1 X145.078 Y155.446 E18.75139
G1 X145.112 Y155.968 E18.77766
G1 X113.914 Y124.77 E20.99408
G1 X113.426 Y124.77 E21.0186
G1 X145.145 Y156.49 E23.27207
G1 X145.179 Y157.012 E23.29834
G1 X112.938 Y124.771 E25.58887
G1 X112.45 Y124.771 E25.61339
G1 X145.212 Y157.533 E27.94098
G1 X145.246 Y158.055 E27.96725
G1 X111.962 Y124.771 E30.3319
G1 X111.474 Y124.771 E30.35642
G1 X113.279 Y126.577 E30.48469
G1 X113.061 Y126.51 E30.49614
G1 X112.66 Y126.446 E30.51654
G1 X110.986 Y124.771 E30.63552
G1 X110.497 Y124.771 E30.66004
G1 X112.16 Y126.434 E30.77815
G1 X111.675 Y126.437 E30.8025
G1 X110.009 Y124.772 E30.92084
G1 X109.521 Y124.772 E30.94536
G1 X111.167 Y126.418 E31.06231
G1 X110.632 Y126.37 E31.08933
G1 X109.194 Y124.933 E31.19147
G1 X109.125 Y125.016 E31.19693
G1 X109.071 Y125.155 E31.20439
G1 X109.057 Y125.284 E31.21091
G1 X110.23 Y126.457 E31.29429
G1 E29.29429 F2400
G92 E0
G1 X120.46 Y133.757 F7800
G1 E2 F2400
G1 F1800
G1 X145.279 Y158.577 E3.76329
G1 X145.313 Y159.099 E3.78956
G1 X123.455 Y137.241 E5.34244
G1 X123.754 Y137.638 E5.36741
G1 X124.613 Y138.887 E5.44353
G1 X145.346 Y159.62 E6.91656
G1 X145.38 Y160.142 E6.94283
G1 X125.48 Y140.243 E8.35658
G1 X125.904 Y140.925 E8.39693
G1 X126.186 Y141.437 E8.42628
G1 X145.134 Y160.385 E9.77245
G1 X144.676 Y160.414 E9.79554
G1 X126.789 Y142.528 E11.06629
G1 X127.251 Y143.478 E11.11935
G1 X144.217 Y160.444 E12.32471
G1 X143.758 Y160.473 E12.3478
G1 X127.678 Y144.393 E13.4902
G1 X128.029 Y145.232 E13.53588
G1 X143.3 Y160.503 E14.62077
G1 X142.841 Y160.532 E14.64386
G1 X128.346 Y146.038 E15.67361
G1 X128.614 Y146.793 E15.71386
G1 X142.382 Y160.562 E16.69204
G1 X141.923 Y160.591 E16.71513
G1 X128.861 Y147.529 E17.64314
G1 X129.063 Y148.219 E17.67924
G1 X141.465 Y160.621 E18.56035
G1 X141.006 Y160.65 E18.58344
G1 X129.263 Y148.908 E19.41767
G1 X129.412 Y149.545 E19.45055
G1 X140.547 Y160.68 E20.24161
G1 X140.088 Y160.709 E20.2647
G1 X129.562 Y150.183 E21.01258
G1 X129.686 Y150.795 E21.04401
G1 X139.926 Y161.035 E21.77149
G1 X139.96 Y161.557 E21.79776
G1 X129.792 Y151.389 E22.52014
G1 X129.897 Y151.983 E22.55043
G1 X139.993 Y162.079 E23.2677
G1 X140.027 Y162.601 E23.29396
G1 X129.967 Y152.541 E24.00868
G1 X130.035 Y153.097 E24.03684
G1 X140.06 Y163.123 E24.74909
G1 X140.094 Y163.644 E24.77536
G1 X130.095 Y153.645 E25.48573
G1 X130.132 Y154.17 E25.51217
G1 X140.127 Y164.166 E26.22232
G1 X140.161 Y164.688 E26.24858
G1 X130.168 Y154.695 E26.9585
G1 X130.192 Y155.207 E26.98422
G1 X140.195 Y165.21 E27.69488
G1 X140.228 Y165.731 E27.72115
G1 X130.201 Y155.704 E28.43354
G1 X130.21 Y156.201 E28.45853
G1 X140.262 Y166.253 E29.17266
G1 X140.295 Y166.775 E29.19892
G1 X130.202 Y156.682 E29.91597
G1 X130.187 Y157.155 E29.93974
G1 X140.329 Y167.297 E30.66026
G1 X140.353 Y167.674 E30.67923
G1 X140.684 Y167.652 E30.6959
G1 X146.219 Y173.187 E31.08911
G1 X146.253 Y173.709 E31.11538
G1 X130.172 Y157.628 E32.25784
G1 X130.137 Y158.082 E32.2807
G1 X146.286 Y174.231 E33.42798
G1 X146.32 Y174.752 E33.45425
G1 X130.1 Y158.533 E34.60656
G1 X130.062 Y158.983 E34.62925
G1 X146.353 Y175.274 E35.78666
G1 X146.387 Y175.796 E35.81293
G1 X130.005 Y159.414 E36.97678
G1 X129.948 Y159.845 E36.99863
G1 X146.42 Y176.318 E38.16891
G1 X146.454 Y176.84 E38.19518
G1 X129.886 Y160.272 E39.37221
G1 X129.812 Y160.686 E39.39332
G1 X146.483 Y177.357 E40.57771
G1 X145.998 Y177.361 E40.60204
G1 X129.737 Y161.099 E41.75732
G1 X129.655 Y161.505 E41.77812
G1 X145.522 Y177.373 E42.90541
G1 X145.064 Y177.402 E42.9285
G1 X130.272 Y162.61 E43.97939
G1 X133.368 Y166.195 E44.21733
G1 X144.625 Y177.452 E45.01709
G1 X144.191 Y177.506 E45.03908
G1 X136.464 Y169.779 E45.58802
G1 X136.508 Y169.83 E45.59143
G1 X136.25 Y170.053 E45.60857
G1 X136.734 Y170.538 E45.64298
G1 X136.955 Y170.347 E45.65761
G1 X139.56 Y173.363 E45.85781
G1 X143.777 Y177.58 E46.15739
G1 X143.375 Y177.667 E46.17803
G1 X141.15 Y175.442 E46.3361
G1 E44.3361 F2400
G92 E0
G1 X136.582 Y170.874 F7800
G1 E2 F2400
G1 F1800
G1 X135.988 Y170.28 E2.04223
G1 X135.726 Y170.506 E2.05962
G1 X136.21 Y170.99 E2.09403
G1 X135.949 Y171.217 E2.11142
G1 X135.464 Y170.732 E2.14583
G1 X135.202 Y170.958 E2.16322
G1 X135.687 Y171.443 E2.19763
G1 X135.425 Y171.669 E2.21502
G1 X134.94 Y171.185 E2.24943
G1 X134.678 Y171.411 E2.26682
G1 X135.163 Y171.895 E2.30123
G1 X134.901 Y172.122 E2.31862
G1 X134.416 Y171.637 E2.35303
G1 X134.154 Y171.864 E2.37042
G1 X134.749 Y172.458 E2.41264
G1 E.41264 F2400
G92 E0
G1 X135.276 Y175.607 F7800
G1 E2 F2400
;TYPE:Perimeter
;WIDTH:0.42
G1 F1800
G1 X139.144 Y180.084 E2.29691
G1 X138.114 Y180.932 E2.36384
G1 X135.385 Y183.485 E2.5514
G1 X134.742 Y184.052 E2.59443
G1 X133.976 Y184.681 E2.64416
G1 X133.03 Y185.376 E2.70309
G1 X132.111 Y185.941 E2.75722
G1 X131.213 Y186.397 E2.80776
G1 X130.343 Y186.747 E2.85483
G1 X129.101 Y187.121 E2.91992
G1 X128.72 Y187.301 E2.94106
G1 X128.373 Y187.523 E2.96175
G1 X128.078 Y187.77 E2.98104
G1 X122.941 Y192.659 E3.33695
G1 X122.941 Y189.52 E3.49452
G1 X122.911 Y189.095 E3.51589
G1 X122.815 Y188.651 E3.5387
G1 X122.656 Y188.222 E3.56165
G1 X122.44 Y187.821 E3.58453
G1 X122.167 Y187.453 E3.6075
G1 X121.847 Y187.129 E3.63037
G1 X121.483 Y186.852 E3.65333
G1 X121.077 Y186.625 E3.67666
G1 X119.915 Y186.208 E3.73861
G1 X119.374 Y185.97 E3.76829
G1 X118.664 Y185.58 E3.80894
G1 X118.159 Y185.225 E3.83994
G1 X117.72 Y184.841 E3.86916
G1 X117.342 Y184.429 E3.89726
G1 X117.017 Y183.984 E3.92492
G1 X116.74 Y183.5 E3.95289
G1 X116.507 Y182.962 E3.98229
