; generated by PrusaSlicer 2.5.0 on 2022-10-24 at 01:07:50 UTC

; 

; external perimeters extrusion width = 0.45mm
; perimeters extrusion width = 0.45mm
; infill extrusion width = 0.45mm
; solid infill extrusion width = 0.45mm
; top infill extrusion width = 0.40mm
; support material extrusion width = 0.35mm
; first layer extrusion width = 0.42mm

; external perimeters extrusion width = 0.45mm
; perimeters extrusion width = 0.45mm
; infill extrusion width = 0.45mm
; solid infill extrusion width = 0.45mm
; top infill extrusion width = 0.40mm
; support material extrusion width = 0.35mm
; first layer extrusion width = 0.42mm

M107
M190 S60 ; set bed temperature and wait for it to be reached
M104 S215 ; set temperature
;TYPE:Custom
G28 ; home all axes
G1 Z5 F5000 ; lift nozzle
M109 S215 ; set temperature and wait for it to be reached
G21 ; set units to millimeters
G90 ; use absolute coordinates
M82 ; use absolute distances for extrusion
G92 E0
; Filament gcode
M107
;LAYER_CHANGE
;Z:0.35
;HEIGHT:0.35
G1 Z.35 F7800
G1 E-2 F2400
G92 E0
G1 Z3.35 F7800
G1 X184.274 Y173.289
G1 Z.35
G1 E2 F2400
;TYPE:Skirt/Brim
;WIDTH:0.42
G1 F1800
G1 X185.908 Y171.654 E2.116
G1 X187.751 Y170.373 E2.22862
G1 X190.395 Y169.796 E2.36444
G1 X209.706 Y169.796 E3.33356
G1 X211.914 Y170.193 E3.44618
G1 X214.192 Y171.654 E3.582
G1 X215.826 Y173.289 E3.698
G1 X217.108 Y175.131 E3.81062
G1 X217.68 Y177.52 E3.93391
G1 X218.628 Y201.216 E5.12406
G1 X218.628 Y220.527 E6.09318
G1 X218.231 Y222.735 E6.2058
G1 X216.77 Y225.013 E6.34162
G1 X215.135 Y226.648 E6.45762
G1 X213.293 Y227.929 E6.57024
G1 X210.649 Y228.506 E6.70606
G1 X191.338 Y228.506 E7.67519
G1 X189.129 Y228.109 E7.78781
G1 X186.851 Y226.648 E7.92363
G1 X185.217 Y225.013 E8.03962
G1 X183.936 Y223.171 E8.15225
G1 X183.364 Y220.782 E8.27553
G1 X182.416 Y197.086 E9.46568
G1 X182.416 Y177.775 E10.43481
G1 X182.813 Y175.566 E10.54743
G1 X184.242 Y173.339 E10.68024
G1 E8.68024 F2400
G92 E0
G1 Z3.35 F7800
G1 X212.283 Y201.216
G1 Z.35
G1 E2 F2400
;TYPE:Support material
G1 F1800
G1 X212.283 Y220.527 E2.96912
G1 X210.649 Y222.161 E3.08512
G1 X191.338 Y222.161 E4.05424
G1 X189.704 Y220.527 E4.17024
G1 X189.704 Y201.216 E5.13936
G1 X191.338 Y199.582 E5.25535
G1 X210.649 Y199.582 E6.22448
G1 X212.246 Y201.179 E6.33788
G1 X210.989 Y200.141 F7800
G1 F1800
G1 X191.217 Y200.141 E7.33014
G1 X190.834 Y200.525 E7.35734
G1 X211.153 Y200.525 E8.37705
G1 X211.536 Y200.908 E8.40425
G1 X190.451 Y200.908 E9.46243
G1 X190.068 Y201.291 E9.48963
G1 X211.919 Y201.291 E10.58627
G1 X211.973 Y201.345 E10.59006
G1 X211.973 Y201.674 E10.60661
G1 X190.014 Y201.674 E11.70862
G1 X190.014 Y202.057 E11.72785
G1 X211.973 Y202.057 E12.82986
G1 X211.973 Y202.441 E12.84909
G1 X190.014 Y202.441 E13.9511
G1 X190.014 Y202.824 E13.97033
G1 X211.973 Y202.824 E15.07234
G1 X211.973 Y203.207 E15.09158
G1 X190.014 Y203.207 E16.19359
G1 X190.014 Y203.59 E16.21282
G1 X211.973 Y203.59 E17.31483
G1 X211.973 Y203.974 E17.33406
G1 X190.014 Y203.974 E18.43607
G1 X190.014 Y204.357 E18.4553
G1 X211.973 Y204.357 E19.55731
G1 X211.973 Y204.74 E19.57654
G1 X190.014 Y204.74 E20.67855
G1 X190.014 Y205.123 E20.69778
G1 X211.973 Y205.123 E21.79979
G1 X211.973 Y205.506 E21.81902
G1 X190.014 Y205.506 E22.92103
G1 X190.014 Y205.89 E22.94027
G1 X211.973 Y205.89 E24.04228
G1 X211.973 Y206.273 E24.06151
G1 X190.014 Y206.273 E25.16352
G1 X190.014 Y206.656 E25.18275
G1 X211.973 Y206.656 E26.28476
G1 X211.973 Y207.039 E26.30399
G1 X190.014 Y207.039 E27.406
G1 X190.014 Y207.422 E27.42523
G1 X211.973 Y207.422 E28.52724
G1 X211.973 Y207.806 E28.54647
G1 X190.014 Y207.806 E29.64848
G1 X190.014 Y208.189 E29.66771
G1 X211.973 Y208.189 E30.76972
G1 X211.973 Y208.572 E30.78896
G1 X190.014 Y208.572 E31.89097
G1 X190.014 Y208.955 E31.9102
G1 X211.973 Y208.955 E33.01221
G1 X211.973 Y209.338 E33.03144
G1 X190.014 Y209.338 E34.13345
G1 X190.014 Y209.722 E34.15268
G1 X211.973 Y209.722 E35.25469
G1 X211.973 Y210.105 E35.27392
G1 X190.014 Y210.105 E36.37593
G1 X190.014 Y210.488 E36.39516
G1 X211.973 Y210.488 E37.49717
G1 X211.973 Y210.871 E37.51641
G1 X190.014 Y210.871 E38.61841
G1 X190.014 Y211.255 E38.63765
G1 X211.973 Y211.255 E39.73966
G1 X211.973 Y211.638 E39.75889
G1 X190.014 Y211.638 E40.8609
G1 X190.014 Y212.021 E40.88013
G1 X211.973 Y212.021 E41.98214
G1 X211.973 Y212.404 E42.00137
G1 X190.014 Y212.404 E43.10338
G1 X190.014 Y212.787 E43.12261
G1 X211.973 Y212.787 E44.22462
G1 X211.973 Y213.171 E44.24385
G1 X190.014 Y213.171 E45.34586
G1 X190.014 Y213.554 E45.3651
G1 X211.973 Y213.554 E46.46711
G1 X211.973 Y213.937 E46.48634
G1 X190.014 Y213.937 E47.58835
G1 X190.014 Y214.32 E47.60758
G1 X211.973 Y214.32 E48.70959
G1 X211.973 Y214.703 E48.72882
G1 X190.014 Y214.703 E49.83083
G1 X190.014 Y215.087 E49.85006
G1 X211.973 Y215.087 E50.95207
G1 X211.973 Y215.47 E50.9713
G1 X190.014 Y215.47 E52.07331
G1 X190.014 Y215.853 E52.09254
G1 X211.973 Y215.853 E53.19455
G1 X211.973 Y216.236 E53.21379
G1 X190.014 Y216.236 E54.3158
G1 X190.014 Y216.619 E54.33503
G1 X211.973 Y216.619 E55.43704
G1 X211.973 Y217.003 E55.45627
G1 X190.014 Y217.003 E56.55828
G1 X190.014 Y217.386 E56.57751
G1 X211.973 Y217.386 E57.67952
G1 X211.973 Y217.769 E57.69875
G1 X190.014 Y217.769 E58.80076
G1 X190.014 Y218.152 E58.81999
G1 X211.973 Y218.152 E59.922
G1 X211.973 Y218.536 E59.94123
G1 X190.014 Y218.536 E61.04324
G1 X190.014 Y218.919 E61.06248
G1 X211.973 Y218.919 E62.16449
G1 X211.973 Y219.302 E62.18372
G1 X190.014 Y219.302 E63.28573
G1 X190.014 Y219.685 E63.30496
G1 X211.973 Y219.685 E64.40697
G1 X211.973 Y220.068 E64.4262
G1 X190.014 Y220.068 E65.52821
G1 X190.014 Y220.398 E65.54476
G1 X190.068 Y220.452 E65.54855
G1 X211.919 Y220.452 E66.64519
G1 X211.536 Y220.835 E66.67239
G1 X190.451 Y220.835 E67.73057
G1 X190.834 Y221.218 E67.75777
G1 X211.153 Y221.218 E68.77748
G1 X210.769 Y221.601 E68.80468
G1 X190.998 Y221.601 E69.79694
G1 E67.79694 F2400
G92 E0
G1 Z3.35 F7800
G1 X211.34 Y177.775
G1 Z.35
G1 E2 F2400
G1 F1800
G1 X211.34 Y197.086 E2.96912
G1 X209.706 Y198.72 E3.08512
G1 X190.395 Y198.72 E4.05424
G1 X188.761 Y197.086 E4.17024
G1 X188.761 Y177.775 E5.13936
G1 X190.395 Y176.141 E5.25535
G1 X209.706 Y176.141 E6.22448
G1 X211.303 Y177.739 E6.33788
G1 X210.046 Y176.701 F7800
G1 F1800
G1 X190.274 Y176.701 E7.33014
G1 X189.891 Y177.084 E7.35734
G1 X210.21 Y177.084 E8.37705
G1 X210.593 Y177.467 E8.40425
G1 X189.508 Y177.467 E9.46243
G1 X189.124 Y177.85 E9.48963
G1 X210.976 Y177.85 E10.58627
G1 X211.03 Y177.904 E10.59006
G1 X211.03 Y178.233 E10.60661
G1 X189.071 Y178.233 E11.70862
G1 X189.071 Y178.617 E11.72785
G1 X211.03 Y178.617 E12.82986
G1 X211.03 Y179 E12.84909
G1 X189.071 Y179 E13.9511
G1 X189.071 Y179.383 E13.97033
G1 X211.03 Y179.383 E15.07234
G1 X211.03 Y179.766 E15.09158
G1 X189.071 Y179.766 E16.19359
G1 X189.071 Y180.149 E16.21282
G1 X211.03 Y180.149 E17.31483
G1 X211.03 Y180.533 E17.33406
G1 X189.071 Y180.533 E18.43607
G1 X189.071 Y180.916 E18.4553
G1 X211.03 Y180.916 E19.55731
G1 X211.03 Y181.299 E19.57654
G1 X189.071 Y181.299 E20.67855
G1 X189.071 Y181.682 E20.69778
G1 X211.03 Y181.682 E21.79979
G1 X211.03 Y182.066 E21.81902
G1 X189.071 Y182.066 E22.92103
G1 X189.071 Y182.449 E22.94027
G1 X211.03 Y182.449 E24.04228
G1 X211.03 Y182.832 E24.06151
G1 X189.071 Y182.832 E25.16352
G1 X189.071 Y183.215 E25.18275
G1 X211.03 Y183.215 E26.28476
G1 X211.03 Y183.598 E26.30399
G1 X189.071 Y183.598 E27.406
G1 X189.071 Y183.982 E27.42523
G1 X211.03 Y183.982 E28.52724
G1 X211.03 Y184.365 E28.54647
G1 X189.071 Y184.365 E29.64848
G1 X189.071 Y184.748 E29.66771
G1 X211.03 Y184.748 E30.76972
G1 X211.03 Y185.131 E30.78896
G1 X189.071 Y185.131 E31.89097
G1 X189.071 Y185.514 E31.9102
G1 X211.03 Y185.514 E33.01221
G1 X211.03 Y185.898 E33.03144
G1 X189.071 Y185.898 E34.13345
G1 X189.071 Y186.281 E34.15268
G1 X211.03 Y186.281 E35.25469
G1 X211.03 Y186.664 E35.27392
G1 X189.071 Y186.664 E36.37593
G1 X189.071 Y187.047 E36.39516
G1 X211.03 Y187.047 E37.49717
G1 X211.03 Y187.43 E37.51641
G1 X189.071 Y187.43 E38.61841
G1 X189.071 Y187.814 E38.63765
G1 X211.03 Y187.814 E39.73966
G1 X211.03 Y188.197 E39.75889
G1 X189.071 Y188.197 E40.8609
G1 X189.071 Y188.58 E40.88013
G1 X211.03 Y188.58 E41.98214
G1 X211.03 Y188.963 E42.00137
G1 X189.071 Y188.963 E43.10338
G1 X189.071 Y189.347 E43.12261
G1 X211.03 Y189.347 E44.22462
G1 X211.03 Y189.73 E44.24385
G1 X189.071 Y189.73 E45.34586
G1 X189.071 Y190.113 E45.3651
G1 X211.03 Y190.113 E46.46711
G1 X211.03 Y190.496 E46.48634
G1 X189.071 Y190.496 E47.58835
G1 X189.071 Y190.879 E47.60758
G1 X211.03 Y190.879 E48.70959
G1 X211.03 Y191.263 E48.72882
G1 X189.071 Y191.263 E49.83083
G1 X189.071 Y191.646 E49.85006
G1 X211.03 Y191.646 E50.95207
G1 X211.03 Y192.029 E50.9713
G1 X189.071 Y192.029 E52.07331
G1 X189.071 Y192.412 E52.09254
G1 X211.03 Y192.412 E53.19455
G1 X211.03 Y192.795 E53.21379
G1 X189.071 Y192.795 E54.3158
G1 X189.071 Y193.179 E54.33503
G1 X211.03 Y193.179 E55.43704
G1 X211.03 Y193.562 E55.45627
G1 X189.071 Y193.562 E56.55828
G1 X189.071 Y193.945 E56.57751
G1 X211.03 Y193.945 E57.67952
G1 X211.03 Y194.328 E57.69875
G1 X189.071 Y194.328 E58.80076
G1 X189.071 Y194.711 E58.81999
G1 X211.03 Y194.711 E59.922
G1 X211.03 Y195.095 E59.94123
G1 X189.071 Y195.095 E61.04324
G1 X189.071 Y195.478 E61.06248
G1 X211.03 Y195.478 E62.16449
G1 X211.03 Y195.861 E62.18372
G1 X189.071 Y195.861 E63.28573
G1 X189.071 Y196.244 E63.30496
G1 X211.03 Y196.244 E64.40697
G1 X211.03 Y196.628 E64.4262
G1 X189.071 Y196.628 E65.52821
G1 X189.071 Y196.957 E65.54476
G1 X189.124 Y197.011 E65.54855
G1 X210.976 Y197.011 E66.64519
G1 X210.593 Y197.394 E66.67239
G1 X189.508 Y197.394 E67.73057
G1 X189.891 Y197.777 E67.75777
G1 X210.21 Y197.777 E68.77748
G1 X209.826 Y198.16 E68.80468
G1 X190.055 Y198.16 E69.79694
;LAYER_CHANGE
;Z:0.65
;HEIGHT:0.3
G1 Z.65 F7800
G1 E67.79694 F2400
G92 E0
G1 Z3.65 F7800
G1 X192.853 Y219.357
G1 Z.65
G1 E2 F2400
;TYPE:Support material interface
;WIDTH:0.35
G1 F3600
G1 X192.853 Y202.514 E2.59999
G1 X193.139 Y202.514 E2.61016
G1 X193.139 Y219.228 E3.20558
G1 X193.424 Y219.228 E3.21575
G1 X193.424 Y202.514 E3.81116
G1 X193.71 Y202.514 E3.82134
G1 X193.71 Y219.228 E4.41675
G1 X193.996 Y219.228 E4.42692
G1 X193.996 Y202.514 E5.02233
G1 X194.281 Y202.514 E5.03251
G1 X194.281 Y219.228 E5.62792
G1 X194.567 Y219.228 E5.63809
G1 X194.567 Y202.514 E6.23351
G1 X194.852 Y202.514 E6.24368
G1 X194.852 Y219.228 E6.83909
G1 X195.138 Y219.228 E6.84927
G1 X195.138 Y202.514 E7.44468
G1 X195.424 Y202.514 E7.45485
G1 X195.424 Y219.228 E8.05026
G1 X195.709 Y219.228 E8.06044
G1 X195.709 Y202.514 E8.65585
G1 X195.995 Y202.514 E8.66602
G1 X195.995 Y219.228 E9.26143
G1 X196.281 Y219.228 E9.27161
G1 X196.281 Y202.514 E9.86702
G1 X196.566 Y202.514 E9.8772
G1 X196.566 Y219.228 E10.47261
G1 X196.852 Y219.228 E10.48278
G1 X196.852 Y202.514 E11.07819
G1 X197.137 Y202.514 E11.08837
G1 X197.137 Y219.228 E11.68378
G1 X197.423 Y219.228 E11.69395
G1 X197.423 Y202.514 E12.28936
G1 X197.709 Y202.514 E12.29954
G1 X197.709 Y219.228 E12.89495
G1 X197.994 Y219.228 E12.90513
G1 X197.994 Y202.514 E13.50054
G1 X198.28 Y202.514 E13.51071
G1 X198.28 Y219.228 E14.10612
G1 X198.565 Y219.228 E14.1163
G1 X198.566 Y202.514 E14.71171
G1 X198.851 Y202.514 E14.72188
G1 X198.851 Y219.228 E15.31729
G1 X199.137 Y219.228 E15.32747
G1 X199.137 Y202.514 E15.92288
G1 X199.422 Y202.514 E15.93306
G1 X199.422 Y219.228 E16.52847
G1 X199.708 Y219.228 E16.53864
G1 X199.708 Y202.514 E17.13405
G1 X199.994 Y202.514 E17.14423
G1 X199.994 Y219.228 E17.73964
G1 X200.279 Y219.228 E17.74981
G1 X200.279 Y202.514 E18.34522
G1 X200.565 Y202.514 E18.3554
G1 X200.565 Y219.228 E18.95081
G1 X200.85 Y219.228 E18.96098
G1 X200.85 Y202.514 E19.5564
G1 X201.136 Y202.514 E19.56657
G1 X201.136 Y219.228 E20.16198
G1 X201.422 Y219.228 E20.17216
G1 X201.422 Y202.514 E20.76757
G1 X201.707 Y202.514 E20.77774
G1 X201.707 Y219.228 E21.37315
G1 X201.993 Y219.228 E21.38333
G1 X201.993 Y202.514 E21.97874
G1 X202.279 Y202.514 E21.98891
G1 X202.279 Y219.228 E22.58433
G1 X202.564 Y219.228 E22.5945
G1 X202.564 Y202.514 E23.18991
G1 X202.85 Y202.514 E23.20009
G1 X202.85 Y219.228 E23.7955
G1 X203.135 Y219.228 E23.80567
G1 X203.135 Y202.514 E24.40108
G1 X203.421 Y202.514 E24.41126
G1 X203.421 Y219.228 E25.00667
G1 X203.707 Y219.228 E25.01684
G1 X203.707 Y202.514 E25.61226
G1 X203.992 Y202.514 E25.62243
G1 X203.992 Y219.228 E26.21784
G1 X204.278 Y219.228 E26.22802
G1 X204.278 Y202.514 E26.82343
G1 X204.563 Y202.514 E26.8336
G1 X204.563 Y219.228 E27.42901
G1 X204.849 Y219.228 E27.43919
G1 X204.849 Y202.514 E28.0346
G1 X205.135 Y202.514 E28.04477
G1 X205.135 Y219.228 E28.64018
G1 X205.42 Y219.228 E28.65036
G1 X205.42 Y202.514 E29.24577
G1 X205.706 Y202.514 E29.25595
G1 X205.706 Y219.228 E29.85136
G1 X205.992 Y219.228 E29.86153
G1 X205.992 Y202.514 E30.45694
G1 X206.277 Y202.514 E30.46712
G1 X206.277 Y219.228 E31.06253
G1 X206.563 Y219.228 E31.0727
G1 X206.563 Y202.514 E31.66811
G1 X206.848 Y202.514 E31.67829
G1 X206.848 Y219.228 E32.2737
G1 X207.134 Y219.228 E32.28388
G1 X207.134 Y202.514 E32.87929
G1 X207.42 Y202.514 E32.88946
G1 X207.42 Y219.228 E33.48487
G1 X207.705 Y219.228 E33.49505
G1 X207.705 Y202.514 E34.09046
G1 X207.991 Y202.514 E34.10063
G1 X207.991 Y219.228 E34.69604
G1 X208.277 Y219.228 E34.70622
G1 X208.277 Y202.514 E35.30163
G1 X208.562 Y202.514 E35.3118
G1 X208.562 Y219.228 E35.90722
G1 X208.848 Y219.228 E35.91739
G1 X208.848 Y202.514 E36.5128
G1 X209.133 Y202.514 E36.52298
G1 X209.133 Y219.357 E37.12297
G1 E35.12297 F2400
G92 E0
G1 Z3.65 F7800
G1 X208.19 Y195.916
G1 Z.65
G1 E2 F2400
G1 F3600
G1 X208.19 Y179.074 E2.59999
G1 X207.905 Y179.074 E2.61016
G1 X207.905 Y195.787 E3.20558
G1 X207.619 Y195.787 E3.21575
G1 X207.619 Y179.074 E3.81116
G1 X207.333 Y179.074 E3.82134
G1 X207.333 Y195.787 E4.41675
G1 X207.048 Y195.787 E4.42692
G1 X207.048 Y179.074 E5.02233
G1 X206.762 Y179.074 E5.03251
G1 X206.762 Y195.787 E5.62792
G1 X206.477 Y195.787 E5.63809
G1 X206.477 Y179.074 E6.23351
G1 X206.191 Y179.074 E6.24368
G1 X206.191 Y195.787 E6.83909
G1 X205.905 Y195.787 E6.84927
G1 X205.905 Y179.074 E7.44468
G1 X205.62 Y179.074 E7.45485
G1 X205.62 Y195.787 E8.05026
G1 X205.334 Y195.787 E8.06044
G1 X205.334 Y179.074 E8.65585
G1 X205.049 Y179.074 E8.66602
G1 X205.049 Y195.787 E9.26143
G1 X204.763 Y195.787 E9.27161
G1 X204.763 Y179.074 E9.86702
G1 X204.477 Y179.074 E9.8772
G1 X204.477 Y195.787 E10.47261
G1 X204.192 Y195.787 E10.48278
G1 X204.192 Y179.074 E11.07819
G1 X203.906 Y179.074 E11.08837
G1 X203.906 Y195.787 E11.68378
G1 X203.62 Y195.787 E11.69395
G1 X203.62 Y179.074 E12.28936
G1 X203.335 Y179.074 E12.29954
G1 X203.335 Y195.787 E12.89495
G1 X203.049 Y195.787 E12.90513
G1 X203.049 Y179.074 E13.50054
G1 X202.764 Y179.074 E13.51071
G1 X202.764 Y195.787 E14.10612
G1 X202.478 Y195.787 E14.1163
G1 X202.478 Y179.074 E14.71171
G1 X202.192 Y179.074 E14.72188
G1 X202.192 Y195.787 E15.31729
G1 X201.907 Y195.787 E15.32747
G1 X201.907 Y179.074 E15.92288
G1 X201.621 Y179.074 E15.93306
G1 X201.621 Y195.787 E16.52847
G1 X201.335 Y195.787 E16.53864
G1 X201.335 Y179.074 E17.13405
G1 X201.05 Y179.074 E17.14423
G1 X201.05 Y195.787 E17.73964
G1 X200.764 Y195.787 E17.74981
G1 X200.764 Y179.074 E18.34522
G1 X200.479 Y179.074 E18.3554
G1 X200.479 Y195.787 E18.95081
G1 X200.193 Y195.787 E18.96098
G1 X200.193 Y179.074 E19.5564
G1 X199.907 Y179.074 E19.56657
G1 X199.907 Y195.787 E20.16198
G1 X199.622 Y195.787 E20.17216
G1 X199.622 Y179.074 E20.76757
G1 X199.336 Y179.074 E20.77774
G1 X199.336 Y195.787 E21.37315
G1 X199.051 Y195.787 E21.38333
G1 X199.051 Y179.074 E21.97874
G1 X198.765 Y179.074 E21.98891
G1 X198.765 Y195.787 E22.58433
G1 X198.479 Y195.787 E22.5945
G1 X198.479 Y179.074 E23.18991
G1 X198.194 Y179.074 E23.20009
G1 X198.194 Y195.787 E23.7955
G1 X197.908 Y195.787 E23.80567
G1 X197.908 Y179.074 E24.40108
G1 X197.622 Y179.074 E24.41126
G1 X197.622 Y195.787 E25.00667
G1 X197.337 Y195.787 E25.01684
G1 X197.337 Y179.074 E25.61226
G1 X197.051 Y179.074 E25.62243
G1 X197.051 Y195.787 E26.21784
G1 X196.766 Y195.787 E26.22802
G1 X196.766 Y179.074 E26.82343
G1 X196.48 Y179.074 E26.8336
G1 X196.48 Y195.787 E27.42901
