; generated by PrusaSlicer 2.5.0 on 2022-10-16 at 15:48:25 UTC

; 

; external perimeters extrusion width = 0.45mm
; perimeters extrusion width = 0.45mm
; infill extrusion width = 0.45mm
; solid infill extrusion width = 0.45mm
; top infill extrusion width = 0.40mm
; support material extrusion width = 0.35mm
; first layer extrusion width = 0.42mm

M107
M190 S60 ; set bed temperature and wait for it to be reached
M104 S215 ; set temperature
;TYPE:Custom
G28 ; home all axes
G1 Z5 F5000 ; lift nozzle
M109 S215 ; set temperature and wait for it to be reached
G21 ; set units to millimeters
G90 ; use absolute coordinates
M82 ; use absolute distances for extrusion
G92 E0
; Filament gcode
M107
;LAYER_CHANGE
;Z:0.35
;HEIGHT:0.35
G1 Z.35 F7800
G1 E-2 F2400
G92 E0
G1 Z3.35 F7800
G1 X168.834 Y90.639
G1 Z.35
G1 E2 F2400
;TYPE:Skirt/Brim
;WIDTH:0.42
G1 F1800
G1 X170.296 Y88.361 E2.13582
G1 X171.93 Y86.727 E2.25182
G1 X173.772 Y85.446 E2.36444
G1 X176.417 Y84.869 E2.50026
G1 X223.583 Y84.869 E4.86737
G1 X225.792 Y85.266 E4.97999
G1 X228.07 Y86.727 E5.11581
G1 X229.704 Y88.361 E5.23181
G1 X230.985 Y90.204 E5.34443
G1 X231.563 Y92.848 E5.48025
G1 X231.563 Y307.152 E16.2353
G1 X231.166 Y309.361 E16.34792
G1 X229.704 Y311.639 E16.48374
G1 X228.07 Y313.273 E16.59973
G1 X226.228 Y314.554 E16.71236
G1 X223.583 Y315.131 E16.84818
G1 X176.417 Y315.131 E19.21529
G1 X174.208 Y314.734 E19.32791
G1 X171.93 Y313.273 E19.46373
G1 X170.296 Y311.639 E19.57973
G1 X169.015 Y309.796 E19.69235
G1 X168.437 Y307.152 E19.82817
G1 X168.437 Y92.848 E30.58321
G1 X168.824 Y90.698 E30.69282
G1 E28.69282 F2400
G92 E0
G1 Z3.35 F7800
G1 X225.218 Y92.848
G1 Z.35
G1 E2 F2400
;TYPE:Support material
G1 F1800
G1 X225.218 Y307.152 E12.75504
G1 X223.583 Y308.786 E12.87104
G1 X176.417 Y308.786 E15.23815
G1 X174.782 Y307.152 E15.35414
G1 X174.782 Y92.848 E26.10919
G1 X176.417 Y91.214 E26.22518
G1 X223.583 Y91.214 E28.59229
G1 X225.181 Y92.811 E28.70569
G1 X223.702 Y91.552 F7800
G1 F1800
G1 X176.518 Y91.552 E31.07368
G1 X176.134 Y91.935 E31.10087
G1 X223.866 Y91.935 E33.4963
G1 X224.249 Y92.318 E33.5235
G1 X175.751 Y92.318 E35.9574
G1 X175.368 Y92.701 E35.98459
G1 X224.632 Y92.701 E38.45695
G1 X224.907 Y92.977 E38.4765
G1 X224.907 Y93.084 E38.48191
G1 X175.093 Y93.084 E40.98191
G1 X175.093 Y93.468 E41.00114
G1 X224.907 Y93.468 E43.50114
G1 X224.907 Y93.851 E43.52037
G1 X175.093 Y93.851 E46.02037
G1 X175.093 Y94.234 E46.0396
G1 X224.907 Y94.234 E48.5396
G1 X224.907 Y94.617 E48.55883
G1 X175.093 Y94.617 E51.05883
G1 X175.093 Y95 E51.07806
G1 X224.907 Y95 E53.57806
G1 X224.907 Y95.384 E53.59729
G1 X175.093 Y95.384 E56.09729
G1 X175.093 Y95.767 E56.11652
G1 X224.907 Y95.767 E58.61652
G1 X224.907 Y96.15 E58.63575
G1 X175.093 Y96.15 E61.13575
G1 X175.093 Y96.533 E61.15498
G1 X224.907 Y96.533 E63.65498
G1 X224.907 Y96.917 E63.67421
G1 X175.093 Y96.917 E66.17421
G1 X175.093 Y97.3 E66.19344
G1 X224.907 Y97.3 E68.69344
G1 X224.907 Y97.683 E68.71267
G1 X175.093 Y97.683 E71.21267
G1 X175.093 Y98.066 E71.2319
G1 X224.907 Y98.066 E73.7319
G1 X224.907 Y98.449 E73.75113
G1 X175.093 Y98.449 E76.25113
G1 X175.093 Y98.833 E76.27036
G1 X224.907 Y98.833 E78.77036
G1 X224.907 Y99.216 E78.78959
G1 X175.093 Y99.216 E81.28959
G1 X175.093 Y99.599 E81.30882
G1 X224.907 Y99.599 E83.80882
G1 X224.907 Y99.982 E83.82805
G1 X175.093 Y99.982 E86.32805
G1 X175.093 Y100.365 E86.34728
G1 X224.907 Y100.365 E88.84728
G1 X224.907 Y100.749 E88.86651
G1 X175.093 Y100.749 E91.36651
G1 X175.093 Y101.132 E91.38574
G1 X224.907 Y101.132 E93.88574
G1 X224.907 Y101.515 E93.90497
G1 X175.093 Y101.515 E96.40497
G1 X175.093 Y101.898 E96.4242
G1 X224.907 Y101.898 E98.9242
G1 X224.907 Y102.281 E98.94343
G1 X175.093 Y102.281 E101.44343
G1 X175.093 Y102.665 E101.46266
G1 X224.907 Y102.665 E103.96266
G1 X224.907 Y103.048 E103.98189
G1 X175.093 Y103.048 E106.48189
G1 X175.093 Y103.431 E106.50112
G1 X224.907 Y103.431 E109.00112
G1 X224.907 Y103.814 E109.02035
G1 X175.093 Y103.814 E111.52035
G1 X175.093 Y104.197 E111.53958
G1 X224.907 Y104.198 E114.03958
G1 X224.907 Y104.581 E114.05881
G1 X175.093 Y104.581 E116.55881
G1 X175.093 Y104.964 E116.57804
G1 X224.907 Y104.964 E119.07804
G1 X224.907 Y105.347 E119.09727
G1 X175.093 Y105.347 E121.59727
G1 X175.093 Y105.73 E121.6165
G1 X224.907 Y105.73 E124.1165
G1 X224.907 Y106.114 E124.13573
G1 X175.093 Y106.114 E126.63573
G1 X175.093 Y106.497 E126.65496
G1 X224.907 Y106.497 E129.15496
G1 X224.907 Y106.88 E129.17419
G1 X175.093 Y106.88 E131.67419
G1 X175.093 Y107.263 E131.69342
G1 X224.907 Y107.263 E134.19342
G1 X224.907 Y107.646 E134.21265
G1 X175.093 Y107.646 E136.71265
G1 X175.093 Y108.03 E136.73188
G1 X224.907 Y108.03 E139.23188
G1 X224.907 Y108.413 E139.25111
G1 X175.093 Y108.413 E141.75111
G1 X175.093 Y108.796 E141.77034
G1 X224.907 Y108.796 E144.27034
G1 X224.907 Y109.179 E144.28957
G1 X175.093 Y109.179 E146.78957
G1 X175.093 Y109.562 E146.8088
G1 X224.907 Y109.562 E149.3088
G1 X224.907 Y109.946 E149.32803
G1 X175.093 Y109.946 E151.82803
G1 X175.093 Y110.329 E151.84726
G1 X224.907 Y110.329 E154.34726
G1 X224.907 Y110.712 E154.36649
G1 X175.093 Y110.712 E156.86649
G1 X175.093 Y111.095 E156.88572
G1 X224.907 Y111.095 E159.38572
G1 X224.907 Y111.478 E159.40495
G1 X175.093 Y111.478 E161.90495
G1 X175.093 Y111.862 E161.92418
G1 X224.907 Y111.862 E164.42418
G1 X224.907 Y112.245 E164.44341
G1 X175.093 Y112.245 E166.94341
G1 X175.093 Y112.628 E166.96264
G1 X224.907 Y112.628 E169.46264
G1 X224.907 Y113.011 E169.48187
G1 X175.093 Y113.011 E171.98187
G1 X175.093 Y113.395 E172.0011
G1 X224.907 Y113.395 E174.5011
G1 X224.907 Y113.778 E174.52033
G1 X175.093 Y113.778 E177.02033
G1 X175.093 Y114.161 E177.03956
G1 X224.907 Y114.161 E179.53956
G1 X224.907 Y114.544 E179.55879
G1 X175.093 Y114.544 E182.05879
G1 X175.093 Y114.927 E182.07802
G1 X224.907 Y114.927 E184.57802
G1 X224.907 Y115.311 E184.59725
G1 X175.093 Y115.311 E187.09725
G1 X175.093 Y115.694 E187.11648
G1 X224.907 Y115.694 E189.61648
G1 X224.907 Y116.077 E189.63571
G1 X175.093 Y116.077 E192.13571
G1 X175.093 Y116.46 E192.15494
G1 X224.907 Y116.46 E194.65494
G1 X224.907 Y116.843 E194.67417
G1 X175.093 Y116.843 E197.17417
G1 X175.093 Y117.227 E197.1934
G1 X224.907 Y117.227 E199.6934
G1 X224.907 Y117.61 E199.71263
G1 X175.093 Y117.61 E202.21263
G1 X175.093 Y117.993 E202.23186
G1 X224.907 Y117.993 E204.73186
G1 X224.907 Y118.376 E204.75109
G1 X175.093 Y118.376 E207.25109
G1 X175.093 Y118.759 E207.27032
G1 X224.907 Y118.759 E209.77032
G1 X224.907 Y119.143 E209.78955
G1 X175.093 Y119.143 E212.28955
G1 X175.093 Y119.526 E212.30878
G1 X224.907 Y119.526 E214.80878
G1 X224.907 Y119.909 E214.82801
G1 X175.093 Y119.909 E217.32801
G1 X175.093 Y120.292 E217.34724
G1 X224.907 Y120.292 E219.84724
G1 X224.907 Y120.676 E219.86647
G1 X175.093 Y120.676 E222.36647
G1 X175.093 Y121.059 E222.3857
G1 X224.907 Y121.059 E224.8857
G1 X224.907 Y121.442 E224.90493
G1 X175.093 Y121.442 E227.40493
G1 X175.093 Y121.825 E227.42416
G1 X224.907 Y121.825 E229.92416
G1 X224.907 Y122.208 E229.94339
G1 X175.093 Y122.208 E232.44339
G1 X175.093 Y122.592 E232.46262
G1 X224.907 Y122.592 E234.96262
G1 X224.907 Y122.975 E234.98185
G1 X175.093 Y122.975 E237.48185
G1 X175.093 Y123.358 E237.50108
G1 X224.907 Y123.358 E240.00108
G1 X224.907 Y123.741 E240.02031
G1 X175.093 Y123.741 E242.52031
G1 X175.093 Y124.124 E242.53954
G1 X224.907 Y124.124 E245.03954
G1 X224.907 Y124.508 E245.05877
G1 X175.093 Y124.508 E247.55877
G1 X175.093 Y124.891 E247.578
G1 X224.907 Y124.891 E250.078
G1 X224.907 Y125.274 E250.09723
G1 X175.093 Y125.274 E252.59723
G1 X175.093 Y125.657 E252.61646
G1 X224.907 Y125.657 E255.11646
G1 X224.907 Y126.04 E255.13569
G1 X175.093 Y126.04 E257.63569
G1 X175.093 Y126.424 E257.65492
G1 X224.907 Y126.424 E260.15492
G1 X224.907 Y126.807 E260.17415
G1 X175.093 Y126.807 E262.67415
G1 X175.093 Y127.19 E262.69338
G1 X224.907 Y127.19 E265.19338
G1 X224.907 Y127.573 E265.21261
G1 X175.093 Y127.573 E267.71261
G1 X175.093 Y127.957 E267.73184
G1 X224.907 Y127.957 E270.23184
G1 X224.907 Y128.34 E270.25107
G1 X175.093 Y128.34 E272.75107
G1 X175.093 Y128.723 E272.7703
G1 X224.907 Y128.723 E275.2703
G1 X224.907 Y129.106 E275.28953
G1 X175.093 Y129.106 E277.78953
G1 X175.093 Y129.489 E277.80876
G1 X224.907 Y129.489 E280.30876
G1 X224.907 Y129.873 E280.32799
G1 X175.093 Y129.873 E282.82799
G1 X175.093 Y130.256 E282.84722
G1 X224.907 Y130.256 E285.34722
G1 X224.907 Y130.639 E285.36645
G1 X175.093 Y130.639 E287.86645
G1 X175.093 Y131.022 E287.88568
G1 X224.907 Y131.022 E290.38568
G1 X224.907 Y131.405 E290.40491
G1 X175.093 Y131.405 E292.90491
G1 X175.093 Y131.789 E292.92414
G1 X224.907 Y131.789 E295.42414
G1 X224.907 Y132.172 E295.44337
G1 X175.093 Y132.172 E297.94337
G1 X175.093 Y132.555 E297.9626
G1 X224.907 Y132.555 E300.4626
G1 X224.907 Y132.938 E300.48183
G1 X175.093 Y132.938 E302.98183
G1 X175.093 Y133.321 E303.00106
G1 X224.907 Y133.321 E305.50106
G1 X224.907 Y133.705 E305.52029
G1 X175.093 Y133.705 E308.02029
G1 X175.093 Y134.088 E308.03952
G1 X224.907 Y134.088 E310.53952
G1 X224.907 Y134.471 E310.55875
G1 X175.093 Y134.471 E313.05875
G1 X175.093 Y134.854 E313.07798
G1 X224.907 Y134.854 E315.57798
G1 X224.907 Y135.238 E315.59721
G1 X175.093 Y135.238 E318.09721
G1 X175.093 Y135.621 E318.11644
G1 X224.907 Y135.621 E320.61644
G1 X224.907 Y136.004 E320.63567
G1 X175.093 Y136.004 E323.13567
G1 X175.093 Y136.387 E323.1549
G1 X224.907 Y136.387 E325.6549
G1 X224.907 Y136.77 E325.67413
G1 X175.093 Y136.77 E328.17413
G1 X175.093 Y137.154 E328.19336
G1 X224.907 Y137.154 E330.69336
G1 X224.907 Y137.537 E330.71259
G1 X175.093 Y137.537 E333.21259
G1 X175.093 Y137.92 E333.23182
G1 X224.907 Y137.92 E335.73182
G1 X224.907 Y138.303 E335.75105
G1 X175.093 Y138.303 E338.25105
G1 X175.093 Y138.686 E338.27028
G1 X224.907 Y138.686 E340.77028
G1 X224.907 Y139.07 E340.78951
G1 X175.093 Y139.07 E343.28951
G1 X175.093 Y139.453 E343.30874
G1 X224.907 Y139.453 E345.80874
G1 X224.907 Y139.836 E345.82797
G1 X175.093 Y139.836 E348.32797
G1 X175.093 Y140.219 E348.3472
G1 X224.907 Y140.219 E350.8472
G1 X224.907 Y140.602 E350.86643
G1 X175.093 Y140.602 E353.36643
G1 X175.093 Y140.986 E353.38566
G1 X224.907 Y140.986 E355.88566
G1 X224.907 Y141.369 E355.90489
G1 X175.093 Y141.369 E358.40489
G1 X175.093 Y141.752 E358.42412
G1 X224.907 Y141.752 E360.92412
G1 X224.907 Y142.135 E360.94335
G1 X175.093 Y142.135 E363.44335
G1 X175.093 Y142.518 E363.46258
G1 X224.907 Y142.519 E365.96258
G1 X224.907 Y142.902 E365.98181
G1 X175.093 Y142.902 E368.48181
G1 X175.093 Y143.285 E368.50104
G1 X224.907 Y143.285 E371.00104
G1 X224.907 Y143.668 E371.02027
G1 X175.093 Y143.668 E373.52027
G1 X175.093 Y144.051 E373.5395
G1 X224.907 Y144.051 E376.0395
G1 X224.907 Y144.435 E376.05873
G1 X175.093 Y144.435 E378.55873
G1 X175.093 Y144.818 E378.57796
G1 X224.907 Y144.818 E381.07796
G1 X224.907 Y145.201 E381.09719
G1 X175.093 Y145.201 E383.59719
G1 X175.093 Y145.584 E383.61642
G1 X224.907 Y145.584 E386.11642
G1 X224.907 Y145.967 E386.13565
G1 X175.093 Y145.967 E388.63565
G1 X175.093 Y146.351 E388.65488
G1 X224.907 Y146.351 E391.15488
G1 X224.907 Y146.734 E391.17411
G1 X175.093 Y146.734 E393.67411
G1 X175.093 Y147.117 E393.69334
G1 X224.907 Y147.117 E396.19334
G1 X224.907 Y147.5 E396.21257
G1 X175.093 Y147.5 E398.71257
G1 X175.093 Y147.883 E398.7318
G1 X224.907 Y147.883 E401.2318
G1 X224.907 Y148.267 E401.25103
G1 X175.093 Y148.267 E403.75103
G1 X175.093 Y148.65 E403.77026
G1 X224.907 Y148.65 E406.27026
G1 X224.907 Y149.033 E406.28949
G1 X175.093 Y149.033 E408.78949
G1 X175.093 Y149.416 E408.80872
G1 X224.907 Y149.416 E411.30872
G1 X224.907 Y149.799 E411.32795
G1 X175.093 Y149.799 E413.82795
G1 X175.093 Y150.183 E413.84718
G1 X224.907 Y150.183 E416.34718
G1 X224.907 Y150.566 E416.36641
G1 X175.093 Y150.566 E418.86641
G1 X175.093 Y150.949 E418.88564
G1 X224.907 Y150.949 E421.38564
G1 X224.907 Y151.332 E421.40487
G1 X175.093 Y151.332 E423.90487
G1 X175.093 Y151.716 E423.9241
G1 X224.907 Y151.716 E426.4241
G1 X224.907 Y152.099 E426.44333
G1 X175.093 Y152.099 E428.94333
G1 X175.093 Y152.482 E428.96256
G1 X224.907 Y152.482 E431.46256
G1 X224.907 Y152.865 E431.48179
G1 X175.093 Y152.865 E433.98179
G1 X175.093 Y153.248 E434.00102
G1 X224.907 Y153.248 E436.50102
G1 X224.907 Y153.632 E436.52025
G1 X175.093 Y153.632 E439.02025
G1 X175.093 Y154.015 E439.03948
G1 X224.907 Y154.015 E441.53948
G1 X224.907 Y154.398 E441.55871
G1 X175.093 Y154.398 E444.05871
G1 X175.093 Y154.781 E444.07794
G1 X224.907 Y154.781 E446.57794
G1 X224.907 Y155.164 E446.59717
G1 X175.093 Y155.164 E449.09717
G1 X175.093 Y155.548 E449.1164
G1 X224.907 Y155.548 E451.6164
G1 X224.907 Y155.931 E451.63563
G1 X175.093 Y155.931 E454.13563
G1 X175.093 Y156.314 E454.15486
G1 X224.907 Y156.314 E456.65486
G1 X224.907 Y156.697 E456.67409
G1 X175.093 Y156.697 E459.17409
G1 X175.093 Y157.08 E459.19332
G1 X224.907 Y157.08 E461.69332
G1 X224.907 Y157.464 E461.71255
G1 X175.093 Y157.464 E464.21255
G1 X175.093 Y157.847 E464.23178
G1 X224.907 Y157.847 E466.73178
G1 X224.907 Y158.23 E466.75101
G1 X175.093 Y158.23 E469.25101
G1 X175.093 Y158.613 E469.27024
G1 X224.907 Y158.613 E471.77024
G1 X224.907 Y158.997 E471.78947
G1 X175.093 Y158.997 E474.28947
G1 X175.093 Y159.38 E474.3087
G1 X224.907 Y159.38 E476.8087
G1 X224.907 Y159.763 E476.82793
G1 X175.093 Y159.763 E479.32793
G1 X175.093 Y160.146 E479.34716
G1 X224.907 Y160.146 E481.84716
G1 X224.907 Y160.529 E481.86639
G1 X175.093 Y160.529 E484.36639
G1 X175.093 Y160.913 E484.38562
G1 X224.907 Y160.913 E486.88562
G1 X224.907 Y161.296 E486.90485
G1 X175.093 Y161.296 E489.40485
G1 X175.093 Y161.679 E489.42408
G1 X224.907 Y161.679 E491.92408
G1 X224.907 Y162.062 E491.94331
G1 X175.093 Y162.062 E494.44331
G1 X175.093 Y162.445 E494.46254
G1 X224.907 Y162.445 E496.96254
G1 X224.907 Y162.829 E496.98177
G1 X175.093 Y162.829 E499.48177
G1 X175.093 Y163.212 E499.501
G1 X224.907 Y163.212 E502.001
G1 X224.907 Y163.595 E502.02023
G1 X175.093 Y163.595 E504.52023
G1 X175.093 Y163.978 E504.53946
G1 X224.907 Y163.978 E507.03946
G1 X224.907 Y164.361 E507.05869
G1 X175.093 Y164.361 E509.55869
G1 X175.093 Y164.745 E509.57792
G1 X224.907 Y164.745 E512.07792
G1 X224.907 Y165.128 E512.09715
G1 X175.093 Y165.128 E514.59715
G1 X175.093 Y165.511 E514.61638
G1 X224.907 Y165.511 E517.11638
G1 X224.907 Y165.894 E517.13561
G1 X175.093 Y165.894 E519.63561
G1 X175.093 Y166.278 E519.65484
G1 X224.907 Y166.278 E522.15484
G1 X224.907 Y166.661 E522.17407
G1 X175.093 Y166.661 E524.67407
G1 X175.093 Y167.044 E524.6933
G1 X224.907 Y167.044 E527.1933
G1 X224.907 Y167.427 E527.21253
G1 X175.093 Y167.427 E529.71253
G1 X175.093 Y167.81 E529.73176
G1 X224.907 Y167.81 E532.23176
G1 X224.907 Y168.194 E532.25099
G1 X175.093 Y168.194 E534.75099
G1 X175.093 Y168.577 E534.77022
G1 X224.907 Y168.577 E537.27022
G1 X224.907 Y168.96 E537.28945
G1 X175.093 Y168.96 E539.78945
G1 X175.093 Y169.343 E539.80868
G1 X224.907 Y169.343 E542.30868
G1 X224.907 Y169.726 E542.32791
G1 X175.093 Y169.726 E544.82791
G1 X175.093 Y170.11 E544.84714
G1 X224.907 Y170.11 E547.34714
G1 X224.907 Y170.493 E547.36637
G1 X175.093 Y170.493 E549.86637
G1 X175.093 Y170.876 E549.8856
G1 X224.907 Y170.876 E552.3856
G1 X224.907 Y171.259 E552.40483
G1 X175.093 Y171.259 E554.90483
G1 X175.093 Y171.642 E554.92406
G1 X224.907 Y171.642 E557.42406
G1 X224.907 Y172.026 E557.44329
G1 X175.093 Y172.026 E559.94329
G1 X175.093 Y172.409 E559.96252
G1 X224.907 Y172.409 E562.46252
G1 X224.907 Y172.792 E562.48175
G1 X175.093 Y172.792 E564.98175
G1 X175.093 Y173.175 E565.00098
G1 X224.907 Y173.175 E567.50098
G1 X224.907 Y173.559 E567.52021
G1 X175.093 Y173.559 E570.02021
G1 X175.093 Y173.942 E570.03944
G1 X224.907 Y173.942 E572.53944
G1 X224.907 Y174.325 E572.55867
G1 X175.093 Y174.325 E575.05867
G1 X175.093 Y174.708 E575.0779
G1 X224.907 Y174.708 E577.5779
G1 X224.907 Y175.091 E577.59713
G1 X175.093 Y175.091 E580.09713
G1 X175.093 Y175.475 E580.11636
G1 X224.907 Y175.475 E582.61636
G1 X224.907 Y175.858 E582.63559
G1 X175.093 Y175.858 E585.13559
G1 X175.093 Y176.241 E585.15482
G1 X224.907 Y176.241 E587.65482
G1 X224.907 Y176.624 E587.67405
