; generated by PrusaSlicer 2.4.2 on 2022-08-30 at 19:31:13 UTC

; 

; external perimeters extrusion width = 0.45mm
; perimeters extrusion width = 0.45mm
; infill extrusion width = 0.45mm
; solid infill extrusion width = 0.45mm
; top infill extrusion width = 0.40mm
; support material extrusion width = 0.35mm
; first layer extrusion width = 0.42mm

M107
M190 S60 ; set bed temperature and wait for it to be reached
M104 S215 ; set temperature
;TYPE:Custom
G28 ; home all axes
G1 Z5 F5000 ; lift nozzle
M109 S215 ; set temperature and wait for it to be reached
G21 ; set units to millimeters
G90 ; use absolute coordinates
M82 ; use absolute distances for extrusion
G92 E0
; Filament gcode
M107
;LAYER_CHANGE
;Z:0.35
;HEIGHT:0.35
G1 Z.35 F7800
G1 E-2 F2400
G92 E0
G1 Z3.35 F7800
G1 X173.081 Y171.93
G1 Z.35
G1 E2 F2400
;TYPE:Skirt/Brim
;WIDTH:0.42
G1 F1800
G1 X177.501 Y167.51 E2.3137
G1 X179.344 Y166.229 E2.42632
G1 X181.988 Y165.652 E2.56214
G1 X218.012 Y165.652 E4.37006
G1 X220.221 Y166.049 E4.48268
G1 X222.499 Y167.51 E4.6185
G1 X226.919 Y171.93 E4.9322
G1 X228.2 Y173.772 E5.04482
G1 X228.728 Y175.63 E5.14172
G1 X231.514 Y197.915 E6.26882
G1 X231.563 Y212.441 E6.99784
G1 X231.373 Y213.98 E7.07565
G1 X228.588 Y225.122 E7.65206
G1 X227.667 Y227.169 E7.76468
G1 X226.919 Y228.07 E7.82346
G1 X222.499 Y232.49 E8.13716
G1 X220.656 Y233.771 E8.24978
G1 X218.012 Y234.348 E8.38561
G1 X181.988 Y234.348 E10.19352
G1 X179.779 Y233.951 E10.30614
G1 X177.501 Y232.49 E10.44197
G1 X173.081 Y228.07 E10.75567
G1 X171.8 Y226.228 E10.86829
G1 X171.412 Y225.122 E10.92707
G1 X168.627 Y213.98 E11.50348
G1 X168.437 Y212.441 E11.58129
G1 X168.437 Y195.916 E12.41061
G1 X168.501 Y195.019 E12.45576
G1 X171.287 Y175.519 E13.44428
G1 X171.992 Y173.389 E13.55691
G1 X173.045 Y171.978 E13.64527
G1 E11.64527 F2400
G92 E0
G1 Z3.35 F7800
G1 X219.647 Y173.631
G1 Z.35
G1 E2 F2400
;TYPE:Support material
G1 F1800
G1 X219.647 Y174.782 E2.05778
G1 X220.798 Y174.782 E2.11556
G1 X222.432 Y176.417 E2.23155
G1 X222.432 Y197.067 E3.26792
G1 X223.583 Y197.067 E3.3257
G1 X225.218 Y198.702 E3.44169
G1 X225.218 Y212.441 E4.13122
G1 X223.583 Y214.075 E4.24721
G1 X222.432 Y214.075 E4.30499
G1 X222.432 Y223.583 E4.78217
G1 X220.798 Y225.218 E4.89816
G1 X219.647 Y225.218 E4.95594
G1 X219.647 Y226.369 E5.01372
G1 X218.012 Y228.003 E5.12971
G1 X181.988 Y228.003 E6.93763
G1 X180.353 Y226.369 E7.05362
G1 X180.353 Y225.218 E7.1114
G1 X179.202 Y225.218 E7.16918
G1 X177.568 Y223.583 E7.28517
G1 X177.568 Y214.075 E7.76235
G1 X176.417 Y214.075 E7.82013
G1 X174.782 Y212.441 E7.93612
G1 X174.782 Y195.916 E8.76545
G1 X176.417 Y194.282 E8.88144
G1 X177.568 Y194.282 E8.93922
G1 X177.568 Y176.417 E9.83579
G1 X179.202 Y174.782 E9.95179
G1 X180.353 Y174.782 E10.00956
G1 X180.353 Y173.631 E10.06734
G1 X181.988 Y171.997 E10.18334
G1 X218.012 Y171.997 E11.99125
G1 X219.61 Y173.594 E12.10465
G1 X218.205 Y172.409 F7800
G1 F1800
G1 X182.015 Y172.409 E13.9209
G1 X181.631 Y172.792 E13.9481
G1 X218.369 Y172.792 E15.7918
G1 X218.752 Y173.175 E15.819
G1 X181.248 Y173.175 E17.70116
G1 X180.865 Y173.559 E17.72836
G1 X219.135 Y173.559 E19.64898
G1 X219.336 Y173.76 E19.66325
G1 X219.336 Y173.942 E19.67239
G1 X180.664 Y173.942 E21.6132
G1 X180.664 Y174.325 E21.63243
G1 X219.336 Y174.325 E23.57323
G1 X219.336 Y174.708 E23.59246
G1 X180.664 Y174.708 E25.53327
G1 X180.664 Y175.091 E25.5525
G1 X220.669 Y175.093 E27.5602
G1 X221.051 Y175.475 E27.58731
G1 X178.949 Y175.475 E29.70025
G1 X178.566 Y175.858 E29.72745
G1 X221.434 Y175.858 E31.87886
G1 X221.818 Y176.241 E31.90606
G1 X178.182 Y176.241 E34.09593
G1 X177.878 Y176.545 E34.11751
G1 X177.878 Y176.624 E34.12148
G1 X222.122 Y176.624 E36.34188
G1 X222.122 Y177.007 E36.36111
G1 X177.878 Y177.007 E38.58151
G1 X177.878 Y177.391 E38.60075
G1 X222.122 Y177.391 E40.82115
G1 X222.122 Y177.774 E40.84038
G1 X177.878 Y177.774 E43.06078
G1 X177.878 Y178.157 E43.08001
G1 X222.122 Y178.157 E45.30041
G1 X222.122 Y178.54 E45.31964
G1 X177.878 Y178.54 E47.54004
G1 X177.878 Y178.923 E47.55928
G1 X222.122 Y178.923 E49.77968
G1 X222.122 Y179.307 E49.79891
G1 X177.878 Y179.307 E52.01931
G1 X177.878 Y179.69 E52.03854
G1 X222.122 Y179.69 E54.25894
G1 X222.122 Y180.073 E54.27817
G1 X177.878 Y180.073 E56.49857
G1 X177.878 Y180.456 E56.5178
G1 X222.122 Y180.456 E58.7382
G1 X222.122 Y180.84 E58.75744
G1 X177.878 Y180.839 E60.97784
G1 X177.878 Y181.223 E60.99707
G1 X222.122 Y181.223 E63.21747
G1 X222.122 Y181.606 E63.2367
G1 X177.878 Y181.606 E65.4571
G1 X177.878 Y181.989 E65.47633
G1 X222.122 Y181.989 E67.69673
G1 X222.122 Y182.372 E67.71597
G1 X177.878 Y182.372 E69.93637
G1 X177.878 Y182.756 E69.9556
G1 X222.122 Y182.756 E72.176
G1 X222.122 Y183.139 E72.19523
G1 X177.878 Y183.139 E74.41563
G1 X177.878 Y183.522 E74.43486
G1 X222.122 Y183.522 E76.65526
G1 X222.122 Y183.905 E76.67449
G1 X177.878 Y183.905 E78.8949
G1 X177.878 Y184.288 E78.91413
G1 X222.122 Y184.288 E81.13453
G1 X222.122 Y184.672 E81.15376
G1 X177.878 Y184.672 E83.37416
G1 X177.878 Y185.055 E83.39339
G1 X222.122 Y185.055 E85.61379
G1 X222.122 Y185.438 E85.63302
G1 X177.878 Y185.438 E87.85342
G1 X177.878 Y185.821 E87.87266
G1 X222.122 Y185.821 E90.09306
G1 X222.122 Y186.204 E90.11229
G1 X177.878 Y186.204 E92.33269
G1 X177.878 Y186.588 E92.35192
G1 X222.122 Y186.588 E94.57232
G1 X222.122 Y186.971 E94.59155
G1 X177.878 Y186.971 E96.81195
G1 X177.878 Y187.354 E96.83119
G1 X222.122 Y187.354 E99.05159
G1 X222.122 Y187.737 E99.07082
G1 X177.878 Y187.737 E101.29122
G1 X177.878 Y188.12 E101.31045
G1 X222.122 Y188.12 E103.53085
G1 X222.122 Y188.504 E103.55008
G1 X177.878 Y188.504 E105.77048
G1 X177.878 Y188.887 E105.78971
G1 X222.122 Y188.887 E108.01012
G1 X222.122 Y189.27 E108.02935
G1 X177.878 Y189.27 E110.24975
G1 X177.878 Y189.653 E110.26898
G1 X222.122 Y189.653 E112.48938
G1 X222.122 Y190.037 E112.50861
G1 X177.878 Y190.037 E114.72901
G1 X177.878 Y190.42 E114.74824
G1 X222.122 Y190.42 E116.96864
G1 X222.122 Y190.803 E116.98788
G1 X177.878 Y190.803 E119.20828
G1 X177.878 Y191.186 E119.22751
G1 X222.122 Y191.186 E121.44791
G1 X222.122 Y191.569 E121.46714
G1 X177.878 Y191.569 E123.68754
G1 X177.878 Y191.953 E123.70677
G1 X222.122 Y191.953 E125.92717
G1 X222.122 Y192.336 E125.94641
G1 X177.878 Y192.336 E128.16681
G1 X177.878 Y192.719 E128.18604
G1 X222.122 Y192.719 E130.40644
G1 X222.122 Y193.102 E130.42567
G1 X177.878 Y193.102 E132.64607
G1 X177.878 Y193.485 E132.6653
G1 X222.122 Y193.485 E134.8857
G1 X222.122 Y193.869 E134.90493
G1 X177.878 Y193.869 E137.12533
G1 X177.878 Y194.252 E137.14457
G1 X222.122 Y194.252 E139.36497
G1 X222.122 Y194.635 E139.3842
G1 X176.502 Y194.635 E141.67366
G1 X176.119 Y195.018 E141.70086
G1 X222.122 Y195.018 E144.00956
G1 X222.122 Y195.401 E144.02879
G1 X175.736 Y195.401 E146.35672
G1 X175.352 Y195.785 E146.38392
G1 X222.122 Y195.785 E148.73108
G1 X222.122 Y196.168 E148.75031
G1 X175.093 Y196.168 E151.11051
G1 X175.093 Y196.551 E151.12974
G1 X222.122 Y196.551 E153.48994
G1 X222.122 Y196.934 E153.50917
G1 X175.093 Y196.934 E155.86937
G1 X175.093 Y197.318 E155.88861
G1 X222.122 Y197.318 E158.24881
G1 X222.122 Y197.378 E158.25182
G1 X223.455 Y197.378 E158.31872
G1 X223.778 Y197.701 E158.34166
G1 X175.093 Y197.701 E160.78498
G1 X175.093 Y198.084 E160.80421
G1 X224.161 Y198.084 E163.26676
G1 X224.544 Y198.467 E163.29396
G1 X175.093 Y198.467 E165.77574
G1 X175.093 Y198.85 E165.79497
G1 X224.907 Y198.85 E168.29497
G1 X224.907 Y199.234 E168.3142
G1 X175.093 Y199.234 E170.8142
G1 X175.093 Y199.617 E170.83343
G1 X224.907 Y199.617 E173.33343
G1 X224.907 Y200 E173.35266
G1 X175.093 Y200 E175.85266
G1 X175.093 Y200.383 E175.87189
G1 X224.907 Y200.383 E178.37189
G1 X224.907 Y200.766 E178.39112
G1 X175.093 Y200.766 E180.89112
G1 X175.093 Y201.15 E180.91035
G1 X224.907 Y201.15 E183.41035
G1 X224.907 Y201.533 E183.42958
G1 X175.093 Y201.533 E185.92958
G1 X175.093 Y201.916 E185.94881
G1 X224.907 Y201.916 E188.44881
G1 X224.907 Y202.299 E188.46804
G1 X175.093 Y202.299 E190.96804
G1 X175.093 Y202.682 E190.98727
G1 X224.907 Y202.682 E193.48727
G1 X224.907 Y203.066 E193.5065
G1 X175.093 Y203.066 E196.0065
G1 X175.093 Y203.449 E196.02573
G1 X224.907 Y203.449 E198.52573
G1 X224.907 Y203.832 E198.54496
G1 X175.093 Y203.832 E201.04496
G1 X175.093 Y204.215 E201.06419
G1 X224.907 Y204.215 E203.56419
G1 X224.907 Y204.599 E203.58342
G1 X175.093 Y204.599 E206.08342
G1 X175.093 Y204.982 E206.10265
G1 X224.907 Y204.982 E208.60265
G1 X224.907 Y205.365 E208.62188
G1 X175.093 Y205.365 E211.12188
G1 X175.093 Y205.748 E211.14111
G1 X224.907 Y205.748 E213.64111
G1 X224.907 Y206.131 E213.66034
G1 X175.093 Y206.131 E216.16034
G1 X175.093 Y206.515 E216.17957
G1 X224.907 Y206.515 E218.67957
G1 X224.907 Y206.898 E218.6988
G1 X175.093 Y206.898 E221.1988
G1 X175.093 Y207.281 E221.21803
G1 X224.907 Y207.281 E223.71803
G1 X224.907 Y207.664 E223.73726
G1 X175.093 Y207.664 E226.23726
G1 X175.093 Y208.047 E226.25649
G1 X224.907 Y208.047 E228.75649
G1 X224.907 Y208.431 E228.77572
G1 X175.093 Y208.431 E231.27572
G1 X175.093 Y208.814 E231.29495
G1 X224.907 Y208.814 E233.79495
G1 X224.907 Y209.197 E233.81418
G1 X175.093 Y209.197 E236.31418
G1 X175.093 Y209.58 E236.33341
G1 X224.907 Y209.58 E238.83341
G1 X224.907 Y209.963 E238.85264
G1 X175.093 Y209.963 E241.35264
G1 X175.093 Y210.347 E241.37187
G1 X224.907 Y210.347 E243.87187
G1 X224.907 Y210.73 E243.8911
G1 X175.093 Y210.73 E246.3911
G1 X175.093 Y211.113 E246.41033
G1 X224.907 Y211.113 E248.91033
G1 X224.907 Y211.496 E248.92956
G1 X175.093 Y211.496 E251.42956
G1 X175.093 Y211.88 E251.44879
G1 X224.907 Y211.88 E253.94879
G1 X224.907 Y212.263 E253.96802
G1 X175.093 Y212.263 E256.46802
G1 X175.093 Y212.312 E256.47051
G1 X175.426 Y212.646 E256.49419
G1 X224.574 Y212.646 E258.96071
G1 X224.191 Y213.029 E258.98791
G1 X175.809 Y213.029 E261.41596
G1 X176.193 Y213.412 E261.44316
G1 X223.807 Y213.412 E263.83275
G1 X223.455 Y213.765 E263.85777
G1 X222.122 Y213.765 E263.92468
G1 X222.122 Y213.796 E263.92621
G1 X177.878 Y213.796 E266.14662
G1 X177.878 Y214.179 E266.16585
G1 X222.122 Y214.179 E268.38625
G1 X222.122 Y214.562 E268.40548
G1 X177.878 Y214.562 E270.62588
G1 X177.878 Y214.945 E270.64511
G1 X222.122 Y214.945 E272.86551
G1 X222.122 Y215.328 E272.88474
G1 X177.878 Y215.328 E275.10514
G1 X177.878 Y215.712 E275.12438
G1 X222.122 Y215.712 E277.34478
G1 X222.122 Y216.095 E277.36401
G1 X177.878 Y216.095 E279.58441
G1 X177.878 Y216.478 E279.60364
G1 X222.122 Y216.478 E281.82404
G1 X222.122 Y216.861 E281.84327
G1 X177.878 Y216.861 E284.06367
G1 X177.878 Y217.244 E284.08291
G1 X222.122 Y217.244 E286.30331
G1 X222.122 Y217.628 E286.32254
G1 X177.878 Y217.628 E288.54294
G1 X177.878 Y218.011 E288.56217
G1 X222.122 Y218.011 E290.78257
G1 X222.122 Y218.394 E290.8018
G1 X177.878 Y218.394 E293.0222
G1 X177.878 Y218.777 E293.04143
G1 X222.122 Y218.777 E295.26183
G1 X222.122 Y219.161 E295.28107
G1 X177.878 Y219.16 E297.50147
G1 X177.878 Y219.544 E297.5207
G1 X222.122 Y219.544 E299.7411
G1 X222.122 Y219.927 E299.76033
G1 X177.878 Y219.927 E301.98073
G1 X177.878 Y220.31 E301.99996
G1 X222.122 Y220.31 E304.22036
G1 X222.122 Y220.693 E304.2396
G1 X177.878 Y220.693 E306.46
G1 X177.878 Y221.077 E306.47923
G1 X222.122 Y221.077 E308.69963
G1 X222.122 Y221.46 E308.71886
G1 X177.878 Y221.46 E310.93926
G1 X177.878 Y221.843 E310.95849
G1 X222.122 Y221.843 E313.17889
G1 X222.122 Y222.226 E313.19812
G1 X177.878 Y222.226 E315.41853
G1 X177.878 Y222.609 E315.43776
G1 X222.122 Y222.609 E317.65816
G1 X222.122 Y222.993 E317.67739
G1 X177.878 Y222.993 E319.89779
G1 X177.878 Y223.376 E319.91702
G1 X222.122 Y223.376 E322.13742
G1 X222.122 Y223.455 E322.14139
G1 X221.818 Y223.759 E322.16298
G1 X178.182 Y223.759 E324.35285
G1 X178.566 Y224.142 E324.38005
G1 X221.434 Y224.142 E326.53145
G1 X221.051 Y224.525 E326.55865
G1 X178.949 Y224.525 E328.6716
G1 X179.331 Y224.907 E328.6987
G1 X219.336 Y224.909 E330.70641
G1 X219.336 Y225.292 E330.72564
G1 X180.664 Y225.292 E332.66644
G1 X180.664 Y225.675 E332.68568
G1 X219.336 Y225.675 E334.62648
G1 X219.336 Y226.058 E334.64571
G1 X180.664 Y226.058 E336.58651
G1 X180.664 Y226.24 E336.59566
G1 X180.865 Y226.441 E336.60992
G1 X219.135 Y226.441 E338.53055
G1 X218.752 Y226.825 E338.55775
G1 X181.248 Y226.825 E340.43991
G1 X181.631 Y227.208 E340.46711
G1 X218.369 Y227.208 E342.31081
G1 X217.985 Y227.591 E342.33801
G1 X181.795 Y227.591 E344.15426
;LAYER_CHANGE
;Z:0.65
;HEIGHT:0.3
G1 Z.65 F7800
G1 E342.15426 F2400
G92 E0
G1 Z3.65 F7800
G1 X177.864 Y211.271
G1 Z.65
G1 E2 F2400
;TYPE:Support material interface
;WIDTH:0.35
G1 F3600
G1 X177.864 Y197.214 E2.50075
G1 X178.15 Y197.214 E2.51093
G1 X178.15 Y211.142 E3.00711
G1 X178.436 Y211.142 E3.01728
G1 X178.436 Y197.214 E3.51346
G1 X178.721 Y197.214 E3.52363
G1 X178.721 Y211.142 E4.01981
G1 X179.007 Y211.142 E4.02998
G1 X179.007 Y197.214 E4.52616
G1 X179.293 Y197.214 E4.53633
G1 X179.293 Y211.142 E5.03251
G1 X179.578 Y211.142 E5.04268
G1 X179.578 Y197.214 E5.53886
G1 X179.864 Y197.214 E5.54904
G1 X179.864 Y211.142 E6.04521
G1 X180.149 Y211.142 E6.05539
G1 X180.149 Y197.214 E6.55156
G1 X180.435 Y197.214 E6.56174
G1 X180.435 Y211.142 E7.05791
G1 X180.501 Y211.142 E7.06025
G1 X180.501 Y222.285 E7.45719
G1 X180.721 Y222.285 E7.46503
G1 X180.721 Y177.715 E9.05279
G1 X181.006 Y177.715 E9.06296
G1 X181.006 Y222.285 E10.65072
G1 X181.292 Y222.285 E10.6609
G1 X181.292 Y177.715 E12.24866
G1 X181.578 Y177.715 E12.25884
G1 X181.578 Y222.285 E13.8466
G1 X181.863 Y222.285 E13.85677
G1 X181.863 Y177.715 E15.44453
G1 X182.149 Y177.715 E15.45471
G1 X182.149 Y222.285 E17.04247
G1 X182.434 Y222.285 E17.05264
G1 X182.434 Y177.715 E18.6404
G1 X182.72 Y177.715 E18.65058
G1 X182.72 Y222.285 E20.23834
G1 X183.006 Y222.285 E20.24851
G1 X183.006 Y177.715 E21.83628
G1 X183.286 Y177.715 E21.84627
G1 X183.291 Y174.929 E21.94551
G1 X183.291 Y225.071 E23.73174
G1 X183.577 Y225.071 E23.74191
G1 X183.577 Y174.929 E25.52815
G1 X183.862 Y174.929 E25.53832
G1 X183.862 Y225.071 E27.32455
G1 X184.148 Y225.071 E27.33473
G1 X184.148 Y174.929 E29.12096
G1 X184.434 Y174.929 E29.13113
G1 X184.434 Y225.071 E30.91736
G1 X184.719 Y225.071 E30.92754
G1 X184.719 Y174.929 E32.71377
G1 X185.005 Y174.929 E32.72394
G1 X185.005 Y225.071 E34.51017
G1 X185.291 Y225.071 E34.52035
G1 X185.291 Y174.929 E36.30658
G1 X185.576 Y174.929 E36.31676
G1 X185.576 Y225.071 E38.10299
G1 X185.862 Y225.071 E38.11316
G1 X185.862 Y174.929 E39.89939
G1 X186.147 Y174.929 E39.90957
G1 X186.147 Y225.071 E41.6958
G1 X186.433 Y225.071 E41.70597
G1 X186.433 Y174.929 E43.4922
G1 X186.719 Y174.929 E43.50238
G1 X186.719 Y225.071 E45.28861
G1 X187.004 Y225.071 E45.29878
G1 X187.004 Y174.929 E47.08502
G1 X187.29 Y174.929 E47.09519
G1 X187.29 Y225.071 E48.88142
G1 X187.576 Y225.071 E48.8916
G1 X187.576 Y174.929 E50.67783
G1 X187.861 Y174.929 E50.688
G1 X187.861 Y225.071 E52.47423
G1 X188.147 Y225.071 E52.48441
G1 X188.147 Y174.929 E54.27064
G1 X188.432 Y174.929 E54.28081
G1 X188.432 Y225.071 E56.06704
G1 X188.718 Y225.071 E56.07722
G1 X188.718 Y174.929 E57.86345
G1 X189.004 Y174.929 E57.87362
G1 X189.004 Y225.071 E59.65986
G1 X189.289 Y225.071 E59.67003
G1 X189.289 Y174.929 E61.45626
G1 X189.575 Y174.929 E61.46644
G1 X189.575 Y225.071 E63.25267
G1 X189.86 Y225.071 E63.26284
G1 X189.86 Y174.929 E65.04907
G1 X190.146 Y174.929 E65.05925
G1 X190.146 Y225.071 E66.84548
G1 X190.432 Y225.071 E66.85565
G1 X190.432 Y174.929 E68.64188
G1 X190.717 Y174.929 E68.65206
G1 X190.717 Y225.071 E70.43829
G1 X191.003 Y225.071 E70.44847
G1 X191.003 Y174.929 E72.2347
G1 X191.289 Y174.929 E72.24487
G1 X191.289 Y225.071 E74.0311
G1 X191.574 Y225.071 E74.04128
G1 X191.574 Y174.929 E75.82751
G1 X191.86 Y174.929 E75.83768
G1 X191.86 Y225.071 E77.62391
G1 X192.145 Y225.071 E77.63409
G1 X192.145 Y174.929 E79.42032
G1 X192.431 Y174.929 E79.43049
G1 X192.431 Y225.071 E81.21673
G1 X192.717 Y225.071 E81.2269
G1 X192.717 Y174.929 E83.01313
G1 X193.002 Y174.929 E83.02331
G1 X193.002 Y225.071 E84.80954
G1 X193.288 Y225.071 E84.81971
G1 X193.288 Y174.929 E86.60594
G1 X193.574 Y174.929 E86.61612
G1 X193.574 Y225.071 E88.40235
G1 X193.859 Y225.071 E88.41252
