; generated by PrusaSlicer 2.4.0 on 2022-02-10 at 19:34:35 UTC


;
;

;
;
; 

; external perimeters extrusion width = 0.40mm
; perimeters extrusion width = 0.40mm
; infill extrusion width = 0.45mm
; solid infill extrusion width = 0.45mm
; top infill extrusion width = 0.40mm
; first layer extrusion width = 0.42mm

; external perimeters extrusion width = 0.40mm
; perimeters extrusion width = 0.40mm
; infill extrusion width = 0.45mm
; solid infill extrusion width = 0.45mm
; top infill extrusion width = 0.40mm
; first layer extrusion width = 0.42mm

; external perimeters extrusion width = 0.40mm
; perimeters extrusion width = 0.40mm
; infill extrusion width = 0.45mm
; solid infill extrusion width = 0.45mm
; top infill extrusion width = 0.40mm
; first layer extrusion width = 0.42mm

; external perimeters extrusion width = 0.40mm
; perimeters extrusion width = 0.40mm
; infill extrusion width = 0.45mm
; solid infill extrusion width = 0.45mm
; top infill extrusion width = 0.40mm
; first layer extrusion width = 0.42mm

; external perimeters extrusion width = 0.40mm
; perimeters extrusion width = 0.40mm
; infill extrusion width = 0.45mm
; solid infill extrusion width = 0.45mm
; top infill extrusion width = 0.40mm
; first layer extrusion width = 0.42mm

M73 P0 R9
M201 X1250 Y1250 Z400 E5000 ; sets maximum accelerations, mm/sec^2
M203 X180 Y180 Z12 E80 ; sets maximum feedrates, mm/sec
M204 P1250 R1250 T1250 ; sets acceleration (P, T) and retract acceleration (R), mm/sec^2
M205 X8.00 Y8.00 Z2.00 E10.00 ; sets the jerk limits, mm/sec
M205 S0 T0 ; sets the minimum extruding and travel feed rate, mm/sec
M107
;TYPE:Custom
G90 ; use absolute coordinates
M83 ; extruder relative mode
M104 S170 ; set extruder temp for bed leveling
M140 S60 ; set bed temp
M109 R170 ; wait for bed leveling temp
M190 S60 ; wait for bed temp
G28 ; home all without mesh bed level
G29 ; mesh bed leveling 
M104 S225 ; set extruder temp
G92 E0.0
G1 Y-2.0 X179 F2400
G1 Z3 F720
M109 S225 ; wait for extruder temp

; intro line
G1 X170 F1000
G1 Z0.2 F720
G1 X110.0 E8.0 F900
G1 X40.0 E10.0 F700
G92 E0.0

M221 S95 ; set flow
G21 ; set units to millimeters
G90 ; use absolute coordinates
M83 ; use relative distances for extrusion
M900 K0.2 ; Filament gcode LA 1.5
; ; Filament gcode LA 1.0
M107
;LAYER_CHANGE
;Z:0.2
;HEIGHT:0.2
;BEFORE_LAYER_CHANGE
G92 E0.0
;0.2


M73 P1 R9
G1 Z.2 F9000
;AFTER_LAYER_CHANGE
;0.2
M73 P2 R9
G1 E-3.2 F4200
G1 X27.434 Y27.798 F9000
G1 E3.2 F2400
M204 S800
;TYPE:Skirt/Brim
;WIDTH:0.42
G1 F1200
G1 X28.622 Y26.625 E.05236
G1 X29.932 Y25.565 E.05283
G1 X31.41 Y24.593 E.05546
G1 X32.978 Y23.774 E.05546
G1 X34.62 Y23.118 E.05546
G1 X36.32 Y22.629 E.05546
G1 X38.06 Y22.315 E.05545
G1 X39.824 Y22.177 E.05546
G1 X259.83 Y21.936 E6.89815
G1 X261.55 Y22.031 E.05401
M73 P4 R9
G1 X262.892 Y22.224 E.04251
G1 X264.569 Y22.618 E.05401
G1 X266.242 Y23.191 E.05546
G1 X267.775 Y23.891 E.05283
G1 X269.265 Y24.755 E.05401
G1 X270.699 Y25.79 E.05546
G1 X271.724 Y26.678 E.04251
G1 X272.922 Y27.915 E.05401
G1 X273.971 Y29.234 E.05283
G1 X274.931 Y30.719 E.05546
G1 X275.717 Y32.252 E.05401
G1 X276.228 Y33.508 E.04251
G1 X276.746 Y35.199 E.05545
G1 X277.085 Y36.888 E.05401
G1 X277.254 Y38.564 E.05283
G1 X277.639 Y260.377 E6.9548
G1 X277.526 Y262.058 E.05283
M73 P6 R9
G1 X277.244 Y263.757 E.05401
G1 X276.906 Y265.07 E.04251
G1 X276.364 Y266.616 E.05138
G1 X275.641 Y268.18 E.05401
G1 X274.967 Y269.356 E.04251
G1 X273.982 Y270.769 E.05401
G1 X272.921 Y272.018 E.05138
G1 X271.616 Y273.279 E.0569
G1 X270.225 Y274.372 E.05546
G1 X268.731 Y275.319 E.05546
G1 X267.15 Y276.111 E.05546
G1 X265.497 Y276.74 E.05546
G1 X263.789 Y277.2 E.05546
G1 X261.96 Y277.494 E.05809
G1 X260.194 Y277.594 E.05546
G1 X39.614 Y278.12 E6.91613
G1 X37.896 Y277.996 E.05401
M73 P8 R9
G1 X36.558 Y277.78 E.04251
G1 X34.888 Y277.359 E.05401
G1 X33.345 Y276.807 E.05138
G1 X32.111 Y276.244 E.04251
G1 X30.613 Y275.394 E.05401
G1 X29.272 Y274.453 E.05138
G1 X28.233 Y273.582 E.04251
G1 X27.014 Y272.365 E.05401
G1 X25.866 Y270.959 E.0569
G1 X24.686 Y269.124 E.06839
G1 X23.903 Y267.539 E.05546
G1 X23.27 Y265.838 E.05691
G1 X22.825 Y264.126 E.05545
G1 X22.554 Y262.378 E.05546
M73 P9 R9
G1 X22.461 Y260.612 E.05546
G1 X22.761 Y39.223 E6.9415
G1 X22.852 Y37.87 E.04251
M73 P10 R8
G1 X23.101 Y36.251 E.05138
G1 X23.524 Y34.581 E.05401
G1 X23.972 Y33.301 E.04251
G1 X24.679 Y31.731 E.05401
G1 X25.493 Y30.309 E.05138
G1 X26.264 Y29.193 E.04251
G1 X27.391 Y27.84 E.05522
M204 S1250
G1 X27.656 Y28.108 F9000
M204 S800
M73 P11 R8
G1 F1200
G1 X28.874 Y26.906 E.05367
G1 X30.222 Y25.82 E.05427
G1 X31.673 Y24.876 E.05427
G1 X33.211 Y24.082 E.05427
G1 X34.821 Y23.448 E.05427
G1 X36.486 Y22.978 E.05426
G1 X38.191 Y22.678 E.05426
G1 X39.917 Y22.552 E.05427
G1 X259.827 Y22.313 E6.89512
G1 X261.515 Y22.407 E.05302
M73 P12 R8
G1 X262.82 Y22.594 E.04132
G1 X264.466 Y22.98 E.05301
G1 X266.103 Y23.541 E.05426
M73 P13 R8
G1 X267.601 Y24.225 E.05163
G1 X269.064 Y25.074 E.05302
G1 X270.467 Y26.087 E.05426
G1 X271.463 Y26.95 E.04132
G1 X272.639 Y28.164 E.05301
G1 X273.664 Y29.453 E.05164
G1 X274.604 Y30.907 E.05427
G1 X275.375 Y32.411 E.05301
G1 X275.872 Y33.632 E.04132
G1 X276.379 Y35.287 E.05426
G1 X276.712 Y36.944 E.05302
G1 X276.878 Y38.583 E.05164
G1 X277.262 Y260.371 E6.95401
G1 X277.152 Y262.014 E.05163
M73 P15 R8
G1 X276.875 Y263.682 E.05301
G1 X276.546 Y264.958 E.04132
G1 X276.015 Y266.474 E.05038
G1 X275.305 Y268.009 E.05301
G1 X274.649 Y269.152 E.04132
G1 X273.683 Y270.54 E.05301
G1 X272.642 Y271.764 E.05038
G1 X271.369 Y272.994 E.05551
G1 X270.008 Y274.063 E.05426
G1 X268.547 Y274.99 E.05427
G1 X266.999 Y275.766 E.05427
G1 X265.382 Y276.381 E.05427
G1 X263.71 Y276.831 E.05427
G1 X261.919 Y277.119 E.0569
G1 X260.191 Y277.217 E.05427
G1 X39.624 Y277.743 E6.91574
G1 X37.937 Y277.621 E.05302
M73 P17 R8
G1 X36.636 Y277.411 E.04132
G1 X34.997 Y276.998 E.05301
G1 X33.484 Y276.457 E.05039
G1 X32.285 Y275.909 E.04132
G1 X30.814 Y275.075 E.05301
G1 X29.499 Y274.152 E.05039
G1 X28.489 Y273.306 E.04132
G1 X27.292 Y272.111 E.05302
G1 X26.172 Y270.74 E.05552
G1 X25.013 Y268.937 E.0672
G1 X24.248 Y267.385 E.05426
G1 X23.63 Y265.726 E.05552
G1 X23.194 Y264.051 E.05426
G1 X22.929 Y262.34 E.05427
G1 X22.838 Y260.612 E.05427
G1 X23.138 Y39.229 E6.9413
G1 X23.227 Y37.915 E.04132
M73 P19 R8
G1 X23.47 Y36.326 E.05038
G1 X23.886 Y34.687 E.05301
G1 X24.321 Y33.443 E.04132
G1 X25.016 Y31.902 E.05301
G1 X25.814 Y30.507 E.05038
G1 X26.563 Y29.423 E.04132
G1 X27.616 Y28.153 E.05173
M204 S1250
G1 E-2.24 F4200
;WIPE_START
G1 F7200
G1 X28.785 Y26.994 E-.912
;WIPE_END
G1 E-.048 F4200
G1 X39.288 Y246.075 F9000
G1 E3.2 F2400
M204 S800
G1 F1200
G1 X40.743 Y246.075 E.04561
G1 X42.107 Y246.208 E.04298
M73 P19 R7
G1 X43.435 Y246.466 E.0424
G1 X44.605 Y246.802 E.0382
G1 X45.955 Y247.328 E.0454
G1 X47.257 Y247.993 E.04585
G1 X48.486 Y248.785 E.04585
G1 X49.629 Y249.698 E.04585
G1 X50.674 Y250.72 E.04584
G1 X51.598 Y251.825 E.04517
G1 X52.407 Y253.016 E.04515
G1 X53.096 Y254.283 E.0452
G1 X53.655 Y255.611 E.04517
G1 X54.079 Y256.987 E.04515
G1 X54.368 Y258.418 E.04578
G1 X54.51 Y259.852 E.04517
G1 X54.51 Y261.292 E.04515
G1 X54.367 Y262.725 E.04517
G1 X54.083 Y264.138 E.04519
G1 X53.653 Y265.534 E.04579
G1 X53.094 Y266.861 E.04516
G1 X52.406 Y268.126 E.04515
G1 X51.596 Y269.317 E.04513
G1 X50.659 Y270.436 E.04576
G1 X49.628 Y271.443 E.0452
G1 X48.486 Y272.354 E.04581
G1 X47.257 Y273.147 E.04585
G1 X45.955 Y273.812 E.04585
G1 X44.605 Y274.337 E.04541
G1 X43.36 Y274.692 E.04059
G1 X41.962 Y274.952 E.04458
G1 X40.633 Y275.07 E.04186
G1 X39.299 Y275.066 E.04183
G1 X37.852 Y274.921 E.04558
G1 X36.419 Y274.631 E.04583
M73 P20 R7
G1 X35.036 Y274.202 E.04541
G1 X33.841 Y273.704 E.0406
G1 X32.562 Y273.024 E.04541
G1 X31.347 Y272.21 E.04584
G1 X30.234 Y271.292 E.04525
G1 X29.218 Y270.268 E.04522
G1 X28.321 Y269.167 E.04453
G1 X27.529 Y267.968 E.04505
G1 X26.858 Y266.696 E.04508
G1 X26.322 Y265.381 E.04452
G1 X25.913 Y264.002 E.04511
G1 X25.645 Y262.609 E.04448
G1 X25.514 Y261.178 E.04505
G1 X25.525 Y259.739 E.04511
G1 X25.682 Y258.287 E.04579
G1 X25.985 Y256.857 E.04585
G1 X26.43 Y255.464 E.04585
G1 X27.012 Y254.122 E.04585
G1 X27.727 Y252.847 E.04585
G1 X28.567 Y251.649 E.04585
G1 X29.51 Y250.557 E.04525
G1 X30.265 Y249.819 E.03312
G1 X31.383 Y248.903 E.04532
G1 X32.582 Y248.104 E.04516
G1 X33.855 Y247.429 E.04518
G1 X35.194 Y246.881 E.04536
G1 X36.433 Y246.506 E.04059
G1 X37.853 Y246.219 E.04541
G1 X39.228 Y246.081 E.04335
M204 S1250
G1 X39.266 Y246.455 F9000
M204 S800
G1 F1200
G1 X40.715 Y246.451 E.04544
G1 X42.044 Y246.58 E.04186
G1 X43.339 Y246.83 E.04134
G1 X44.477 Y247.157 E.03713
G1 X45.792 Y247.668 E.04424
G1 X47.061 Y248.315 E.04466
G1 X48.259 Y249.086 E.04466
G1 X49.372 Y249.974 E.04466
G1 X50.391 Y250.97 E.04466
G1 X51.292 Y252.045 E.044
G1 X52.081 Y253.205 E.04397
G1 X52.76 Y254.455 E.04461
G1 X53.303 Y255.748 E.04399
G1 X53.716 Y257.089 E.04398
G1 X53.996 Y258.483 E.04459
G1 X54.134 Y259.879 E.04399
G1 X54.133 Y261.282 E.04398
G1 X53.993 Y262.678 E.04399
G1 X53.715 Y264.054 E.04402
G1 X53.295 Y265.414 E.04461
G1 X52.75 Y266.706 E.04398
G1 X52.079 Y267.938 E.04398
G1 X51.29 Y269.097 E.04396
G1 X50.376 Y270.186 E.04458
G1 X49.371 Y271.166 E.04402
G1 X48.258 Y272.054 E.04463
G1 X47.061 Y272.825 E.04466
G1 X45.792 Y273.472 E.04466
G1 X44.477 Y273.983 E.04425
G1 X43.282 Y274.323 E.03893
G1 X41.902 Y274.58 E.04402
G1 X40.608 Y274.694 E.04073
G1 X39.309 Y274.689 E.04073
G1 X37.899 Y274.547 E.04443
G1 X36.504 Y274.263 E.04465
G1 X35.156 Y273.844 E.04425
G1 X34.01 Y273.367 E.03894
G1 X32.764 Y272.705 E.04425
G1 X31.579 Y271.913 E.04466
G1 X30.495 Y271.02 E.04407
G1 X29.492 Y270.009 E.04463
G1 X28.62 Y268.936 E.04336
G1 X27.849 Y267.768 E.04389
G1 X27.196 Y266.529 E.04391
G1 X26.675 Y265.248 E.04336
G1 X26.277 Y263.904 E.04395
G1 X26.018 Y262.547 E.04332
G1 X25.891 Y261.153 E.04389
G1 X25.902 Y259.752 E.04394
G1 X26.056 Y258.337 E.04461
G1 X26.351 Y256.944 E.04466
G1 X26.786 Y255.588 E.04466
G1 X27.354 Y254.282 E.04466
G1 X28.051 Y253.04 E.04466
G1 X28.87 Y251.874 E.04466
G1 X29.79 Y250.81 E.04411
M73 P21 R7
G1 X30.522 Y250.094 E.03211
G1 X31.6 Y249.211 E.04367
G1 X32.783 Y248.424 E.04457
G1 X34.023 Y247.766 E.044
G1 X35.328 Y247.234 E.0442
G1 X36.517 Y246.874 E.03894
G1 X37.9 Y246.593 E.04425
G1 X39.206 Y246.461 E.04117
M204 S1250
G1 X39.244 Y246.836 F9000
M204 S800
G1 F1200
G1 X40.706 Y246.828 E.04584
G1 X41.999 Y246.955 E.04072
G1 X43.259 Y247.199 E.04025
G1 X44.349 Y247.512 E.03556
G1 X45.63 Y248.009 E.04308
G1 X46.865 Y248.637 E.04347
G1 X48.031 Y249.387 E.04347
G1 X49.116 Y250.251 E.04347
G1 X50.108 Y251.219 E.04346
G1 X50.996 Y252.28 E.0434
G1 X51.763 Y253.409 E.04278
G1 X52.424 Y254.626 E.04343
G1 X52.952 Y255.885 E.04281
G1 X53.352 Y257.19 E.0428
G1 X53.625 Y258.548 E.04341
G1 X53.758 Y259.907 E.04281
G1 X53.756 Y261.272 E.04281
G1 X53.619 Y262.631 E.04282
G1 X53.347 Y263.97 E.04284
G1 X52.938 Y265.293 E.04343
G1 X52.406 Y266.55 E.0428
G1 X51.753 Y267.749 E.0428
G1 X50.984 Y268.876 E.04278
G1 X50.094 Y269.936 E.0434
G1 X49.115 Y270.89 E.04284
G1 X48.031 Y271.753 E.04344
G1 X46.865 Y272.502 E.04347
G1 X45.63 Y273.131 E.04347
G1 X44.349 Y273.628 E.04308
G1 X43.205 Y273.954 E.0373
G1 X41.86 Y274.205 E.04289
G1 X40.601 Y274.317 E.03963
G1 X39.32 Y274.312 E.04017
G1 X37.947 Y274.173 E.04327
G1 X36.589 Y273.896 E.04346
G1 X35.277 Y273.487 E.04308
G1 X34.179 Y273.029 E.0373
G1 X32.965 Y272.386 E.04308
G1 X31.812 Y271.616 E.04347
G1 X30.742 Y270.735 E.04347
G1 X29.767 Y269.751 E.04344
G1 X28.919 Y268.706 E.04219
G1 X28.169 Y267.568 E.04272
G1 X27.534 Y266.362 E.04274
G1 X27.028 Y265.115 E.04219
G1 X26.642 Y263.806 E.04278
G1 X26.39 Y262.486 E.04215
G1 X26.267 Y261.129 E.04272
G1 X26.279 Y259.765 E.04277
G1 X26.43 Y258.388 E.04342
G1 X26.718 Y257.032 E.04347
G1 X27.142 Y255.712 E.04347
G1 X27.696 Y254.441 E.04347
G1 X28.375 Y253.233 E.04347
G1 X29.173 Y252.099 E.04347
G1 X30.07 Y251.063 E.04297
G1 X30.78 Y250.37 E.03111
G1 X31.831 Y249.509 E.0426
G1 X32.984 Y248.743 E.0434
G1 X34.191 Y248.104 E.04282
G1 X35.462 Y247.586 E.04304
G1 X36.601 Y247.242 E.0373
G1 X37.947 Y246.967 E.04308
G1 X39.185 Y246.842 E.03899
M204 S1250
G1 X39.222 Y247.217 F9000
M204 S800
G1 F1200
G1 X40.679 Y247.204 E.04567
G1 X41.936 Y247.326 E.0396
G1 X43.163 Y247.564 E.03919
G1 X44.221 Y247.867 E.03449
G1 X45.467 Y248.349 E.04192
G1 X46.67 Y248.96 E.04228
G1 X47.804 Y249.688 E.04228
G1 X48.86 Y250.528 E.04227
G1 X49.825 Y251.468 E.04227
G1 X50.69 Y252.5 E.04222
G1 X51.437 Y253.597 E.0416
G1 X52.08 Y254.781 E.04225
G1 X52.594 Y256.005 E.04163
G1 X52.985 Y257.274 E.04162
G1 X53.25 Y258.594 E.04223
M73 P22 R7
G1 X53.381 Y259.916 E.04164
G1 X53.38 Y261.244 E.04163
G1 X53.247 Y262.565 E.04165
G1 X52.984 Y263.868 E.04166
G1 X52.587 Y265.155 E.04225
G1 X52.071 Y266.378 E.04161
G1 X51.426 Y267.56 E.04221
G1 X50.678 Y268.656 E.0416
G1 X49.811 Y269.686 E.04222
G1 X48.859 Y270.613 E.04166
G1 X47.804 Y271.451 E.04226
G1 X46.67 Y272.18 E.04228
G1 X45.467 Y272.791 E.04228
G1 X44.221 Y273.273 E.04192
G1 X43.126 Y273.585 E.03567
G1 X41.817 Y273.83 E.04176
G1 X40.576 Y273.94 E.03906
G1 X39.331 Y273.935 E.03905
G1 X37.995 Y273.799 E.04211
G1 X36.674 Y273.528 E.04227
G1 X35.398 Y273.13 E.04192
G1 X34.347 Y272.692 E.03567
G1 X33.166 Y272.067 E.04192
G1 X32.044 Y271.319 E.04228
G1 X31.003 Y270.462 E.04228
G1 X30.053 Y269.506 E.04226
G1 X29.218 Y268.476 E.04159
G1 X28.489 Y267.369 E.04155
G1 X27.872 Y266.195 E.04157
G1 X27.381 Y264.982 E.04103
G1 X27.006 Y263.709 E.04162
G1 X26.762 Y262.425 E.04099
G1 X26.643 Y261.104 E.04156
G1 X26.656 Y259.778 E.04159
G1 X26.804 Y258.439 E.04224
G1 X27.085 Y257.12 E.04228
G1 X27.498 Y255.837 E.04228
G1 X28.038 Y254.601 E.04227
G1 X28.699 Y253.426 E.04228
G1 X29.475 Y252.324 E.04227
G1 X30.349 Y251.316 E.04183
G1 X31.037 Y250.646 E.03011
G1 X32.063 Y249.807 E.04154
G1 X33.184 Y249.062 E.04222
G1 X34.359 Y248.442 E.04164
G1 X35.596 Y247.939 E.04189
G1 X36.685 Y247.609 E.03567
G1 X37.995 Y247.341 E.04192
G1 X39.163 Y247.223 E.03681
M204 S1250
G1 X39.201 Y247.597 F9000
M204 S800
G1 F1200
G1 X39.346 Y247.582 E.00457
G1 X40.652 Y247.581 E.04094
G1 X41.873 Y247.698 E.03847
G1 X43.068 Y247.929 E.03814
G1 X44.093 Y248.221 E.03343
G1 X45.305 Y248.69 E.04076
G1 X46.474 Y249.283 E.04109
G1 X47.577 Y249.99 E.04109
G1 X48.603 Y250.804 E.04108
G1 X49.542 Y251.718 E.04108
G1 X50.384 Y252.721 E.04103
G1 X51.11 Y253.786 E.04042
G1 X51.736 Y254.936 E.04107
G1 X52.237 Y256.125 E.04045
G1 X52.617 Y257.358 E.04044
G1 X52.876 Y258.641 E.04105
G1 X53.004 Y259.925 E.04045
G1 X53.003 Y261.234 E.04104
G1 X52.873 Y262.518 E.04047
G1 X52.616 Y263.784 E.04049
G1 X52.229 Y265.035 E.04107
G1 X51.727 Y266.223 E.04043
G1 X51.1 Y267.371 E.04103
G1 X50.372 Y268.435 E.04042
G1 X49.529 Y269.436 E.04103
G1 X48.603 Y270.336 E.04047
G1 X47.577 Y271.15 E.04107
G1 X46.474 Y271.857 E.04109
G1 X45.305 Y272.45 E.04109
G1 X44.093 Y272.918 E.04076
G1 X43.048 Y273.216 E.03406
G1 X41.775 Y273.455 E.04064
G1 X40.569 Y273.563 E.03794
G1 X39.342 Y273.558 E.03848
G1 X38.043 Y273.424 E.04095
G1 X36.759 Y273.161 E.04108
G1 X35.519 Y272.772 E.04076
G1 X34.516 Y272.355 E.03406
G1 X33.367 Y271.747 E.04076
G1 X32.276 Y271.022 E.04108
G1 X31.263 Y270.19 E.04108
G1 X30.34 Y269.261 E.04107
G1 X29.527 Y268.26 E.04042
G1 X28.818 Y267.185 E.04038
M73 P23 R7
G1 X28.218 Y266.044 E.04041
G1 X27.74 Y264.866 E.03986
G1 X27.375 Y263.629 E.04045
G1 X27.134 Y262.363 E.0404
G1 X27.02 Y261.08 E.04039
G1 X27.033 Y259.791 E.04042
G1 X27.177 Y258.49 E.04106
G1 X27.452 Y257.209 E.04108
G1 X27.854 Y255.962 E.04109
G1 X28.379 Y254.761 E.04108
G1 X29.023 Y253.62 E.04109
G1 X29.778 Y252.549 E.04108
G1 X30.629 Y251.569 E.04069
G1 X31.294 Y250.922 E.02911
G1 X32.294 Y250.105 E.04047
G1 X33.385 Y249.382 E.04104
G1 X34.526 Y248.78 E.04046
G1 X35.73 Y248.292 E.04073
G1 X36.769 Y247.977 E.03406
G1 X38.043 Y247.715 E.04076
G1 X39.141 Y247.603 E.03463
M204 S1250
G1 X39.18 Y247.977 F9000
M204 S800
G1 F1200
G1 X39.356 Y247.959 E.00557
G1 X40.625 Y247.957 E.03978
G1 X41.811 Y248.07 E.03735
G1 X42.972 Y248.294 E.03708
G1 X43.965 Y248.576 E.03237
