; generated by PrusaSlicer 2.4.2 on 2022-08-30 at 19:30:53 UTC

; 

; external perimeters extrusion width = 0.45mm
; perimeters extrusion width = 0.45mm
; infill extrusion width = 0.45mm
; solid infill extrusion width = 0.45mm
; top infill extrusion width = 0.40mm
; support material extrusion width = 0.35mm
; first layer extrusion width = 0.42mm

M107
M190 S60 ; set bed temperature and wait for it to be reached
M104 S215 ; set temperature
;TYPE:Custom
G28 ; home all axes
G1 Z5 F5000 ; lift nozzle
M109 S215 ; set temperature and wait for it to be reached
G21 ; set units to millimeters
G90 ; use absolute coordinates
M82 ; use absolute distances for extrusion
G92 E0
; Filament gcode
M107
;LAYER_CHANGE
;Z:0.35
;HEIGHT:0.35
G1 Z.35 F7800
G1 E-2 F2400
G92 E0
G1 Z3.35 F7800
G1 X195.009 Y168.981
G1 Z.35
G1 E2 F2400
;TYPE:Skirt/Brim
;WIDTH:0.42
G1 F1800
G1 X196.643 Y167.346 E2.116
G1 X198.292 Y166.158 E2.21801
G1 X203.863 Y163.372 E2.53061
G1 X206.701 Y162.702 E2.67692
G1 X231.583 Y162.702 E3.92565
G1 X234.42 Y163.372 E4.07196
G1 X239.992 Y166.158 E4.38456
G1 X241.641 Y167.346 E4.48657
G1 X243.275 Y168.981 E4.60257
G1 X244.463 Y170.63 E4.70458
G1 X247.249 Y176.201 E5.01718
G1 X247.833 Y177.995 E5.11188
G1 X250.618 Y194.709 E5.96224
G1 X250.705 Y195.752 E6.01477
G1 X250.705 Y206.706 E6.5645
G1 X250.515 Y208.245 E6.64231
G1 X247.73 Y219.387 E7.21871
G1 X246.809 Y221.434 E7.33133
G1 X246.061 Y222.335 E7.39012
G1 X241.641 Y226.755 E7.70382
G1 X239.992 Y227.943 E7.80583
G1 X234.42 Y230.729 E8.11843
G1 X231.583 Y231.399 E8.26475
G1 X206.701 Y231.399 E9.51347
G1 X203.863 Y230.729 E9.65978
G1 X198.292 Y227.943 E9.97238
G1 X196.643 Y226.755 E10.0744
G1 X192.223 Y222.335 E10.3881
G1 X190.942 Y220.493 E10.50072
G1 X190.554 Y219.387 E10.5595
G1 X187.769 Y208.245 E11.13591
G1 X187.579 Y206.706 E11.21372
G1 X187.579 Y195.752 E11.76344
G1 X187.666 Y194.709 E11.81597
G1 X190.451 Y177.995 E12.66633
G1 X191.035 Y176.201 E12.76103
G1 X193.82 Y170.63 E13.07363
G1 X194.974 Y169.029 E13.17263
G1 E11.17263 F2400
G92 E0
G1 Z3.35 F7800
G1 X233.217 Y170.682
G1 Z.35
G1 E2 F2400
;TYPE:Support material
G1 F1800
G1 X233.217 Y171.833 E2.05778
G1 X237.154 Y171.833 E2.25535
G1 X238.788 Y173.467 E2.37135
G1 X238.788 Y177.404 E2.56893
G1 X239.94 Y177.404 E2.6267
G1 X241.574 Y179.038 E2.7427
G1 X241.574 Y194.118 E3.49947
G1 X242.725 Y194.118 E3.55725
G1 X244.36 Y195.752 E3.67324
G1 X244.36 Y206.706 E4.22297
G1 X242.725 Y208.34 E4.33897
G1 X241.574 Y208.34 E4.39674
G1 X241.574 Y217.848 E4.87392
G1 X239.94 Y219.483 E4.98991
G1 X238.788 Y219.483 E5.04769
G1 X238.788 Y220.634 E5.10547
G1 X237.154 Y222.268 E5.22146
G1 X233.217 Y222.268 E5.41904
G1 X233.217 Y223.42 E5.47682
G1 X231.583 Y225.054 E5.59281
G1 X206.701 Y225.054 E6.84153
G1 X205.067 Y223.42 E6.95753
G1 X205.067 Y222.268 E7.01531
G1 X201.13 Y222.268 E7.21288
G1 X199.495 Y220.634 E7.32888
G1 X199.495 Y219.483 E7.38666
G1 X198.344 Y219.483 E7.44444
G1 X196.71 Y217.848 E7.56043
G1 X196.71 Y208.34 E8.0376
G1 X195.558 Y208.34 E8.09538
G1 X193.924 Y206.706 E8.21138
G1 X193.924 Y195.752 E8.7611
G1 X195.558 Y194.118 E8.8771
G1 X196.71 Y194.118 E8.93488
G1 X196.71 Y179.038 E9.69165
G1 X198.344 Y177.404 E9.80764
G1 X199.495 Y177.404 E9.86542
G1 X199.495 Y173.467 E10.063
G1 X201.13 Y171.833 E10.17899
G1 X205.067 Y171.833 E10.37657
G1 X205.067 Y170.682 E10.43435
G1 X206.701 Y169.047 E10.55034
G1 X231.583 Y169.047 E11.79906
G1 X233.181 Y170.645 E11.91246
G1 X231.776 Y169.46 F7800
G1 F1800
G1 X206.728 Y169.46 E13.16952
G1 X206.344 Y169.843 E13.19672
G1 X231.939 Y169.843 E14.48122
G1 X232.323 Y170.226 E14.50842
G1 X205.961 Y170.226 E15.83139
G1 X205.578 Y170.609 E15.85858
G1 X232.706 Y170.609 E17.22001
G1 X232.907 Y170.81 E17.23428
G1 X232.907 Y170.992 E17.24342
G1 X205.377 Y170.992 E18.62503
G1 X205.377 Y171.376 E18.64426
G1 X232.907 Y171.376 E20.02587
G1 X232.907 Y171.759 E20.0451
G1 X205.377 Y171.759 E21.42671
G1 X205.377 Y172.142 E21.44594
G1 X237.026 Y172.143 E23.03425
G1 X237.407 Y172.525 E23.06136
G1 X200.876 Y172.525 E24.8947
G1 X200.493 Y172.908 E24.9219
G1 X237.791 Y172.908 E26.79371
G1 X238.174 Y173.292 E26.82091
G1 X200.11 Y173.292 E28.73118
G1 X199.806 Y173.596 E28.75277
G1 X199.806 Y173.675 E28.75674
G1 X238.478 Y173.675 E30.69754
G1 X238.478 Y174.058 E30.71677
G1 X199.806 Y174.058 E32.65757
G1 X199.806 Y174.441 E32.67681
G1 X238.478 Y174.441 E34.61761
G1 X238.478 Y174.824 E34.63684
G1 X199.806 Y174.824 E36.57764
G1 X199.806 Y175.208 E36.59687
G1 X238.478 Y175.208 E38.53768
G1 X238.478 Y175.591 E38.55691
G1 X199.806 Y175.591 E40.49771
G1 X199.806 Y175.974 E40.51694
G1 X238.478 Y175.974 E42.45775
G1 X238.478 Y176.357 E42.47698
G1 X199.806 Y176.357 E44.41778
G1 X199.806 Y176.741 E44.43701
G1 X238.478 Y176.741 E46.37782
G1 X238.478 Y177.124 E46.39705
G1 X199.806 Y177.124 E48.33785
G1 X199.806 Y177.507 E48.35708
G1 X238.478 Y177.507 E50.29788
G1 X238.478 Y177.715 E50.3083
G1 X239.811 Y177.715 E50.37521
G1 X239.987 Y177.89 E50.38767
G1 X198.297 Y177.89 E52.47991
G1 X197.914 Y178.273 E52.50711
G1 X240.37 Y178.273 E54.63781
G1 X240.753 Y178.657 E54.665
G1 X197.531 Y178.657 E56.83417
G1 X197.147 Y179.04 E56.86137
G1 X241.136 Y179.04 E59.06899
G1 X241.264 Y179.167 E59.07802
G1 X241.264 Y179.423 E59.09087
G1 X197.02 Y179.423 E61.31127
G1 X197.02 Y179.806 E61.3305
G1 X241.264 Y179.806 E63.5509
G1 X241.264 Y180.189 E63.57013
G1 X197.02 Y180.189 E65.79053
G1 X197.02 Y180.573 E65.80977
G1 X241.264 Y180.573 E68.03017
G1 X241.264 Y180.956 E68.0494
G1 X197.02 Y180.956 E70.2698
G1 X197.02 Y181.339 E70.28903
G1 X241.264 Y181.339 E72.50943
G1 X241.264 Y181.722 E72.52866
G1 X197.02 Y181.722 E74.74906
G1 X197.02 Y182.105 E74.7683
G1 X241.264 Y182.105 E76.9887
G1 X241.264 Y182.489 E77.00793
G1 X197.02 Y182.489 E79.22833
G1 X197.02 Y182.872 E79.24756
G1 X241.264 Y182.872 E81.46796
G1 X241.264 Y183.255 E81.48719
G1 X197.02 Y183.255 E83.70759
G1 X197.02 Y183.638 E83.72682
G1 X241.264 Y183.638 E85.94723
G1 X241.264 Y184.022 E85.96646
G1 X197.02 Y184.022 E88.18686
G1 X197.02 Y184.405 E88.20609
G1 X241.264 Y184.405 E90.42649
G1 X241.264 Y184.788 E90.44572
G1 X197.02 Y184.788 E92.66612
G1 X197.02 Y185.171 E92.68535
G1 X241.264 Y185.171 E94.90575
G1 X241.264 Y185.554 E94.92499
G1 X197.02 Y185.554 E97.14539
G1 X197.02 Y185.938 E97.16462
G1 X241.264 Y185.938 E99.38502
G1 X241.264 Y186.321 E99.40425
G1 X197.02 Y186.321 E101.62465
G1 X197.02 Y186.704 E101.64388
G1 X241.264 Y186.704 E103.86428
G1 X241.264 Y187.087 E103.88352
G1 X197.02 Y187.087 E106.10392
G1 X197.02 Y187.47 E106.12315
G1 X241.264 Y187.47 E108.34355
G1 X241.264 Y187.854 E108.36278
G1 X197.02 Y187.854 E110.58318
G1 X197.02 Y188.237 E110.60241
G1 X241.264 Y188.237 E112.82281
G1 X241.264 Y188.62 E112.84204
G1 X197.02 Y188.62 E115.06245
G1 X197.02 Y189.003 E115.08168
G1 X241.264 Y189.003 E117.30208
G1 X241.264 Y189.386 E117.32131
G1 X197.02 Y189.386 E119.54171
G1 X197.02 Y189.77 E119.56094
G1 X241.264 Y189.77 E121.78134
G1 X241.264 Y190.153 E121.80057
G1 X197.02 Y190.153 E124.02097
G1 X197.02 Y190.536 E124.04021
G1 X241.264 Y190.536 E126.26061
G1 X241.264 Y190.919 E126.27984
G1 X197.02 Y190.919 E128.50024
G1 X197.02 Y191.302 E128.51947
G1 X241.264 Y191.302 E130.73987
G1 X241.264 Y191.686 E130.7591
G1 X197.02 Y191.686 E132.9795
G1 X197.02 Y192.069 E132.99874
G1 X241.264 Y192.069 E135.21914
G1 X241.264 Y192.452 E135.23837
G1 X197.02 Y192.452 E137.45877
G1 X197.02 Y192.835 E137.478
G1 X241.264 Y192.835 E139.6984
G1 X241.264 Y193.219 E139.71763
G1 X197.02 Y193.219 E141.93803
G1 X197.02 Y193.602 E141.95726
G1 X241.264 Y193.602 E144.17766
G1 X241.264 Y193.985 E144.1969
G1 X197.02 Y193.985 E146.4173
G1 X197.02 Y194.368 E146.43653
G1 X241.264 Y194.368 E148.65693
G1 X241.264 Y194.428 E148.65994
G1 X242.597 Y194.428 E148.72685
G1 X242.92 Y194.751 E148.74978
G1 X195.364 Y194.751 E151.13642
G1 X194.981 Y195.135 E151.16362
G1 X243.303 Y195.135 E153.58873
G1 X243.686 Y195.518 E153.61592
G1 X194.597 Y195.518 E156.07949
G1 X194.235 Y195.881 E156.10525
G1 X194.235 Y195.901 E156.10627
G1 X244.049 Y195.901 E158.60627
G1 X244.049 Y196.284 E158.6255
G1 X194.235 Y196.284 E161.1255
G1 X194.235 Y196.667 E161.14473
G1 X244.049 Y196.667 E163.64473
G1 X244.049 Y197.051 E163.66396
G1 X194.235 Y197.051 E166.16396
G1 X194.235 Y197.434 E166.18319
G1 X244.049 Y197.434 E168.68319
G1 X244.049 Y197.817 E168.70242
G1 X194.235 Y197.817 E171.20242
G1 X194.235 Y198.2 E171.22165
G1 X244.049 Y198.2 E173.72165
G1 X244.049 Y198.583 E173.74088
G1 X194.235 Y198.583 E176.24088
G1 X194.235 Y198.967 E176.26011
G1 X244.049 Y198.967 E178.76011
G1 X244.049 Y199.35 E178.77934
G1 X194.235 Y199.35 E181.27934
G1 X194.235 Y199.733 E181.29857
G1 X244.049 Y199.733 E183.79857
G1 X244.049 Y200.116 E183.8178
G1 X194.235 Y200.116 E186.3178
G1 X194.235 Y200.5 E186.33703
G1 X244.049 Y200.5 E188.83703
G1 X244.049 Y200.883 E188.85626
G1 X194.235 Y200.883 E191.35626
G1 X194.235 Y201.266 E191.37549
G1 X244.049 Y201.266 E193.87549
G1 X244.049 Y201.649 E193.89472
G1 X194.235 Y201.649 E196.39472
G1 X194.235 Y202.032 E196.41395
G1 X244.049 Y202.032 E198.91395
G1 X244.049 Y202.416 E198.93318
G1 X194.235 Y202.416 E201.43318
G1 X194.235 Y202.799 E201.45241
G1 X244.049 Y202.799 E203.95241
G1 X244.049 Y203.182 E203.97164
G1 X194.235 Y203.182 E206.47164
G1 X194.235 Y203.565 E206.49087
G1 X244.049 Y203.565 E208.99087
G1 X244.049 Y203.948 E209.0101
G1 X194.235 Y203.948 E211.5101
G1 X194.235 Y204.332 E211.52933
G1 X244.049 Y204.332 E214.02933
G1 X244.049 Y204.715 E214.04856
G1 X194.235 Y204.715 E216.54856
G1 X194.235 Y205.098 E216.56779
G1 X244.049 Y205.098 E219.06779
G1 X244.049 Y205.481 E219.08702
G1 X194.235 Y205.481 E221.58702
G1 X194.235 Y205.864 E221.60625
G1 X244.049 Y205.864 E224.10625
G1 X244.049 Y206.248 E224.12548
G1 X194.235 Y206.248 E226.62548
G1 X194.235 Y206.577 E226.64203
G1 X194.288 Y206.631 E226.64582
G1 X243.996 Y206.631 E229.14045
G1 X243.613 Y207.014 E229.16765
G1 X194.671 Y207.014 E231.62382
G1 X195.054 Y207.397 E231.65101
G1 X243.229 Y207.397 E234.06872
G1 X242.846 Y207.781 E234.09591
G1 X195.438 Y207.781 E236.47515
G1 X195.687 Y208.03 E236.49285
G1 X197.02 Y208.03 E236.55976
G1 X197.02 Y208.164 E236.56647
G1 X241.264 Y208.164 E238.78687
G1 X241.264 Y208.547 E238.8061
G1 X197.02 Y208.547 E241.0265
G1 X197.02 Y208.93 E241.04574
G1 X241.264 Y208.93 E243.26614
G1 X241.264 Y209.313 E243.28537
G1 X197.02 Y209.313 E245.50577
G1 X197.02 Y209.697 E245.525
G1 X241.264 Y209.697 E247.7454
G1 X241.264 Y210.08 E247.76463
G1 X197.02 Y210.08 E249.98503
G1 X197.02 Y210.463 E250.00427
G1 X241.264 Y210.463 E252.22467
G1 X241.264 Y210.846 E252.2439
G1 X197.02 Y210.846 E254.4643
G1 X197.02 Y211.229 E254.48353
G1 X241.264 Y211.229 E256.70393
G1 X241.264 Y211.613 E256.72316
G1 X197.02 Y211.613 E258.94356
G1 X197.02 Y211.996 E258.96279
G1 X241.264 Y211.996 E261.18319
G1 X241.264 Y212.379 E261.20243
G1 X197.02 Y212.379 E263.42283
G1 X197.02 Y212.762 E263.44206
G1 X241.264 Y212.762 E265.66246
G1 X241.264 Y213.145 E265.68169
G1 X197.02 Y213.145 E267.90209
G1 X197.02 Y213.529 E267.92132
G1 X241.264 Y213.529 E270.14172
G1 X241.264 Y213.912 E270.16096
G1 X197.02 Y213.912 E272.38136
G1 X197.02 Y214.295 E272.40059
G1 X241.264 Y214.295 E274.62099
G1 X241.264 Y214.678 E274.64022
G1 X197.02 Y214.678 E276.86062
G1 X197.02 Y215.062 E276.87985
G1 X241.264 Y215.062 E279.10025
G1 X241.264 Y215.445 E279.11948
G1 X197.02 Y215.445 E281.33989
G1 X197.02 Y215.828 E281.35912
G1 X241.264 Y215.828 E283.57952
G1 X241.264 Y216.211 E283.59875
G1 X197.02 Y216.211 E285.81915
G1 X197.02 Y216.594 E285.83838
G1 X241.264 Y216.594 E288.05878
G1 X241.264 Y216.978 E288.07801
G1 X197.02 Y216.978 E290.29841
G1 X197.02 Y217.361 E290.31765
G1 X241.264 Y217.361 E292.53805
G1 X241.264 Y217.72 E292.55607
G1 X241.24 Y217.744 E292.55778
G1 X197.044 Y217.744 E294.77576
G1 X197.427 Y218.127 E294.80296
G1 X240.856 Y218.127 E296.98248
G1 X240.473 Y218.51 E297.00967
G1 X197.811 Y218.51 E299.15073
G1 X198.194 Y218.894 E299.17793
G1 X240.09 Y218.894 E301.28052
G1 X239.811 Y219.172 E301.3003
G1 X238.478 Y219.172 E301.36721
G1 X238.478 Y219.277 E301.37245
G1 X199.806 Y219.277 E303.31325
G1 X199.806 Y219.66 E303.33248
G1 X238.478 Y219.66 E305.27329
G1 X238.478 Y220.043 E305.29252
G1 X199.806 Y220.043 E307.23332
G1 X199.806 Y220.426 E307.25255
G1 X238.478 Y220.426 E309.19335
G1 X238.478 Y220.506 E309.19732
G1 X238.174 Y220.81 E309.21891
G1 X200.11 Y220.81 E311.12918
G1 X200.493 Y221.193 E311.15638
G1 X237.791 Y221.193 E313.02819
G1 X237.407 Y221.576 E313.05539
G1 X200.876 Y221.576 E314.88873
G1 X201.258 Y221.958 E314.91584
G1 X232.907 Y221.959 E316.50415
G1 X232.907 Y222.343 E316.52338
G1 X205.377 Y222.343 E317.90499
G1 X205.377 Y222.726 E317.92422
G1 X232.907 Y222.726 E319.30583
G1 X232.907 Y223.109 E319.32506
G1 X205.377 Y223.109 E320.70667
G1 X205.377 Y223.291 E320.71581
G1 X205.578 Y223.492 E320.73008
G1 X232.706 Y223.492 E322.09151
G1 X232.323 Y223.875 E322.11871
G1 X205.961 Y223.875 E323.44168
G1 X206.344 Y224.259 E323.46887
G1 X231.939 Y224.259 E324.75338
G1 X231.556 Y224.642 E324.78058
G1 X206.508 Y224.642 E326.03763
;LAYER_CHANGE
;Z:0.65
;HEIGHT:0.3
G1 Z.65 F7800
G1 E324.03763 F2400
G92 E0
G1 Z3.65 F7800
G1 X207.86 Y219.464
G1 Z.65
G1 E2 F2400
;TYPE:Support material interface
;WIDTH:0.35
G1 F3600
G1 X207.86 Y174.766 E3.59234
G1 X207.574 Y174.766 E3.60251
G1 X207.574 Y219.336 E5.19028
G1 X207.289 Y219.336 E5.20045
G1 X207.289 Y174.766 E6.78821
G1 X207.003 Y174.766 E6.79839
G1 X207.003 Y219.336 E8.38615
G1 X206.717 Y219.336 E8.39632
G1 X206.717 Y174.766 E9.98408
G1 X206.432 Y174.766 E9.99426
G1 X206.432 Y219.336 E11.58202
G1 X206.146 Y219.336 E11.59219
G1 X206.146 Y174.766 E13.17995
G1 X205.861 Y174.766 E13.19013
G1 X205.861 Y219.336 E14.77789
G1 X205.575 Y219.336 E14.78807
G1 X205.575 Y174.766 E16.37583
G1 X205.289 Y174.766 E16.386
G1 X205.289 Y219.336 E17.97376
G1 X205.004 Y219.336 E17.98394
G1 X205.004 Y174.766 E19.5717
G1 X204.718 Y174.766 E19.58187
G1 X204.718 Y219.336 E21.16963
G1 X204.432 Y219.336 E21.17981
G1 X204.432 Y174.766 E22.76757
G1 X204.147 Y174.766 E22.77774
G1 X204.147 Y219.336 E24.36551
G1 X203.861 Y219.336 E24.37568
G1 X203.861 Y174.766 E25.96344
G1 X203.576 Y174.766 E25.97362
G1 X203.576 Y219.336 E27.56138
G1 X203.29 Y219.336 E27.57155
G1 X203.29 Y174.766 E29.15931
G1 X203.004 Y174.766 E29.16949
G1 X203.004 Y219.336 E30.75725
G1 X202.719 Y219.336 E30.76742
G1 X202.719 Y174.766 E32.35518
G1 X202.433 Y174.766 E32.36536
G1 X202.433 Y219.336 E33.95312
G1 X202.428 Y216.55 E34.05236
G1 X202.148 Y216.55 E34.06235
G1 X202.148 Y180.337 E35.35241
G1 X201.862 Y180.337 E35.36258
G1 X201.862 Y216.55 E36.65264
G1 X201.576 Y216.55 E36.66282
G1 X201.576 Y180.337 E37.95287
G1 X201.291 Y180.337 E37.96305
G1 X201.291 Y216.55 E39.2531
G1 X201.005 Y216.55 E39.26328
G1 X201.005 Y180.337 E40.55333
G1 X200.719 Y180.337 E40.56351
G1 X200.719 Y216.55 E41.85356
G1 X200.434 Y216.55 E41.86374
G1 X200.434 Y180.337 E43.15379
G1 X200.148 Y180.337 E43.16397
G1 X200.148 Y216.55 E44.45403
G1 X199.863 Y216.55 E44.4642
G1 X199.863 Y180.337 E45.75426
G1 X199.643 Y180.337 E45.76209
G1 X199.643 Y197.051 E46.3575
G1 X199.577 Y197.051 E46.35984
G1 X199.577 Y205.408 E46.65755
G1 X199.291 Y205.408 E46.66772
G1 X199.291 Y197.051 E46.96543
G1 X199.006 Y197.051 E46.9756
G1 X199.006 Y205.408 E47.27331
G1 X198.72 Y205.408 E47.28348
G1 X198.72 Y197.051 E47.58119
G1 X198.434 Y197.051 E47.59137
G1 X198.434 Y205.408 E47.88907
G1 X198.149 Y205.408 E47.89925
G1 X198.149 Y197.051 E48.19695
G1 X197.863 Y197.051 E48.20713
G1 X197.863 Y205.408 E48.50483
G1 X197.578 Y205.408 E48.51501
G1 X197.578 Y197.051 E48.81271
G1 X197.292 Y197.051 E48.82289
G1 X197.292 Y205.408 E49.12059
G1 X197.006 Y205.408 E49.13077
G1 X197.006 Y196.922 E49.43305
G1 E47.43305 F2400
G92 E0
G1 Z3.65 F7800
G1 X213.287 Y171.852
G1 Z.65
G1 E2 F2400
G1 F3600
G1 X213.287 Y199.836 E2.99693
G1 X213.001 Y199.836 E3.0071
G1 X213.001 Y171.98 E3.99946
G1 X212.715 Y171.98 E4.00963
G1 X212.715 Y199.836 E5.00198
G1 X212.43 Y199.836 E5.01216
G1 X212.43 Y171.98 E6.00451
G1 X212.144 Y171.98 E6.01468
G1 X212.144 Y199.836 E7.00703
G1 X211.859 Y199.836 E7.01721
