; generated by PrusaSlicer 2.4.2 on 2022-07-15 at 21:59:21 UTC

; 

; external perimeters extrusion width = 0.45mm
; perimeters extrusion width = 0.45mm
; infill extrusion width = 0.45mm
; solid infill extrusion width = 0.45mm
; top infill extrusion width = 0.40mm
; first layer extrusion width = 0.42mm

M107
M190 S60 ; set bed temperature and wait for it to be reached
M104 S215 ; set temperature
;TYPE:Custom
G28 ; home all axes
G1 Z5 F5000 ; lift nozzle
M109 S215 ; set temperature and wait for it to be reached
G21 ; set units to millimeters
G90 ; use absolute coordinates
M82 ; use absolute distances for extrusion
G92 E0
; Filament gcode
M107
;LAYER_CHANGE
;Z:0.35
;HEIGHT:0.35
G1 Z.35 F7800
G1 E-2 F2400
G92 E0
G1 X132.029 Y117.093 F7800
G1 E2 F2400
;TYPE:Skirt/Brim
;WIDTH:0.42
G1 F1800
G1 X133.194 Y115.866 E2.08492
G1 X134.576 Y114.889 E2.16985
G1 X136.552 Y114.07 E2.2772
G1 X138.219 Y113.784 E2.36211
G1 X204.177 Y113.784 E5.67223
G1 X205.844 Y114.07 E5.75715
G1 X207.423 Y114.677 E5.84204
G1 X209.202 Y115.866 E5.94942
G1 X210.082 Y116.745 E6.01184
G1 X211.058 Y118.127 E6.09674
G1 X211.877 Y120.104 E6.20413
G1 X212.097 Y121.125 E6.25654
G1 X219.745 Y179.775 E9.22487
G1 X219.798 Y180.595 E9.26613
G1 X219.798 Y227.607 E11.62548
G1 X219.723 Y228.677 E11.6793
G1 X219.481 Y229.897 E11.74171
G1 X218.662 Y231.873 E11.84906
G1 X217.686 Y233.255 E11.93398
G1 X216.806 Y234.135 E11.99641
G1 X215.425 Y235.111 E12.08132
G1 X213.448 Y235.93 E12.18868
G1 X212.228 Y236.172 E12.25111
G1 X211.159 Y236.247 E12.30491
G1 X138.841 Y236.247 E15.93421
G1 X137.772 Y236.172 E15.98803
G1 X136.552 Y235.93 E16.05043
G1 X134.575 Y235.111 E16.15781
G1 X133.194 Y234.135 E16.24271
G1 X132.314 Y233.255 E16.30515
G1 X131.338 Y231.873 E16.39004
G1 X130.519 Y229.897 E16.4974
G1 X130.276 Y228.677 E16.55985
G1 X130.202 Y227.607 E16.61364
G1 X130.202 Y122.393 E21.89393
G1 X130.277 Y121.323 E21.94774
G1 X130.519 Y120.103 E22.01016
G1 X131.338 Y118.127 E22.11751
G1 X131.995 Y117.143 E22.17692
G1 E20.17692 F2400
G92 E0
G1 X155.431 Y205.667 F7800
G1 E2 F2400
;TYPE:External perimeter
G1 F1800
G1 X157.117 Y204.877 E2.09346
G1 X166.442 Y204.877 E2.56144
G1 X168.294 Y205.666 E2.66247
G1 X166.442 Y206.457 E2.76352
G1 X157.117 Y206.457 E3.2315
G1 X155.485 Y205.692 E3.32195
G1 X155.817 Y205.561 F7800
G1 E1.32195 F2400
G92 E0
G1 X151.734 Y204.082 F7800
G1 E2 F2400
G1 F1800
G1 X154.158 Y204.082 E2.12164
G1 X154.158 Y191.712 E2.74242
G1 X154.302 Y191.666 E2.75003
G1 X154.447 Y191.872 E2.76268
G1 X154.51 Y192.122 E2.77559
G1 X154.743 Y202.838 E3.31353
G1 X155.89 Y208.299 E3.59356
G1 X166.711 Y220.89 E4.42674
G1 X165.185 Y223.446 E4.57616
G1 X155.283 Y223.062 E5.07344
G1 X154.775 Y222.294 E5.11964
G1 X152.748 Y223.076 E5.22866
G1 X152.694 Y223.382 E5.24422
G1 X148.06 Y223.376 E5.47677
G1 X147.576 Y219.357 E5.67994
G1 X147.842 Y219.032 E5.70099
G1 X147.677 Y215.214 E5.89276
G1 X147.417 Y214.873 E5.91431
G1 X146.211 Y183.792 E7.47532
G1 X147.136 Y180.955 E7.62508
G1 X151.739 Y175.767 E7.97316
G1 X151.734 Y204.022 E9.39113
G1 X151.761 Y204.481 F7800
G1 E7.39113 F2400
G92 E0
G1 X174.186 Y205.667 F7800
G1 E2 F2400
G1 F1800
G1 X175.872 Y204.877 E2.09346
G1 X185.197 Y204.877 E2.56144
G1 X187.05 Y205.667 E2.66257
G1 X185.197 Y206.457 E2.76368
G1 X175.872 Y206.457 E3.23166
G1 X174.24 Y205.692 E3.32211
G1 X174.571 Y205.561 F7800
G1 E1.32211 F2400
G92 E0
G1 X176.593 Y128.727 F7800
G1 E2 F2400
G1 F1800
G1 X176.596 Y131.14 E2.12113
G1 X199.389 Y131.14 E3.26502
G1 X199.413 Y131.319 E3.27408
G1 X198.859 Y131.473 E3.30293
G1 X192.39 Y132.039 E3.62883
G1 X190.168 Y132.294 E3.7411
G1 X187.616 Y132.682 E3.87065
G1 X185.418 Y133.099 E3.98292
G1 X177.621 Y134.798 E4.38339
G1 X172.373 Y135.795 E4.6515
G1 X169.968 Y136.18 E4.77372
G1 X168.959 Y136.297 E4.82472
G1 X167.949 Y136.359 E4.87546
G1 X167.002 Y136.38 E4.92302
G1 X166.059 Y136.283 E4.9706
G1 X164.962 Y136.072 E5.02664
G1 X164.337 Y135.894 E5.05925
G1 X163.642 Y135.639 E5.09642
G1 X162.511 Y135.18 E5.15768
G1 X161.07 Y134.521 E5.2372
G1 X159.457 Y133.7 E5.328
G1 X159.173 Y133.834 E5.34379
G1 X158.978 Y133.873 E5.35376
G1 X157.315 Y133.942 E5.43731
G1 X157.228 Y133.932 E5.4417
G1 X157.16 Y133.902 E5.44544
G1 X157.063 Y133.789 E5.45289
G1 X156.986 Y133.161 E5.48465
G1 X153.243 Y132.499 E5.67541
G1 X150.976 Y131.984 E5.79208
G1 X148.711 Y131.254 E5.91151
G1 X146.442 Y130.327 E6.03454
G1 X144.416 Y129.393 E6.14649
G1 X143.954 Y129.12 E6.17341
G1 X144.395 Y128.858 E6.19913
G1 X146.519 Y128.414 E6.30804
G1 X148.91 Y127.972 E6.43006
G1 X151.294 Y127.725 E6.55034
G1 X153.724 Y127.695 E6.6723
G1 X154.444 Y127.417 E6.71105
G1 X154.716 Y127.344 E6.72515
G1 X154.995 Y127.314 E6.73924
G1 X156.269 Y127.313 E6.80318
G1 X156.52 Y127.334 E6.81583
G1 X158.314 Y127.627 E6.90705
G1 X163.015 Y127.753 E7.14308
G1 X172.067 Y127.774 E7.59737
G1 X176.748 Y127.588 E7.83247
G1 X182.011 Y127.488 E8.09665
G1 X193 Y127.603 E8.64815
G1 X198.228 Y128.108 E8.91176
G1 X198.982 Y128.437 E8.95305
G1 X199.158 Y128.726 E8.97003
G1 X176.653 Y128.727 E10.09951
G1 X176.193 Y128.729 F7800
G1 E8.09951 F2400
G92 E0
G1 X174.625 Y135.451 F7800
G1 E2 F2400
G1 F1800
G1 X175.415 Y137.138 E2.09346
G1 X175.415 Y143.706 E2.42311
G1 X174.625 Y145.559 E2.5242
G1 X173.835 Y143.706 E2.62529
G1 X173.835 Y137.138 E2.95494
G1 X174.6 Y135.506 E3.04538
G1 X174.728 Y135.838 F7800
G1 E1.04538 F2400
G92 E0
G1 X195.541 Y191.435 F7800
G1 E2 F2400
;TYPE:Perimeter
G1 F1800
G1 X194.637 Y214.751 E3.17098
G1 X194.376 Y215.091 E3.19248
G1 X194.202 Y219.148 E3.39629
G1 X194.457 Y219.461 E3.41657
G1 X194.028 Y223.032 E3.59704
G1 X189.989 Y223.036 E3.79975
G1 X189.951 Y222.824 E3.81055
G1 X187.485 Y221.873 E3.94323
G1 X186.921 Y222.724 E3.99448
G1 X177.4 Y223.093 E4.47262
G1 X176.106 Y220.926 E4.59929
G1 X186.823 Y208.457 E5.42446
G1 X187.705 Y204.257 E5.63983
G1 X187.891 Y204.276 E5.6492
G1 X187.891 Y204.427 E5.65675
G1 X191.004 Y204.426 E5.81301
G1 X190.999 Y176.676 E7.20571
G1 X194.952 Y181.13 E7.50459
G1 X195.835 Y183.84 E7.64765
G1 X195.543 Y191.375 E8.02609
G1 E6.02609 F2400
G92 E0
G1 X174.998 Y205.667 F7800
G1 E2 F2400
G1 F1800
G1 X175.949 Y205.222 E2.05266
G1 X185.126 Y205.222 E2.51325
G1 X186.171 Y205.667 E2.57023
G1 X185.126 Y206.112 E2.6272
G1 X175.949 Y206.112 E3.08779
G1 X175.053 Y205.692 E3.13744
G1 E1.13744 F2400
G92 E0
G1 X156.244 Y205.667 F7800
G1 E2 F2400
G1 F1800
G1 X157.194 Y205.222 E2.05266
G1 X166.372 Y205.222 E2.51325
G1 X167.415 Y205.666 E2.57017
G1 X166.371 Y206.112 E2.62711
G1 X157.194 Y206.112 E3.0877
G1 X156.298 Y205.692 E3.13734
G1 E1.13734 F2400
G92 E0
G1 X151.39 Y204.426 F7800
G1 E2 F2400
G1 F1800
G1 X154.503 Y204.427 E2.15626
G1 X154.503 Y204.276 E2.16381
G1 X154.689 Y204.257 E2.17318
G1 X155.571 Y208.457 E2.38855
G1 X166.288 Y220.926 E3.21372
G1 X164.993 Y223.093 E3.34039
G1 X155.473 Y222.724 E3.81853
G1 X154.909 Y221.873 E3.86978
G1 X152.443 Y222.824 E4.00246
G1 X152.405 Y223.036 E4.01326
G1 X148.366 Y223.032 E4.21597
G1 X147.936 Y219.461 E4.39644
G1 X148.192 Y219.148 E4.41672
G1 X148.017 Y215.091 E4.62052
G1 X147.757 Y214.751 E4.64203
G1 X146.558 Y183.84 E6.19446
G1 X147.441 Y181.13 E6.33752
G1 X151.394 Y176.676 E6.6364
G1 X151.39 Y204.366 E8.02609
G1 E6.02609 F2400
G92 E0
G1 X164.382 Y133.044 F7800
G1 E2 F2400
G1 F1800
G1 X161.739 Y132.907 E2.13285
G1 X160.251 Y133.013 E2.20772
G1 X160.557 Y133.873 E2.25357
G1 X159.463 Y133.316 E2.31518
G1 X159.064 Y133.504 E2.33733
G1 X158.937 Y133.53 E2.34385
G1 X157.376 Y133.594 E2.42223
G1 X157.303 Y132.867 E2.45891
G1 X153.311 Y132.161 E2.66236
G1 X151.067 Y131.651 E2.77783
G1 X148.829 Y130.929 E2.89583
G1 X146.579 Y130.01 E3.01783
G1 X144.921 Y129.246 E3.10947
G1 X144.938 Y129.097 E3.11697
G1 X146.586 Y128.752 E3.20149
G1 X148.959 Y128.313 E3.32262
G1 X151.314 Y128.07 E3.44142
G1 X153.791 Y128.039 E3.56572
G1 X154.551 Y127.745 E3.60666
G1 X154.779 Y127.684 E3.61849
G1 X155.013 Y127.659 E3.63032
G1 X156.255 Y127.658 E3.69262
G1 X156.478 Y127.676 E3.70387
G1 X158.281 Y127.971 E3.79556
G1 X163.01 Y128.098 E4.03297
G1 X172.074 Y128.119 E4.48783
G1 X176.758 Y127.932 E4.72312
G1 X182.013 Y127.833 E4.98687
G1 X192.981 Y127.948 E5.53736
G1 X195.432 Y128.185 E5.66093
G1 X195.423 Y128.381 E5.67083
G1 X176.247 Y128.382 E6.63317
G1 X176.252 Y131.485 E6.78891
G1 X192.492 Y131.485 E7.60394
G1 X192.5 Y131.683 E7.61389
G1 X190.122 Y131.952 E7.734
G1 X187.558 Y132.342 E7.86418
G1 X185.349 Y132.761 E7.977
G1 X177.552 Y134.46 E8.37748
G1 X172.543 Y135.412 E8.63336
G1 X172.315 Y133.604 E8.7248
G1 X170.006 Y133.573 E8.84069
G1 X168.158 Y133.523 E8.93349
G1 X166.31 Y133.436 E9.02633
G1 X164.352 Y133.317 E9.1248
G1 X164.376 Y133.103 E9.13559
G1 E7.13559 F2400
G92 E0
G1 X174.625 Y136.264 F7800
G1 E2 F2400
G1 F1800
G1 X175.07 Y137.215 E2.05266
G1 X175.07 Y143.636 E2.37492
G1 X174.625 Y144.68 E2.43188
G1 X174.18 Y143.636 E2.48883
G1 X174.18 Y137.215 E2.8111
G1 X174.6 Y136.319 E2.86074
G1 E.86074 F2400
G92 E0
G1 X188.331 Y142.736 F7800
G1 E2 F2400
G1 F1800
G1 X179.643 Y153.959 E2.71226
G1 X179.63 Y158.382 E2.93422
G1 X190.386 Y156.557 E3.4817
G1 X190.386 Y156.146 E3.50233
G1 X196.458 Y154.993 E3.81253
G1 X196.458 Y155.398 E3.83284
G1 X200.34 Y154.645 E4.03127
G1 X200.429 Y156.022 E4.10054
G1 X200.419 Y157.509 E4.17515
G1 X200.691 Y157.625 E4.18997
G1 X200.65 Y158.831 E4.25052
G1 X200.329 Y159.032 E4.26955
G1 X200.299 Y159.929 E4.31461
G1 X200.25 Y160.3 E4.33337
G1 X200.132 Y160.71 E4.35478
G1 X199.95 Y161.127 E4.37762
G1 X199.732 Y161.493 E4.39903
G1 X199.494 Y161.782 E4.41778
G1 X179.631 Y181.576 E5.82508
G1 X179.631 Y182.668 E5.87988
G1 X179.603 Y183.364 E5.91483
G1 X179.523 Y184.187 E5.95635
G1 X179.404 Y185.011 E5.99813
G1 X179.265 Y185.699 E6.03335
G1 X173.385 Y206.903 E7.13767
G1 X173.178 Y207.482 E7.1685
G1 X172.998 Y207.733 E7.18399
G1 X172.854 Y207.686 E7.19156
G1 X172.854 Y189.05 E8.12685
G1 X169.708 Y189.05 E8.28473
G1 X169.708 Y207.686 E9.22003
G1 X169.564 Y207.733 E9.2276
G1 X169.385 Y207.482 E9.24309
G1 X169.177 Y206.903 E9.27391
G1 X163.297 Y185.699 E10.37824
G1 X163.158 Y185.011 E10.41346
G1 X163.039 Y184.187 E10.45524
G1 X162.959 Y183.364 E10.49676
G1 X162.931 Y182.668 E10.5317
G1 X162.931 Y181.576 E10.5865
G1 X143.069 Y161.782 E11.9938
G1 X142.831 Y161.493 E12.01256
G1 X142.612 Y161.127 E12.03397
G1 X142.431 Y160.71 E12.05681
G1 X142.312 Y160.3 E12.07822
G1 X142.263 Y159.929 E12.09697
G1 X142.234 Y159.032 E12.14203
G1 X141.912 Y158.831 E12.16107
G1 X141.872 Y157.625 E12.22162
G1 X142.143 Y157.509 E12.23643
G1 X142.133 Y156.022 E12.31104
G1 X142.222 Y154.645 E12.38031
G1 X146.104 Y155.398 E12.57874
G1 X146.104 Y154.993 E12.59906
G1 X152.176 Y156.146 E12.90925
G1 X152.176 Y156.557 E12.92988
G1 X162.932 Y158.382 E13.47736
G1 X162.919 Y153.959 E13.69932
G1 X152.075 Y139.951 E14.58838
G1 X151.974 Y139.759 E14.59926
G1 X151.933 Y139.551 E14.60988
G1 X151.933 Y139.236 E14.62568
G1 X152.012 Y138.923 E14.64188
G1 X153.28 Y136.576 E14.77577
G1 X161.651 Y140.685 E15.24377
G1 X161.683 Y141.216 E15.27046
G1 X162.065 Y141.222 E15.28961
G1 X162.737 Y143.554 E15.41141
G1 X163.377 Y143.554 E15.44354
G1 X163.377 Y162.362 E16.3874
G1 X166.486 Y162.362 E16.54339
G1 X166.486 Y145.971 E17.36597
G1 X169.982 Y145.971 E17.54143
G1 X170.228 Y145.837 E17.55551
G1 X170.409 Y146.864 E17.6078
G1 X172.153 Y146.864 E17.69533
G1 X172.334 Y145.837 E17.74763
G1 X172.58 Y145.971 E17.7617
G1 X176.076 Y145.971 E17.93716
G1 X176.076 Y162.362 E18.75974
G1 X179.185 Y162.362 E18.91573
G1 X179.185 Y143.554 E19.85959
G1 X179.825 Y143.554 E19.89172
G1 X180.497 Y141.222 E20.01353
G1 X180.879 Y141.216 E20.03268
G1 X180.911 Y140.685 E20.05937
G1 X189.282 Y136.576 E20.52736
G1 X190.55 Y138.923 E20.66126
G1 X190.629 Y139.236 E20.67746
G1 X190.629 Y139.551 E20.69326
G1 X190.588 Y139.759 E20.70387
G1 X190.487 Y139.951 E20.71476
G1 X188.367 Y142.689 E20.88854
G1 E18.88854 F2400
G92 E0
G1 X195.196 Y191.422 F7800
G1 E2 F2400
G1 F1800
G1 X194.296 Y214.628 E3.16549
G1 X194.036 Y214.968 E3.18696
G1 X193.852 Y219.265 E3.40281
G1 X194.097 Y219.566 E3.42231
G1 X193.722 Y222.687 E3.58009
G1 X190.278 Y222.691 E3.75294
G1 X190.257 Y222.573 E3.75898
G1 X187.35 Y221.451 E3.91533
G1 X186.731 Y222.386 E3.97161
G1 X177.591 Y222.741 E4.43061
G1 X176.529 Y220.963 E4.53456
G1 X187.142 Y208.614 E5.3517
G1 X187.949 Y204.771 E5.54876
G1 X191.349 Y204.771 E5.71939
G1 X191.344 Y177.584 E7.08381
G1 X194.647 Y181.305 E7.33349
G1 X195.488 Y183.888 E7.46985
G1 X195.199 Y191.362 E7.84519
G1 E5.84519 F2400
G92 E0
G1 X151.045 Y204.771 F7800
G1 E2 F2400
G1 F1800
G1 X154.444 Y204.771 E2.17062
G1 X155.252 Y208.614 E2.36769
G1 X165.864 Y220.963 E3.18483
G1 X164.802 Y222.741 E3.28877
G1 X155.663 Y222.386 E3.74777
G1 X155.044 Y221.451 E3.80406
G1 X152.137 Y222.573 E3.9604
G1 X152.116 Y222.691 E3.96644
G1 X148.672 Y222.687 E4.1393
G1 X148.296 Y219.566 E4.29707
G1 X148.542 Y219.265 E4.31658
G1 X148.357 Y214.968 E4.53242
G1 X148.098 Y214.628 E4.55389
G1 X146.905 Y183.888 E6.09774
G1 X147.747 Y181.305 E6.2341
G1 X151.049 Y177.584 E6.48378
G1 X151.045 Y204.711 E7.84519
G1 E5.84519 F2400
G92 E0
G1 X164.766 Y132.718 F7800
G1 E2 F2400
G1 F1800
G1 X161.735 Y132.562 E2.1523
G1 X159.773 Y132.701 E2.25102
G1 X159.941 Y133.173 E2.27617
G1 X159.47 Y132.932 E2.30275
G1 X158.955 Y133.174 E2.33126
G1 X158.896 Y133.186 E2.33432
G1 X157.687 Y133.236 E2.39504
G1 X157.62 Y132.573 E2.4285
G1 X153.379 Y131.822 E2.64462
G1 X151.158 Y131.319 E2.75891
G1 X148.948 Y130.605 E2.87548
G1 X146.717 Y129.694 E2.99644
G1 X146.013 Y129.369 E3.03533
G1 X146.03 Y129.221 E3.04284
G1 X149.008 Y128.655 E3.195
G1 X151.334 Y128.415 E3.31233
G1 X153.857 Y128.384 E3.43896
G1 X154.659 Y128.074 E3.48209
G1 X154.843 Y128.024 E3.49166
G1 X155.032 Y128.004 E3.50122
G1 X156.241 Y128.003 E3.56188
G1 X156.436 Y128.019 E3.57173
G1 X158.249 Y128.315 E3.66389
G1 X163.005 Y128.443 E3.90268
G1 X172.08 Y128.464 E4.35813
G1 X175.902 Y128.312 E4.55008
G1 X175.907 Y131.83 E4.72665
G1 X187.398 Y131.83 E5.30334
G1 X187.416 Y132.018 E5.31279
G1 X185.28 Y132.423 E5.42188
G1 X177.483 Y134.122 E5.82236
G1 X172.839 Y135.004 E6.05958
G1 X172.62 Y133.263 E6.14766
G1 X170.013 Y133.228 E6.27849
G1 X168.171 Y133.178 E6.37101
G1 X164.735 Y132.995 E6.54368
G1 X164.759 Y132.778 E6.55464
G1 E4.55464 F2400
G92 E0
G1 X151.949 Y143.743 F7800
G1 E2 F2400
G1 F1800
G1 X152.008 Y143.872 E2.00711
G1 X144.846 Y147.212 E2.4037
G1 X144.483 Y147.212 E2.42192
G1 X144.448 Y147.048 E2.43031
G1 X151.924 Y143.689 E2.84165
G1 E.84165 F2400
G92 E0
G1 X154.463 Y142.472 F7800
G1 E2 F2400
G1 F1800
G1 X152.366 Y139.763 E2.17188
G1 X152.303 Y139.643 E2.17872
G1 X152.278 Y139.517 E2.18513
G1 X152.278 Y139.279 E2.19709
G1 X152.336 Y139.049 E2.20898
G1 X153.426 Y137.031 E2.32407
G1 X161.319 Y140.906 E2.76535
G1 X161.358 Y141.556 E2.798
G1 X161.804 Y141.563 E2.82037
G1 X162.478 Y143.899 E2.94239
G1 X163.033 Y143.899 E2.97024
G1 X163.033 Y153.313 E3.4427
G1 X162.893 Y153.361 E3.45013
G1 X154.499 Y142.519 E4.13824
G1 E2.13824 F2400
G92 E0
G1 X173.378 Y205.636 F7800
G1 E2 F2400
G1 F1800
G1 X173.199 Y205.612 E2.00907
G1 X173.199 Y188.705 E2.85757
G1 X169.363 Y188.705 E3.05007
G1 X169.363 Y205.612 E3.89857
G1 X169.184 Y205.636 E3.90764
G1 X163.632 Y185.619 E4.95016
G1 X163.498 Y184.952 E4.98429
G1 X163.381 Y184.146 E5.02518
G1 X163.303 Y183.34 E5.06581
G1 X163.276 Y182.661 E5.09991
G1 X163.276 Y181.433 E5.16155
G1 X143.324 Y161.549 E6.5752
G1 X143.113 Y161.294 E6.5918
G1 X142.919 Y160.969 E6.61078
G1 X142.756 Y160.592 E6.6314
G1 X142.65 Y160.229 E6.65038
G1 X142.607 Y159.901 E6.66698
G1 X142.572 Y158.837 E6.72042
G1 X142.25 Y158.636 E6.73946
G1 X142.224 Y157.849 E6.77896
G1 X142.489 Y157.736 E6.79344
G1 X142.478 Y156.032 E6.87893
G1 X142.541 Y155.058 E6.92792
G1 X146.449 Y155.816 E7.12768
G1 X146.449 Y155.41 E7.14808
G1 X151.831 Y156.431 E7.42304
G1 X151.831 Y156.848 E7.44396
G1 X163.033 Y158.749 E8.01412
G1 X163.033 Y162.706 E8.21275
G1 X166.831 Y162.706 E8.40336
G1 X166.831 Y146.316 E9.22594
G1 X169.962 Y146.316 E9.38312
G1 X170.12 Y147.209 E9.42861
G1 X172.443 Y147.209 E9.54519
G1 X172.6 Y146.316 E9.59069
G1 X175.732 Y146.316 E9.74786
G1 X175.732 Y162.706 E10.57044
G1 X179.53 Y162.706 E10.76105
