; generated by PrusaSlicer 2.4.1 on 2022-03-14 at 20:02:49 UTC


;
;

;
;
; 

; external perimeters extrusion width = 0.40mm
; perimeters extrusion width = 0.40mm
; infill extrusion width = 0.45mm
; solid infill extrusion width = 0.45mm
; top infill extrusion width = 0.40mm
; support material extrusion width = 0.30mm
; first layer extrusion width = 0.42mm

M73 P0 R92
M201 X1250 Y1250 Z400 E5000 ; sets maximum accelerations, mm/sec^2
M203 X180 Y180 Z12 E80 ; sets maximum feedrates, mm / sec
M204 P1250 R1250 T1250 ; sets acceleration (P, T) and retract acceleration (R), mm/sec^2
M205 X8.00 Y8.00 Z2.00 E10.00 ; sets the jerk limits, mm/sec
M205 S0 T0 ; sets the minimum extruding and travel feed rate, mm/sec
M107
;TYPE:Custom
G90 ; use absolute coordinates
M83 ; extruder relative mode
M104 S170 ; set extruder temp for bed leveling
M140 S60 ; set bed temp
M109 R170 ; wait for bed leveling temp
M190 S60 ; wait for bed temp
G28 ; home all without mesh bed level
G29 ; mesh bed leveling 
M104 S225 ; set extruder temp
G92 E0.0
G1 Y-2.0 X179 F2400
G1 Z3 F720
M109 S225 ; wait for extruder temp

; intro line
G1 X170 F1000
G1 Z0.2 F720
G1 X110.0 E8.0 F900
G1 X40.0 E10.0 F700
G92 E0.0

M221 S95 ; set flow
G21 ; set units to millimeters
G90 ; use absolute coordinates
M83 ; use relative distances for extrusion
M900 K0.2 ; Filament gcode LA 1.5
; ; Filament gcode LA 1.0
M107
;LAYER_CHANGE
;Z:0.2
;HEIGHT:0.2
;BEFORE_LAYER_CHANGE
G92 E0.0
;0.2


G1 Z.2 F9000
;AFTER_LAYER_CHANGE
;0.2
G1 E-3.2 F4200
G1 X135.84 Y134.295 F9000
G1 E3.2 F2400
M204 S800
;TYPE:Skirt/Brim
;WIDTH:0.42
G1 F1200
G1 X136.668 Y133.579 E.03431
G1 X140.443 Y131.641 E.13307
G1 X145.825 Y129.852 E.17783
G1 X146.575 Y129.73 E.02382
G1 X153.579 Y129.73 E.21959
G1 X154.348 Y129.858 E.02446
G1 X159.577 Y131.648 E.17326
G1 X160.423 Y132.154 E.03094
G1 X162.416 Y134.005 E.08529
G1 X167.784 Y139.373 E.23802
G1 X168.359 Y140.302 E.03425
G1 X170.148 Y145.67 E.17741
G1 X170.27 Y146.421 E.02388
G1 X170.27 Y153.579 E.22441
G1 X170.148 Y154.33 E.02388
G1 X168.359 Y159.698 E.17741
G1 X167.784 Y160.627 E.03425
G1 X162.416 Y165.995 E.23802
G1 X160.423 Y167.846 E.08529
G1 X159.557 Y168.359 E.03158
G1 X154.175 Y170.148 E.17783
G1 X153.425 Y170.27 E.02382
G1 X146.421 Y170.27 E.21959
G1 X145.652 Y170.142 E.02446
G1 X140.423 Y168.352 E.17326
G1 X136.444 Y166.456 E.13821
G1 X135.497 Y165.633 E.03935
G1 X131.919 Y160.265 E.20228
G1 X131.641 Y159.698 E.01979
G1 X129.852 Y154.33 E.17741
G1 X129.73 Y153.579 E.02388
G1 X129.73 Y146.421 E.22441
G1 X129.852 Y145.67 E.02388
G1 X131.641 Y140.302 E.17741
G1 X131.969 Y139.663 E.02251
G1 X135.805 Y134.344 E.20563
M204 S1250
; printing object pc_foot.stl id:0 copy 0
G1 E-2.24 F4200
;WIPE_START
G1 F7200
G1 X136.668 Y133.579 E-.6388
G1 X137.106 Y133.354 E-.2732
;WIPE_END
G1 E-.048 F4200
G1 X140.962 Y135.686 F9000
G1 E3.2 F2400
M204 S800
;TYPE:Support material interface
;WIDTH:0.3
G1 F1200
G1 X140.704 Y135.686 E.00551
G1 X140.704 Y164.314 E.61197
G1 X140.215 Y164.314 E.01046
G1 X140.215 Y135.686 E.61197
G1 X139.725 Y135.686 E.01046
G1 X139.725 Y164.314 E.61197
G1 X139.236 Y164.314 E.01046
G1 X139.236 Y135.686 E.61197
G1 X138.747 Y135.686 E.01046
G1 X138.747 Y164.314 E.61197
G1 X138.258 Y164.314 E.01046
G1 X138.258 Y135.686 E.61197
G1 X137.768 Y135.686 E.01046
G1 X137.768 Y164.314 E.61197
G1 X137.475 Y164.314 E.00627
G1 X137.475 Y160.736 E.0765
G1 X137.279 Y160.736 E.00419
G1 X137.279 Y139.264 E.45898
G1 X136.79 Y139.264 E.01046
G1 X136.79 Y160.736 E.45898
G1 X136.3 Y160.736 E.01046
G1 X136.3 Y139.264 E.45898
G1 X135.811 Y139.264 E.01046
G1 X135.811 Y160.736 E.45898
M204 S1250
G1 E-2.24 F4200
;WIPE_START
G1 F7200
G1 X135.811 Y159.09 E-.912
;WIPE_END
G1 E-.048 F4200
G1 X132.242 Y146.421 F9000
G1 E3.2 F2400
M204 S800
G1 F1200
G1 X132.107 Y146.421 E.00287
G1 X132.107 Y153.579 E.15299
G1 X132.386 Y153.579 E.00596
G1 X132.386 Y146.421 E.15299
G1 X132.876 Y146.421 E.01046
G1 X132.876 Y153.579 E.15299
G1 X133.365 Y153.579 E.01046
G1 X133.365 Y146.421 E.15299
G1 X133.709 Y146.421 E.00737
M204 S1250
G1 E-2.24 F4200
;WIPE_START
G1 F7200
G1 X133.365 Y146.421 E-.19099
G1 X133.365 Y147.723 E-.72102
;WIPE_END
G1 E-.048 F4200
G1 X133.897 Y141.054 F9000
G1 E3.2 F2400
M204 S800
G1 F1200
G1 X133.897 Y146.421 E.11474
G1 X133.854 Y146.421 E.00091
G1 X133.854 Y153.579 E.15299
G1 X133.897 Y153.579 E.00091
G1 X133.897 Y158.946 E.11474
G1 X134.343 Y158.946 E.00955
G1 X134.343 Y141.054 E.38248
G1 X134.833 Y141.054 E.01046
G1 X134.833 Y158.946 E.38248
G1 X135.322 Y158.946 E.01046
G1 X135.322 Y141.054 E.38248
G1 X135.58 Y141.054 E.00551
M204 S1250
G1 E-2.24 F4200
;WIPE_START
G1 F7200
G1 X135.322 Y141.054 E-.14289
G1 X135.322 Y142.442 E-.76911
;WIPE_END
G1 E-.048 F4200
G1 X146.344 Y133.897 F9000
G1 E3.2 F2400
M204 S800
G1 F1200
G1 X146.086 Y133.897 E.00551
G1 X146.086 Y166.103 E.68846
G1 X145.597 Y166.103 E.01046
G1 X145.597 Y133.897 E.68846
G1 X145.107 Y133.897 E.01046
G1 X145.107 Y166.103 E.68846
G1 X144.618 Y166.103 E.01046
G1 X144.618 Y133.897 E.68846
G1 X144.129 Y133.897 E.01046
G1 X144.129 Y166.103 E.68846
G1 X143.64 Y166.103 E.01046
G1 X143.64 Y133.897 E.68846
G1 X143.15 Y133.897 E.01046
M73 P0 R91
G1 X143.15 Y166.103 E.68846
G1 X142.661 Y166.103 E.01046
M73 P1 R91
G1 X142.661 Y133.897 E.68846
G1 X142.172 Y133.897 E.01046
G1 X142.172 Y166.103 E.68846
G1 X141.682 Y166.103 E.01046
G1 X141.682 Y133.897 E.68846
G1 X141.193 Y133.897 E.01046
G1 X141.193 Y166.103 E.68846
M204 S1250
G1 E-2.24 F4200
;WIPE_START
G1 F7200
G1 X141.193 Y164.458 E-.912
;WIPE_END
G1 E-.048 F4200
G1 X146.421 Y167.574 F9000
G1 E3.2 F2400
M204 S800
G1 F1200
G1 X146.421 Y167.893 E.00681
G1 X146.575 Y167.893 E.00328
G1 X146.575 Y132.107 E.76496
G1 X147.064 Y132.107 E.01046
G1 X147.064 Y167.893 E.76496
G1 X147.554 Y167.893 E.01046
G1 X147.554 Y132.107 E.76496
G1 X148.043 Y132.107 E.01046
G1 X148.043 Y167.893 E.76496
G1 X148.532 Y167.893 E.01046
G1 X148.532 Y132.107 E.76496
G1 X149.021 Y132.107 E.01046
G1 X149.021 Y167.893 E.76496
G1 X149.511 Y167.893 E.01046
G1 X149.511 Y132.107 E.76496
G1 X150 Y132.107 E.01046
G1 X150 Y167.893 E.76496
G1 X150.489 Y167.893 E.01046
G1 X150.489 Y132.107 E.76496
G1 X150.979 Y132.107 E.01046
G1 X150.979 Y167.893 E.76496
G1 X151.468 Y167.893 E.01046
G1 X151.468 Y132.107 E.76496
G1 X151.957 Y132.107 E.01046
G1 X151.957 Y167.893 E.76496
G1 X152.446 Y167.893 E.01046
G1 X152.446 Y132.107 E.76496
G1 X152.936 Y132.107 E.01046
G1 X152.936 Y167.893 E.76496
G1 X153.425 Y167.893 E.01046
G1 X153.425 Y132.107 E.76496
G1 X153.579 Y132.107 E.00329
G1 X153.579 Y132.426 E.00681
M204 S1250
G1 E-2.24 F4200
;WIPE_START
G1 F7200
G1 X153.579 Y132.107 E-.17663
G1 X153.425 Y132.107 E-.08516
G1 X153.425 Y133.281 E-.6502
;WIPE_END
G1 E-.048 F4200
G1 X167.758 Y153.579 F9000
G1 E3.2 F2400
M204 S800
G1 F1200
G1 X167.893 Y153.579 E.00287
G1 X167.893 Y146.421 E.15299
G1 X167.614 Y146.421 E.00596
G1 X167.614 Y153.579 E.15299
G1 X167.124 Y153.579 E.01046
G1 X167.124 Y146.421 E.15299
G1 X166.635 Y146.421 E.01046
G1 X166.635 Y153.579 E.15299
G1 X166.291 Y153.579 E.00737
M204 S1250
G1 E-2.24 F4200
;WIPE_START
G1 F7200
G1 X166.635 Y153.579 E-.19099
G1 X166.635 Y152.277 E-.72102
;WIPE_END
G1 E-.048 F4200
G1 X160.909 Y162.525 F9000
G1 E3.2 F2400
M204 S800
G1 F1200
G1 X161.253 Y162.525 E.00737
G1 X161.253 Y137.475 E.53547
G1 X161.742 Y137.475 E.01046
G1 X161.742 Y162.525 E.53547
G1 X162.232 Y162.525 E.01046
G1 X162.232 Y137.475 E.53547
G1 X162.525 Y137.475 E.00627
G1 X162.525 Y139.264 E.03825
G1 X162.721 Y139.264 E.00419
G1 X162.721 Y160.736 E.45898
G1 X163.21 Y160.736 E.01046
G1 X163.21 Y139.264 E.45898
G1 X163.7 Y139.264 E.01046
G1 X163.7 Y160.736 E.45898
G1 X164.189 Y160.736 E.01046
G1 X164.189 Y139.264 E.45898
M204 S1250
G1 E-2.24 F4200
;WIPE_START
G1 F7200
G1 X164.189 Y140.91 E-.912
;WIPE_END
G1 E-.048 F4200
G1 X164.42 Y141.054 F9000
G1 E3.2 F2400
M204 S800
G1 F1200
G1 X164.678 Y141.054 E.00551
G1 X164.678 Y158.946 E.38248
G1 X165.167 Y158.946 E.01046
G1 X165.167 Y141.054 E.38248
G1 X165.657 Y141.054 E.01046
G1 X165.657 Y158.946 E.38248
G1 X166.103 Y158.946 E.00955
G1 X166.103 Y153.579 E.11474
G1 X166.146 Y153.579 E.00091
G1 X166.146 Y146.421 E.15299
G1 X166.103 Y146.421 E.00091
G1 X166.103 Y141.054 E.11474
M204 S1250
G1 E-2.24 F4200
;WIPE_START
G1 F7200
G1 X166.103 Y142.699 E-.912
;WIPE_END
G1 E-.048 F4200
G1 X160.736 Y135.686 F9000
G1 E3.2 F2400
M204 S800
G1 F1200
G1 X160.736 Y137.475 E.03825
G1 X160.764 Y137.475 E.0006
G1 X160.764 Y162.525 E.53547
G1 X160.736 Y162.525 E.0006
G1 X160.736 Y164.314 E.03825
G1 X160.275 Y164.314 E.00985
G1 X160.275 Y135.686 E.61197
G1 X159.785 Y135.686 E.01046
G1 X159.785 Y164.314 E.61197
G1 X159.296 Y164.314 E.01046
G1 X159.296 Y135.686 E.61197
G1 X159.038 Y135.686 E.00551
M204 S1250
M73 P2 R91
G1 E-2.24 F4200
;WIPE_START
G1 F7200
G1 X159.296 Y135.686 E-.14289
G1 X159.296 Y137.074 E-.76911
;WIPE_END
G1 E-.048 F4200
G1 X158.807 Y133.897 F9000
G1 E3.2 F2400
M204 S800
G1 F1200
G1 X158.807 Y166.103 E.68846
G1 X158.318 Y166.103 E.01046
G1 X158.318 Y133.897 E.68846
G1 X157.828 Y133.897 E.01046
M73 P2 R90
G1 X157.828 Y166.103 E.68846
G1 X157.339 Y166.103 E.01046
G1 X157.339 Y133.897 E.68846
G1 X156.85 Y133.897 E.01046
G1 X156.85 Y166.103 E.68846
G1 X156.36 Y166.103 E.01046
G1 X156.36 Y133.897 E.68846
G1 X155.871 Y133.897 E.01046
G1 X155.871 Y166.103 E.68846
G1 X155.382 Y166.103 E.01046
G1 X155.382 Y133.897 E.68846
G1 X154.893 Y133.897 E.01046
G1 X154.893 Y166.103 E.68846
G1 X154.403 Y166.103 E.01046
G1 X154.403 Y133.897 E.68846
G1 X153.914 Y133.897 E.01046
G1 X153.914 Y166.103 E.68846
G1 X153.656 Y166.103 E.00551
M204 S1250
; stop printing object pc_foot.stl id:0 copy 0
M106 S84.15
;LAYER_CHANGE
;Z:0.35
;HEIGHT:0.15
;BEFORE_LAYER_CHANGE
G92 E0.0
;0.35


G1 Z.35 F9000
;AFTER_LAYER_CHANGE
;0.35
G1 E-3.2 F4200
G1 X154.919 Y169.901 F9000
G1 E3.2 F2400
;TYPE:Skirt/Brim
;WIDTH:0.42
G1 X154.175 Y170.148 E.01896
G1 X153.425 Y170.27 E.01837
G1 X146.421 Y170.27 E.16938
G1 X145.652 Y170.142 E.01887
G1 X140.423 Y168.352 E.13365
G1 X136.444 Y166.456 E.10661
G1 X135.497 Y165.633 E.03035
G1 X131.919 Y160.265 E.15602
G1 X131.641 Y159.698 E.01526
G1 X129.852 Y154.33 E.13684
G1 X129.73 Y153.579 E.01842
G1 X129.73 Y146.421 E.17309
G1 X129.852 Y145.67 E.01842
G1 X131.641 Y140.302 E.13684
G1 X131.969 Y139.663 E.01736
G1 X135.84 Y134.295 E.16007
G1 X136.668 Y133.579 E.02646
G1 X140.443 Y131.641 E.10264
G1 X145.825 Y129.852 E.13717
G1 X146.575 Y129.73 E.01837
G1 X153.579 Y129.73 E.16938
G1 X154.348 Y129.858 E.01887
G1 X159.577 Y131.648 E.13365
G1 X160.423 Y132.154 E.02386
G1 X162.416 Y134.005 E.06578
G1 X167.784 Y139.373 E.18359
G1 X168.359 Y140.302 E.02642
G1 X170.148 Y145.67 E.13684
G1 X170.27 Y146.421 E.01842
G1 X170.27 Y153.579 E.17309
G1 X170.148 Y154.33 E.01842
G1 X168.359 Y159.698 E.13684
G1 X167.784 Y160.627 E.02642
G1 X162.416 Y165.995 E.18359
G1 X160.423 Y167.846 E.06578
G1 X159.557 Y168.359 E.02436
G1 X154.976 Y169.882 E.11675
; printing object pc_foot.stl id:0 copy 0
G1 E-2.24 F4200
;WIPE_START
G1 F7200
G1 X154.175 Y170.148 E-.46776
G1 X153.425 Y170.27 E-.42099
G1 X153.383 Y170.27 E-.02325
;WIPE_END
G1 E-.048 F4200
G1 X151.039 Y152.904 F9000
G1 E3.2 F2400
M204 S300
;TYPE:Perimeter
;WIDTH:0.4
;HEIGHT:0.05
G1 F1800
G1 X150.361 Y153.071 E.00565
G1 X149.615 Y153.071 E.00603
G1 X148.891 Y152.893 E.00603
G1 X148.23 Y152.546 E.00603
G1 X147.672 Y152.051 E.00603
G1 X147.249 Y151.438 E.00603
G1 X146.984 Y150.74 E.00603
G1 X146.894 Y150 E.00603
G1 X146.984 Y149.26 E.00603
G1 X147.249 Y148.562 E.00603
G1 X147.672 Y147.949 E.00603
G1 X148.23 Y147.454 E.00603
G1 X148.891 Y147.107 E.00603
G1 X149.615 Y146.929 E.00603
G1 X150.361 Y146.929 E.00603
G1 X151.085 Y147.107 E.00603
G1 X151.745 Y147.454 E.00603
G1 X152.303 Y147.949 E.00603
G1 X152.727 Y148.562 E.00603
G1 X152.991 Y149.26 E.00603
G1 X153.081 Y150 E.00603
G1 X152.991 Y150.74 E.00603
G1 X152.727 Y151.438 E.00603
G1 X152.303 Y152.051 E.00603
G1 X151.745 Y152.546 E.00603
G1 X151.096 Y152.887 E.00593
M204 S1250
G1 X150.946 Y152.526 F9000
M204 S300
;TYPE:External perimeter
G1 F1800
G1 X150.313 Y152.682 E.00527
G1 X149.662 Y152.682 E.00527
G1 X149.03 Y152.526 E.00527
G1 X148.453 Y152.223 E.00527
G1 X147.966 Y151.791 E.00527
G1 X147.596 Y151.255 E.00527
G1 X147.365 Y150.647 E.00527
G1 X147.286 Y150 E.00527
G1 X147.365 Y149.353 E.00527
G1 X147.596 Y148.745 E.00527
G1 X147.966 Y148.209 E.00527
G1 X148.453 Y147.777 E.00527
G1 X149.03 Y147.474 E.00527
G1 X149.662 Y147.318 E.00527
G1 X150.313 Y147.318 E.00527
G1 X150.946 Y147.474 E.00527
G1 X151.522 Y147.777 E.00527
G1 X152.01 Y148.209 E.00527
G1 X152.38 Y148.745 E.00527
G1 X152.611 Y149.353 E.00527
G1 X152.689 Y150 E.00527
G1 X152.611 Y150.647 E.00527
G1 X152.38 Y151.255 E.00527
G1 X152.01 Y151.791 E.00527
G1 X151.522 Y152.223 E.00527
G1 X150.999 Y152.498 E.00478
M204 S1250
G1 X150.882 Y152.921 F9000
G1 E-2.24 F4200
;WIPE_START
G1 F7200
G1 X150.313 Y152.682 E-.39327
G1 X149.662 Y152.682 E-.3609
G1 X149.386 Y152.614 E-.15783
;WIPE_END
G1 E-.048 F4200
G1 X154.441 Y163.705 F9000
G1 E3.2 F2400
M204 S300
;TYPE:Perimeter
G1 F1800
G1 X152.849 Y164.123 E.01331
G1 X151.221 Y164.357 E.01331
G1 X149.576 Y164.404 E.01331
G1 X147.934 Y164.263 E.01334
G1 X146.325 Y163.936 E.01329
G1 X144.76 Y163.428 E.01331
G1 X143.263 Y162.744 E.01331
G1 X141.854 Y161.895 E.01331
G1 X140.551 Y160.89 E.01331
G1 X139.372 Y159.744 E.01331
G1 X138.33 Y158.47 E.01331
G1 X137.441 Y157.086 E.01331
G1 X136.715 Y155.609 E.01331
G1 X136.163 Y154.062 E.01329
G1 X135.789 Y152.457 E.01333
G1 X135.602 Y150.823 E.01331
G1 X135.602 Y149.177 E.01331
G1 X135.789 Y147.543 E.01331
G1 X136.162 Y145.94 E.01331
G1 X136.715 Y144.391 E.01331
G1 X137.439 Y142.917 E.01329
G1 X138.33 Y141.53 E.01333
G1 X139.371 Y140.256 E.01331
G1 X140.551 Y139.11 E.01331
G1 X141.854 Y138.105 E.01331
G1 X143.263 Y137.256 E.01331
G1 X144.762 Y136.571 E.01334
G1 X146.325 Y136.064 E.01329
G1 X147.937 Y135.737 E.01331
G1 X149.576 Y135.596 E.01331
G1 X151.218 Y135.643 E.01329
G1 X152.849 Y135.877 E.01334
G1 X154.441 Y136.295 E.01331
G1 X155.974 Y136.892 E.01331
G1 X157.429 Y137.66 E.01331
G1 X158.787 Y138.589 E.01331
G1 X160.03 Y139.666 E.01331
G1 X161.143 Y140.878 E.01331
G1 X162.11 Y142.209 E.01331
G1 X162.919 Y143.642 E.01331
G1 X163.56 Y145.158 E.01331
G1 X164.023 Y146.736 E.01331
G1 X164.304 Y148.357 E.01331
G1 X164.398 Y150 E.01331
G1 X164.304 Y151.643 E.01331
G1 X164.023 Y153.264 E.01331
G1 X163.56 Y154.842 E.01331
G1 X162.92 Y156.355 E.01329
G1 X162.11 Y157.791 E.01334
G1 X161.143 Y159.122 E.01331
G1 X160.03 Y160.334 E.01331
G1 X158.787 Y161.411 E.01331
G1 X157.429 Y162.34 E.01331
G1 X155.974 Y163.108 E.01331
G1 X154.497 Y163.683 E.01283
M204 S1250
G1 X154.561 Y164.075 F9000
M204 S300
;TYPE:External perimeter
G1 F1800
G1 X152.927 Y164.505 E.01367
G1 X151.254 Y164.745 E.01367
G1 X149.565 Y164.794 E.01367
G1 X147.879 Y164.649 E.0137
G1 X146.225 Y164.313 E.01365
G1 X144.618 Y163.791 E.01367
G1 X143.081 Y163.089 E.01367
G1 X141.634 Y162.217 E.01367
G1 X140.296 Y161.185 E.01367
G1 X139.084 Y160.007 E.01367
G1 X138.015 Y158.699 E.01367
G1 X137.101 Y157.277 E.01367
G1 X136.355 Y155.761 E.01367
G1 X135.788 Y154.172 E.01365
G1 X135.405 Y152.524 E.0137
G1 X135.212 Y150.845 E.01367
G1 X135.212 Y149.155 E.01367
G1 X135.405 Y147.476 E.01367
G1 X135.788 Y145.83 E.01367
G1 X136.355 Y144.239 E.01367
G1 X137.1 Y142.725 E.01365
G1 X138.015 Y141.301 E.0137
G1 X139.084 Y139.993 E.01367
G1 X140.296 Y138.815 E.01367
G1 X141.634 Y137.783 E.01367
G1 X143.081 Y136.911 E.01367
G1 X144.621 Y136.208 E.0137
G1 X146.225 Y135.687 E.01365
G1 X147.882 Y135.351 E.01367
G1 X149.565 Y135.206 E.01367
G1 X151.252 Y135.255 E.01365
G1 X152.927 Y135.495 E.0137
G1 X154.561 Y135.925 E.01367
G1 X156.136 Y136.538 E.01367
G1 X157.63 Y137.326 E.01367
G1 X159.025 Y138.28 E.01367
G1 X160.302 Y139.387 E.01367
G1 X161.445 Y140.632 E.01367
G1 X162.438 Y141.999 E.01367
G1 X163.269 Y143.47 E.01367
G1 X163.927 Y145.027 E.01367
G1 X164.403 Y146.648 E.01367
G1 X164.691 Y148.313 E.01367
G1 X164.787 Y150 E.01367
G1 X164.691 Y151.687 E.01367
G1 X164.403 Y153.352 E.01367
G1 X163.927 Y154.973 E.01367
G1 X163.27 Y156.527 E.01365
