; generated by PrusaSlicer 2.5.0 on 2022-10-15 at 01:46:45 UTC

; 

; external perimeters extrusion width = 0.45mm
; perimeters extrusion width = 0.45mm
; infill extrusion width = 0.45mm
; solid infill extrusion width = 0.45mm
; top infill extrusion width = 0.40mm
; first layer extrusion width = 0.42mm

; external perimeters extrusion width = 0.45mm
; perimeters extrusion width = 0.45mm
; infill extrusion width = 0.45mm
; solid infill extrusion width = 0.45mm
; top infill extrusion width = 0.40mm
; first layer extrusion width = 0.42mm

; external perimeters extrusion width = 0.45mm
; perimeters extrusion width = 0.45mm
; infill extrusion width = 0.45mm
; solid infill extrusion width = 0.45mm
; top infill extrusion width = 0.40mm
; first layer extrusion width = 0.42mm

; external perimeters extrusion width = 0.45mm
; perimeters extrusion width = 0.45mm
; infill extrusion width = 0.45mm
; solid infill extrusion width = 0.45mm
; top infill extrusion width = 0.40mm
; first layer extrusion width = 0.42mm

; external perimeters extrusion width = 0.45mm
; perimeters extrusion width = 0.45mm
; infill extrusion width = 0.45mm
; solid infill extrusion width = 0.45mm
; top infill extrusion width = 0.40mm
; first layer extrusion width = 0.42mm

; external perimeters extrusion width = 0.45mm
; perimeters extrusion width = 0.45mm
; infill extrusion width = 0.45mm
; solid infill extrusion width = 0.45mm
; top infill extrusion width = 0.40mm
; first layer extrusion width = 0.42mm

; external perimeters extrusion width = 0.45mm
; perimeters extrusion width = 0.45mm
; infill extrusion width = 0.45mm
; solid infill extrusion width = 0.45mm
; top infill extrusion width = 0.40mm
; first layer extrusion width = 0.42mm

; external perimeters extrusion width = 0.45mm
; perimeters extrusion width = 0.45mm
; infill extrusion width = 0.45mm
; solid infill extrusion width = 0.45mm
; top infill extrusion width = 0.40mm
; first layer extrusion width = 0.42mm

M107
M190 S60 ; set bed temperature and wait for it to be reached
M104 S215 ; set temperature
;TYPE:Custom
G28 ; home all axes
G1 Z5 F5000 ; lift nozzle
M109 S215 ; set temperature and wait for it to be reached
G21 ; set units to millimeters
G90 ; use absolute coordinates
M82 ; use absolute distances for extrusion
G92 E0
; Filament gcode
M107
;LAYER_CHANGE
;Z:0.35
;HEIGHT:0.35
G1 Z.35 F7800
G1 E-2 F2400
G92 E0
G1 Z3.35 F7800
G1 X150.893 Y170.36
G1 Z.35
G1 E2 F2400
;TYPE:Skirt/Brim
;WIDTH:0.42
G1 F1800
G1 X152.526 Y169.239 E2.09945
G1 X183.518 Y154.463 E3.82252
G1 X186.249 Y153.846 E3.96302
G1 X189.749 Y153.846 E4.13867
G1 X192.166 Y154.324 E4.26231
G1 X200.666 Y157.826 E4.72367
G1 X202.854 Y159.328 E4.85691
G1 X232.854 Y190.988 E7.04581
G1 X233.437 Y191.699 E7.09196
G1 X250.13 Y215.409 E8.54717
G1 X252.056 Y218.517 E8.73067
G1 X252.732 Y220.029 E8.8138
G1 X253.664 Y223.156 E8.97756
G1 X253.925 Y224.792 E9.06069
G1 X254.016 Y228.054 E9.22445
G1 X253.846 Y229.701 E9.30758
G1 X253.089 Y232.876 E9.47134
G1 X252.498 Y234.423 E9.55447
G1 X250.946 Y237.293 E9.71823
G1 X249.974 Y238.635 E9.80136
G1 X247.732 Y241.005 E9.96512
G1 X246.447 Y242.05 E10.04825
G1 X243.667 Y243.759 E10.21201
G1 X242.314 Y244.386 E10.28681
G1 X227.079 Y249.367 E11.09126
G1 X124.107 Y277.841 E16.45295
G1 X121.387 Y277.987 E16.58963
G1 X116.879 Y277.246 E16.8189
G1 X115.132 Y276.693 E16.91088
G1 X111.131 Y274.884 E17.13123
G1 X109.724 Y274.01 E17.21435
G1 X106.19 Y271.115 E17.44363
G1 X105.057 Y269.907 E17.52675
G1 X102.393 Y266.195 E17.75602
G1 X101.611 Y264.735 E17.83915
G1 X99.999 Y260.461 E18.06842
G1 X99.622 Y258.848 E18.15154
G1 X99.171 Y254.302 E18.38081
G1 X99.224 Y252.646 E18.46394
G1 X99.965 Y248.138 E18.69321
G1 X100.311 Y246.87 E18.75921
G1 X114.229 Y211.049 E20.68782
G1 X117.73 Y202.549 E21.14918
G1 X119.233 Y200.36 E21.28242
G1 X150.849 Y170.401 E23.46832
G1 E21.46832 F2400
G92 E0
G1 Z3.35 F7800
G1 X199.374 Y239.184
G1 Z.35
G1 E2 F2400
;TYPE:Perimeter
;WIDTH:0.42
G1 F1800
G1 X199.34 Y239.333 E2.00764
G1 X199.349 Y243.548 E2.21919
G1 X199.324 Y244.735 E2.27875
G1 X199.207 Y245.059 E2.29608
G1 X198.966 Y245.303 E2.31326
G1 X198.661 Y245.448 E2.33021
G1 X198.293 Y245.47 E2.34873
G1 X194.139 Y245.47 E2.55717
G1 X194.139 Y243.745 E2.64378
G1 X196.803 Y243.669 E2.77753
G1 X197.118 Y243.599 E2.7937
G1 X197.369 Y243.436 E2.80873
G1 X197.564 Y243.164 E2.82553
G1 X197.641 Y242.807 E2.84385
G1 X197.641 Y235.27 E3.22209
G1 X228.096 Y235.27 E4.75049
G1 X229.487 Y236.337 E4.83848
G1 X229.682 Y236.45 E4.84978
G1 X232.103 Y237.453 E4.98129
G1 X232.32 Y237.511 E4.99258
G1 X234.918 Y237.853 E5.12409
G1 X235.143 Y237.853 E5.13539
G1 X236.959 Y237.614 E5.2273
G1 X237.959 Y237.453 E5.27812
G1 X239.641 Y236.756 E5.36949
G1 X240.574 Y236.337 E5.42084
G1 X242 Y235.244 E5.511
G1 X242.813 Y234.583 E5.56357
G1 X243.884 Y233.187 E5.65191
G1 X244.52 Y232.309 E5.7063
G1 X245.176 Y230.725 E5.79234
G1 X245.581 Y229.671 E5.84903
G1 X245.923 Y227.073 E5.98053
G1 X245.923 Y226.848 E5.99183
G1 X245.581 Y224.25 E6.12334
G1 X245.523 Y224.032 E6.13463
G1 X244.52 Y221.611 E6.26614
G1 X244.408 Y221.417 E6.27744
G1 X242.813 Y219.338 E6.40894
G1 X242.653 Y219.178 E6.42024
G1 X240.574 Y217.583 E6.55175
G1 X240.38 Y217.471 E6.56304
G1 X237.959 Y216.468 E6.69455
G1 X237.741 Y216.41 E6.70585
G1 X235.93 Y216.171 E6.79751
G1 X235.93 Y215.427 E6.83486
G1 X236.433 Y215.413 E6.8601
G1 X239.377 Y216.115 E7.01197
G1 X242.039 Y217.554 E7.16385
G1 X244.237 Y219.634 E7.31572
G1 X245.823 Y222.212 E7.46759
G1 X246.687 Y225.112 E7.61947
G1 X246.771 Y228.137 E7.77134
G1 X246.069 Y231.081 E7.92322
G1 X244.63 Y233.743 E8.07509
G1 X242.55 Y235.941 E8.22697
G1 X239.972 Y237.527 E8.37884
G1 X237.072 Y238.391 E8.53072
G1 X233.942 Y238.478 E8.68788
G1 X225.703 Y238.47 E9.10136
G1 X225.372 Y238.536 E9.1183
G1 X225.109 Y238.707 E9.13402
G1 X224.94 Y238.929 E9.14803
G1 X224.84 Y239.329 E9.16873
G1 X224.835 Y242.427 E9.3242
G1 X224.748 Y242.497 E9.32977
G1 X222.747 Y242.484 E9.43022
G1 X222.652 Y242.415 E9.43612
G1 X222.639 Y239.334 E9.59072
G1 X222.61 Y239.11 E9.60205
G1 X222.453 Y238.797 E9.61963
G1 X222.107 Y238.536 E9.64135
G1 X221.777 Y238.47 E9.65826
G1 X200.202 Y238.47 E10.74102
G1 X199.903 Y238.524 E10.75627
G1 X199.645 Y238.674 E10.77125
G1 X199.427 Y238.954 E10.78903
G1 X199.387 Y239.126 E10.79789
G1 X199.702 Y239.259 F7800
G1 F1800
G1 X199.685 Y239.333 E10.80171
G1 X199.696 Y244.376 E11.05482
G1 X199.637 Y244.951 E11.08384
G1 X199.501 Y245.245 E11.10009
G1 X199.293 Y245.494 E11.11634
G1 X199.029 Y245.681 E11.13259
G1 X198.732 Y245.789 E11.14842
G1 X198.303 Y245.815 E11.17
G1 X193.794 Y245.815 E11.39628
G1 X193.794 Y243.41 E11.51702
G1 X196.868 Y243.316 E11.67135
G1 X197.133 Y243.184 E11.68619
G1 X197.25 Y243.021 E11.69627
G1 X197.296 Y242.807 E11.70726
G1 X197.296 Y234.925 E12.10281
G1 X228.213 Y234.925 E13.65439
G1 X229.697 Y236.064 E13.74827
G1 X229.814 Y236.131 E13.75504
G1 X232.235 Y237.134 E13.88655
G1 X232.365 Y237.169 E13.89333
G1 X235.098 Y237.511 E14.03156
G1 X237.827 Y237.134 E14.16979
G1 X240.364 Y236.064 E14.30802
G1 X242.539 Y234.373 E14.44625
G1 X243.61 Y232.977 E14.53458
G1 X244.202 Y232.177 E14.58448
G1 X245.239 Y229.626 E14.72271
G1 X245.581 Y226.893 E14.86094
G1 X245.239 Y224.295 E14.99245
G1 X245.204 Y224.164 E14.99923
G1 X244.202 Y221.743 E15.13074
G1 X244.134 Y221.627 E15.13751
G1 X242.539 Y219.548 E15.26902
G1 X242.443 Y219.452 E15.2758
G1 X240.364 Y217.857 E15.40731
G1 X240.248 Y217.789 E15.41409
G1 X237.827 Y216.787 E15.54559
G1 X237.696 Y216.752 E15.55237
G1 X235.585 Y216.474 E15.65921
G1 X235.585 Y215.092 E15.72857
G1 X236.469 Y215.067 E15.77292
G1 X239.501 Y215.79 E15.92936
G1 X242.243 Y217.273 E16.08579
G1 X244.507 Y219.415 E16.24222
G1 X246.14 Y222.07 E16.39865
G1 X247.03 Y225.057 E16.55508
G1 X247.117 Y228.173 E16.71152
G1 X246.394 Y231.205 E16.86795
G1 X244.911 Y233.947 E17.02438
G1 X242.77 Y236.211 E17.18081
G1 X240.114 Y237.844 E17.33724
G1 X237.127 Y238.734 E17.49367
G1 X233.946 Y238.823 E17.65337
G1 X225.613 Y238.823 E18.07161
G1 X225.346 Y238.957 E18.08658
G1 X225.245 Y239.09 E18.09498
G1 X225.185 Y239.331 E18.1074
G1 X225.18 Y242.4 E18.26145
G1 X225.149 Y242.581 E18.27066
G1 X225.006 Y242.759 E18.2821
G1 X224.789 Y242.842 E18.29378
G1 X223.733 Y242.835 E18.34677
G1 X222.584 Y242.8 E18.40446
G1 X222.399 Y242.667 E18.4159
G1 X222.307 Y242.466 E18.42697
G1 X222.294 Y239.336 E18.58408
G1 X222.277 Y239.199 E18.59097
G1 X222.182 Y239.011 E18.60153
G1 X221.975 Y238.855 E18.61455
G1 X221.777 Y238.815 E18.6247
G1 X200.202 Y238.815 E19.70746
G1 X200.112 Y238.823 E19.71197
G1 X199.868 Y238.938 E19.72553
G1 X199.737 Y239.105 E19.7362
G1 X199.715 Y239.2 E19.74107
G1 X200.029 Y239.333 F7800
;TYPE:External perimeter
G1 F1800
G1 X200.041 Y244.493 E20.00005
G1 X199.969 Y245.055 E20.02849
G1 X199.794 Y245.431 E20.04929
G1 X199.529 Y245.75 E20.0701
G1 X199.19 Y245.989 E20.09091
G1 X198.804 Y246.13 E20.11156
G1 X198.314 Y246.16 E20.1362
G1 X193.449 Y246.16 E20.38031
G1 X193.449 Y243.074 E20.53518
G1 X196.784 Y242.979 E20.70258
G1 X196.897 Y242.933 E20.70872
G1 X196.951 Y242.807 E20.71559
G1 X196.951 Y234.58 E21.12845
G1 X228.33 Y234.58 E22.70321
G1 X229.946 Y235.813 E22.8052
G1 X232.41 Y236.827 E22.93895
G1 X235.053 Y237.169 E23.0727
G1 X237.695 Y236.816 E23.20645
G1 X240.155 Y235.79 E23.34019
G1 X242.265 Y234.163 E23.47394
G1 X243.337 Y232.767 E23.56228
G1 X243.883 Y232.045 E23.60769
G1 X244.897 Y229.581 E23.74144
G1 X245.239 Y226.938 E23.87519
G1 X244.886 Y224.296 E24.00894
G1 X243.883 Y221.875 E24.14044
G1 X242.265 Y219.758 E24.27419
G1 X240.116 Y218.108 E24.41018
G1 X237.695 Y217.105 E24.54169
G1 X235.241 Y216.776 E24.66594
G1 X235.241 Y214.756 E24.76732
G1 X236.505 Y214.721 E24.83078
G1 X239.625 Y215.465 E24.99177
G1 X242.447 Y216.991 E25.15276
G1 X244.777 Y219.195 E25.31375
G1 X246.458 Y221.928 E25.47474
G1 X247.374 Y225.002 E25.63573
G1 X247.463 Y228.208 E25.79672
G1 X246.719 Y231.329 E25.95771
G1 X245.193 Y234.151 E26.1187
G1 X242.989 Y236.481 E26.27969
G1 X240.256 Y238.162 E26.44068
G1 X237.182 Y239.078 E26.60167
G1 X233.951 Y239.168 E26.76389
G1 X225.702 Y239.16 E27.17787
G1 X225.583 Y239.208 E27.18428
G1 X225.53 Y239.332 E27.19109
G1 X225.524 Y242.401 E27.34509
G1 X225.494 Y242.628 E27.3566
G1 X225.36 Y242.897 E27.37171
G1 X225.122 Y243.088 E27.38703
G1 X224.829 Y243.187 E27.40254
G1 X222.577 Y243.153 E27.51557
G1 X222.279 Y243.028 E27.53177
G1 X222.077 Y242.801 E27.54703
G1 X221.963 Y242.518 E27.56237
G1 X221.949 Y239.337 E27.722
G1 X221.912 Y239.226 E27.72789
G1 X221.777 Y239.16 E27.73542
G1 X200.202 Y239.16 E28.81819
G1 X200.09 Y239.201 E28.82414
G1 X200.055 Y239.278 E28.82841
G1 X199.643 Y239.437 F7800
G1 E26.82841 F2400
G92 E0
G1 Z3.35 F7800
G1 X245.287 Y221.538
G1 Z.35
G1 E2 F2400
;TYPE:Solid infill
;WIDTH:0.420178
G1 F1800
G1 X240.693 Y216.944 E2.32619
G1 X241.181 Y217.92 F7800
G1 F1800
G1 X240.015 Y216.754 E2.40901
G1 X239.284 Y216.358 E2.45074
G1 X239.084 Y216.311 E2.46107
G1 X239.677 Y216.904 E2.50322
G1 X238.852 Y216.567 E2.54799
G1 X238.443 Y216.158 E2.57702
G1 X237.802 Y216.005 E2.61009
G1 X238.026 Y216.229 E2.62601
G1 X237.891 Y216.174 E2.63336
G1 X237.42 Y216.111 E2.65725
G1 X237.162 Y215.853 E2.67557
G1 X236.521 Y215.7 E2.70864
G1 X236.855 Y216.035 E2.7324
G1 X236.291 Y215.959 E2.76098
G1 X236.034 Y215.701 E2.77928
G1 E.77928 F2400
G92 E0
G1 Z3.35 F7800
G1 X245.817 Y222.557
G1 Z.35
G1 E2 F2400
G1 F1800
G1 X244.726 Y221.465 E2.0775
G1 X245.079 Y222.306 E2.1233
G1 X245.794 Y223.021 E2.17407
G1 X246.001 Y223.716 E2.21049
G1 X245.432 Y223.147 E2.25091
G1 X245.775 Y223.978 E2.29603
G1 X246.208 Y224.411 E2.32682
G1 X246.415 Y225.106 E2.36324
G1 X245.885 Y224.576 E2.40089
G1 X245.959 Y225.138 E2.42935
G1 X246.442 Y225.621 E2.46366
G1 X246.456 Y226.123 E2.48888
G1 X246.033 Y225.7 E2.51893
G1 X246.107 Y226.262 E2.54739
G1 X246.47 Y226.625 E2.57318
G1 X246.484 Y227.127 E2.59839
G1 X246.181 Y226.824 E2.61996
G1 X246.181 Y227.101 E2.6339
G1 X246.156 Y227.287 E2.6433
G1 X246.498 Y227.629 E2.66761
G1 X246.512 Y228.11 E2.69177
G1 X246.508 Y228.127 E2.69262
G1 X246.098 Y227.717 E2.7217
G1 X246.041 Y228.148 E2.7435
G1 X246.414 Y228.521 E2.77
G1 X246.32 Y228.915 E2.79034
G1 X245.983 Y228.578 E2.81425
G1 X245.925 Y229.009 E2.83605
G1 X246.226 Y229.309 E2.85738
G1 X246.132 Y229.703 E2.87772
G1 X245.868 Y229.439 E2.89646
G1 X245.801 Y229.86 E2.91786
G1 X246.038 Y230.097 E2.9347
G1 X245.944 Y230.491 E2.95504
G1 X245.659 Y230.206 E2.97526
G1 X245.518 Y230.553 E2.99405
G1 X245.85 Y230.885 E3.01765
G1 X245.826 Y230.988 E3.02294
G1 X245.699 Y231.222 E3.03632
G1 X245.376 Y230.899 E3.05924
G1 X245.234 Y231.246 E3.07803
G1 X245.528 Y231.539 E3.09885
G1 X245.356 Y231.855 E3.11693
G1 X245.093 Y231.592 E3.13563
G1 X244.951 Y231.938 E3.15443
G1 X245.185 Y232.172 E3.17102
G1 X245.014 Y232.489 E3.1891
G1 X244.81 Y232.285 E3.20359
G1 X244.645 Y232.608 E3.22181
G1 X244.842 Y232.805 E3.23584
G1 X244.671 Y233.122 E3.25392
G1 X244.438 Y232.889 E3.27049
G1 X244.225 Y233.164 E3.28796
G1 X244.5 Y233.439 E3.30744
G1 X244.418 Y233.59 E3.31604
G1 X244.294 Y233.721 E3.32513
G1 X244.013 Y233.44 E3.34508
G1 X243.801 Y233.716 E3.36255
G1 X244.057 Y233.972 E3.38073
G1 X243.82 Y234.223 E3.39807
G1 X243.588 Y233.991 E3.41449
G1 X243.376 Y234.267 E3.43196
G1 X243.582 Y234.473 E3.44662
G1 X243.345 Y234.724 E3.46395
G1 X243.164 Y234.543 E3.47684
G1 X242.951 Y234.818 E3.49432
G1 X243.108 Y234.975 E3.50545
G1 X242.871 Y235.226 E3.52278
G1 X242.679 Y235.034 E3.53639
G1 X242.404 Y235.247 E3.55386
G1 X242.634 Y235.477 E3.57015
G1 X242.396 Y235.727 E3.58748
G1 X242.129 Y235.46 E3.60645
G1 X241.854 Y235.673 E3.62392
G1 X242.097 Y235.916 E3.64117
G1 X241.795 Y236.102 E3.65898
G1 X241.579 Y235.886 E3.6743
G1 X241.304 Y236.099 E3.69177
G1 X241.493 Y236.288 E3.70515
G1 X241.191 Y236.474 E3.72296
G1 X241.029 Y236.312 E3.73442
G1 X240.754 Y236.525 E3.75189
G1 X240.888 Y236.659 E3.76141
G1 X240.586 Y236.845 E3.77922
G1 X240.444 Y236.703 E3.78932
G1 X240.099 Y236.845 E3.80809
G1 X240.284 Y237.031 E3.82127
G1 X239.982 Y237.217 E3.83908
G1 X239.753 Y236.988 E3.85535
G1 X239.407 Y237.13 E3.87412
G1 X239.634 Y237.357 E3.89025
G1 X239.258 Y237.469 E3.90995
G1 X239.062 Y237.273 E3.92393
G1 X238.716 Y237.415 E3.9427
G1 X238.882 Y237.581 E3.95452
G1 X238.506 Y237.693 E3.97422
G1 X238.37 Y237.557 E3.98389
G1 X238.025 Y237.7 E4.00266
G1 X238.131 Y237.805 E4.01018
G1 X237.755 Y237.918 E4.02988
G1 X237.624 Y237.787 E4.03914
G1 X237.192 Y237.843 E4.06102
G1 X237.379 Y238.03 E4.07426
G1 X237.031 Y238.133 E4.09247
G1 X236.995 Y238.134 E4.09427
G1 X236.76 Y237.899 E4.11097
G1 X236.328 Y237.955 E4.13284
G1 X236.52 Y238.147 E4.14649
G1 X236.046 Y238.161 E4.17034
G1 X235.896 Y238.011 E4.18096
G1 X235.464 Y238.067 E4.20283
G1 X235.571 Y238.174 E4.21041
G1 X235.096 Y238.187 E4.23426
G1 X235.024 Y238.115 E4.23937
G1 X234.465 Y238.044 E4.26766
G1 X234.621 Y238.2 E4.27875
G1 X234.146 Y238.213 E4.3026
G1 X233.906 Y237.973 E4.31966
G1 X233.347 Y237.902 E4.34795
G1 X233.664 Y238.219 E4.37045
G1 X233.176 Y238.218 E4.39497
G1 X232.788 Y237.831 E4.42247
G1 X232.219 Y237.75 E4.45132
G1 X232.687 Y238.218 E4.48453
G1 X232.199 Y238.218 E4.50906
G1 X231.439 Y237.458 E4.56301
G1 X230.606 Y237.113 E4.60828
G1 X231.71 Y238.217 E4.68671
G1 X231.222 Y238.217 E4.71123
G1 X229.773 Y236.768 E4.81412
G1 X229.577 Y236.687 E4.82474
G1 X229.334 Y236.546 E4.83887
G1 X228.171 Y235.654 E4.91248
G1 X230.733 Y238.216 E5.09445
G1 X230.245 Y238.216 E5.11898
G1 X227.558 Y235.529 E5.30979
G1 X227.07 Y235.529 E5.3343
G1 X229.756 Y238.215 E5.52508
G1 X229.268 Y238.215 E5.5496
G1 X226.582 Y235.529 E5.74036
G1 X226.094 Y235.529 E5.76486
G1 X228.78 Y238.215 E5.95558
G1 X228.291 Y238.214 E5.98011
G1 X225.606 Y235.529 E6.1708
G1 X225.118 Y235.529 E6.1953
G1 X227.803 Y238.214 E6.38596
G1 X227.314 Y238.213 E6.41049
G1 X224.63 Y235.529 E6.60112
G1 X224.142 Y235.529 E6.62562
G1 X226.826 Y238.213 E6.81622
G1 X226.337 Y238.212 E6.84074
G1 X223.654 Y235.529 E7.03131
G1 X223.166 Y235.529 E7.05582
G1 X225.849 Y238.212 E7.24635
G1 X225.507 Y238.228 E7.26353
G1 X225.407 Y238.258 E7.26879
G1 X222.678 Y235.529 E7.46257
