; generated by PrusaSlicer 2.5.0 on 2022-10-13 at 23:27:31 UTC

; 

; external perimeters extrusion width = 0.45mm
; perimeters extrusion width = 0.45mm
; infill extrusion width = 0.45mm
; solid infill extrusion width = 0.45mm
; top infill extrusion width = 0.40mm
; first layer extrusion width = 0.42mm

M107
M190 S60 ; set bed temperature and wait for it to be reached
M104 S215 ; set temperature
;TYPE:Custom
G28 ; home all axes
G1 Z5 F5000 ; lift nozzle
M109 S215 ; set temperature and wait for it to be reached
G21 ; set units to millimeters
G90 ; use absolute coordinates
M82 ; use absolute distances for extrusion
G92 E0
; Filament gcode
M107
;LAYER_CHANGE
;Z:0.35
;HEIGHT:0.35
G1 Z.35 F7800
G1 E-2 F2400
G92 E0
G1 Z3.35 F7800
G1 X186.761 Y197.094
G1 Z.35
G1 E2 F2400
;TYPE:Skirt/Brim
;WIDTH:0.42
G1 F1800
G1 X210.717 Y174.394 E3.65628
G1 X212.593 Y173.163 E3.7689
G1 X215.081 Y172.655 E3.89633
G1 X220.081 Y172.655 E4.14726
G1 X222.29 Y173.052 E4.25988
G1 X224.222 Y174.193 E4.37251
G1 X225.636 Y175.935 E4.48513
G1 X226.426 Y179 E4.64396
G1 X226.426 Y214 E6.40047
G1 X226.029 Y216.209 E6.51309
G1 X224.888 Y218.141 E6.62571
G1 X222.818 Y219.724 E6.75651
G1 X214.524 Y223.69 E7.21788
G1 X213.286 Y224.131 E7.28382
G1 X212.246 Y224.332 E7.33697
G1 X185.405 Y227.332 E8.69238
G1 X179.921 Y227.345 E8.96764
G1 X177.712 Y226.949 E9.08026
G1 X175.779 Y225.808 E9.19288
G1 X174.364 Y224.066 E9.3055
G1 X173.574 Y221 E9.46441
G1 X173.574 Y217.5 E9.64006
G1 X174.053 Y215.083 E9.7637
G1 X177.554 Y206.583 E10.22506
G1 X179.057 Y204.394 E10.3583
G1 X186.717 Y197.136 E10.88792
G1 E8.88792 F2400
G92 E0
G1 Z3.35 F7800
G1 X186.054 Y213.814
G1 Z.35
G1 E2 F2400
;TYPE:Perimeter
;WIDTH:0.42
G1 F1800
G1 X186.019 Y213.962 E2.00764
G1 X186.029 Y218.178 E2.21919
G1 X186.004 Y219.364 E2.27875
G1 X185.886 Y219.689 E2.29608
G1 X185.646 Y219.932 E2.31326
G1 X185.341 Y220.078 E2.33021
G1 X184.972 Y220.1 E2.34873
G1 X180.819 Y220.1 E2.55717
G1 X180.819 Y218.374 E2.64378
G1 X183.483 Y218.298 E2.77753
G1 X183.798 Y218.229 E2.7937
G1 X184.048 Y218.065 E2.80873
G1 X184.243 Y217.793 E2.82553
G1 X184.321 Y217.437 E2.84385
G1 X184.321 Y209.9 E3.22209
G1 X215.118 Y209.9 E4.7677
G1 X215.267 Y209.887 E4.7752
G1 X215.561 Y209.778 E4.79092
G1 X215.728 Y209.647 E4.80156
G1 X215.858 Y209.48 E4.8122
G1 X215.948 Y209.271 E4.82361
G1 X215.981 Y209.038 E4.83545
G1 X215.981 Y179.9 E6.29775
G1 X219.181 Y179.9 E6.45837
G1 X219.181 Y213.1 E8.12456
G1 X212.382 Y213.1 E8.46579
G1 X212.051 Y213.166 E8.4827
G1 X211.789 Y213.337 E8.49841
G1 X211.62 Y213.559 E8.51242
G1 X211.519 Y213.959 E8.53312
G1 X211.514 Y217.057 E8.68859
G1 X211.428 Y217.127 E8.69416
G1 X209.427 Y217.114 E8.79461
G1 X209.332 Y217.044 E8.80051
G1 X209.319 Y213.964 E8.95511
G1 X209.29 Y213.74 E8.96643
G1 X209.132 Y213.427 E8.98402
G1 X208.787 Y213.166 E9.00574
G1 X208.457 Y213.1 E9.02265
G1 X186.882 Y213.1 E10.10541
G1 X186.582 Y213.154 E10.12066
G1 X186.325 Y213.304 E10.13564
G1 X186.107 Y213.584 E10.15342
G1 X186.067 Y213.756 E10.16228
G1 X186.381 Y213.888 F7800
G1 F1800
G1 X186.364 Y213.962 E10.1661
G1 X186.375 Y219.006 E10.41921
G1 X186.316 Y219.581 E10.44823
G1 X186.18 Y219.875 E10.46448
G1 X185.973 Y220.124 E10.48073
G1 X185.708 Y220.31 E10.49698
G1 X185.412 Y220.419 E10.51281
G1 X184.983 Y220.445 E10.53439
G1 X180.474 Y220.445 E10.76067
G1 X180.474 Y218.039 E10.88141
G1 X183.548 Y217.946 E11.03574
G1 X183.812 Y217.814 E11.05058
G1 X183.929 Y217.651 E11.06066
G1 X183.976 Y217.437 E11.07165
G1 X183.976 Y209.555 E11.4672
G1 X215.118 Y209.555 E13.03012
G1 X215.384 Y209.482 E13.04394
G1 X215.562 Y209.303 E13.05661
G1 X215.636 Y209.038 E13.07043
G1 X215.636 Y179.555 E14.55005
G1 X219.526 Y179.555 E14.74528
G1 X219.526 Y213.445 E16.44609
G1 X212.292 Y213.453 E16.80912
G1 X212.026 Y213.587 E16.82408
G1 X211.925 Y213.72 E16.83249
G1 X211.864 Y213.96 E16.84491
G1 X211.859 Y217.03 E16.99895
G1 X211.829 Y217.211 E17.00817
G1 X211.686 Y217.388 E17.01961
G1 X211.468 Y217.472 E17.03128
G1 X210.413 Y217.465 E17.08428
G1 X209.264 Y217.43 E17.14197
G1 X209.079 Y217.297 E17.1534
G1 X208.987 Y217.096 E17.16447
G1 X208.974 Y213.965 E17.32158
G1 X208.956 Y213.829 E17.32848
G1 X208.862 Y213.641 E17.33903
G1 X208.655 Y213.485 E17.35206
G1 X208.457 Y213.445 E17.36221
G1 X186.882 Y213.445 E18.44497
G1 X186.792 Y213.453 E18.44947
G1 X186.547 Y213.568 E18.46304
G1 X186.417 Y213.735 E18.4737
G1 X186.395 Y213.83 E18.47858
G1 X186.709 Y213.962 F7800
;TYPE:External perimeter
G1 F1800
G1 X186.72 Y219.123 E18.73756
G1 X186.648 Y219.685 E18.76599
G1 X186.474 Y220.061 E18.7868
G1 X186.209 Y220.38 E18.80761
G1 X185.87 Y220.618 E18.82841
G1 X185.484 Y220.76 E18.84906
G1 X184.993 Y220.79 E18.87371
G1 X180.129 Y220.79 E19.11782
G1 X180.129 Y217.704 E19.27269
G1 X183.463 Y217.609 E19.44008
G1 X183.576 Y217.562 E19.44622
G1 X183.631 Y217.437 E19.4531
G1 X183.631 Y209.21 E19.86595
G1 X215.118 Y209.21 E21.44618
G1 X215.24 Y209.159 E21.45281
G1 X215.291 Y209.038 E21.45943
G1 X215.291 Y179.21 E22.95635
G1 X219.871 Y179.21 E23.1862
G1 X219.871 Y213.79 E24.92163
G1 X212.382 Y213.79 E25.29748
G1 X212.263 Y213.837 E25.30388
G1 X212.209 Y213.962 E25.31069
G1 X212.204 Y217.03 E25.46469
G1 X212.174 Y217.258 E25.4762
G1 X212.04 Y217.527 E25.49131
G1 X211.801 Y217.718 E25.50664
G1 X211.509 Y217.817 E25.52215
G1 X209.257 Y217.782 E25.63517
G1 X208.959 Y217.658 E25.65137
G1 X208.756 Y217.431 E25.66663
G1 X208.642 Y217.147 E25.68198
G1 X208.629 Y213.967 E25.8416
G1 X208.592 Y213.855 E25.84749
G1 X208.457 Y213.79 E25.85503
G1 X186.882 Y213.79 E26.93779
G1 X186.77 Y213.831 E26.94374
G1 X186.734 Y213.908 E26.94801
G1 X186.323 Y214.067 F7800
G1 E24.94801 F2400
G92 E0
G1 Z3.35 F7800
G1 X219.078 Y180.702
G1 Z.35
G1 E2 F2400
;TYPE:Solid infill
;WIDTH:0.420787
G1 F1800
G1 X218.534 Y180.158 E2.03867
G1 X218.045 Y180.158 E2.06326
G1 X218.922 Y181.036 E2.12567
G1 X218.922 Y181.525 E2.15026
G1 X217.556 Y180.158 E2.24745
G1 X217.067 Y180.158 E2.27204
G1 X218.922 Y182.013 E2.404
G1 X218.922 Y182.502 E2.42859
G1 X216.578 Y180.158 E2.59532
G1 X216.239 Y180.158 E2.61239
G1 X216.239 Y180.308 E2.61991
G1 X218.922 Y182.991 E2.81078
G1 X218.922 Y183.48 E2.83537
G1 X216.239 Y180.797 E3.02624
G1 X216.239 Y181.286 E3.05083
G1 X218.922 Y183.969 E3.24169
G1 X218.922 Y184.458 E3.26628
G1 X216.239 Y181.775 E3.45715
G1 X216.239 Y182.264 E3.48174
G1 X218.922 Y184.947 E3.6726
G1 X218.922 Y185.436 E3.69719
G1 X216.239 Y182.752 E3.88806
G1 X216.239 Y183.241 E3.91265
G1 X218.922 Y185.924 E4.10351
G1 X218.922 Y186.413 E4.1281
G1 X216.239 Y183.73 E4.31897
G1 X216.239 Y184.219 E4.34356
G1 X218.922 Y186.902 E4.53443
G1 X218.922 Y187.391 E4.55902
G1 X216.239 Y184.708 E4.74988
G1 X216.239 Y185.197 E4.77447
G1 X218.922 Y187.88 E4.96534
G1 X218.922 Y188.369 E4.98993
G1 X216.239 Y185.686 E5.18079
G1 X216.239 Y186.174 E5.20538
G1 X218.922 Y188.858 E5.39625
G1 X218.922 Y189.346 E5.42084
G1 X216.239 Y186.663 E5.61171
G1 X216.239 Y187.152 E5.6363
G1 X218.922 Y189.835 E5.82716
G1 X218.922 Y190.324 E5.85175
G1 X216.239 Y187.641 E6.04262
G1 X216.239 Y188.13 E6.06721
G1 X218.922 Y190.813 E6.25807
G1 X218.922 Y191.302 E6.28266
G1 X216.239 Y188.619 E6.47353
G1 X216.239 Y189.108 E6.49812
G1 X218.922 Y191.791 E6.68899
G1 X218.922 Y192.28 E6.71358
G1 X216.239 Y189.596 E6.90444
G1 X216.239 Y190.085 E6.92903
G1 X218.922 Y192.768 E7.1199
G1 X218.922 Y193.257 E7.14449
G1 X216.239 Y190.574 E7.33535
G1 X216.239 Y191.063 E7.35994
G1 X218.922 Y193.746 E7.55081
G1 X218.922 Y194.235 E7.5754
G1 X216.239 Y191.552 E7.76627
G1 X216.239 Y192.041 E7.79086
G1 X218.922 Y194.724 E7.98172
G1 X218.922 Y195.213 E8.00631
G1 X216.239 Y192.53 E8.19718
G1 X216.239 Y193.018 E8.22177
G1 X218.922 Y195.702 E8.41263
G1 X218.922 Y196.19 E8.43722
G1 X216.239 Y193.507 E8.62809
G1 X216.239 Y193.996 E8.65268
G1 X218.922 Y196.679 E8.84355
G1 X218.922 Y197.168 E8.86814
G1 X216.239 Y194.485 E9.059
G1 X216.239 Y194.974 E9.08359
G1 X218.922 Y197.657 E9.27446
G1 X218.922 Y198.146 E9.29905
G1 X216.239 Y195.463 E9.48991
G1 X216.239 Y195.952 E9.5145
G1 X218.922 Y198.635 E9.70537
G1 X218.922 Y199.124 E9.72996
G1 X216.239 Y196.44 E9.92083
G1 X216.239 Y196.929 E9.94541
G1 X218.922 Y199.612 E10.13628
G1 X218.922 Y200.101 E10.16087
G1 X216.239 Y197.418 E10.35174
G1 X216.239 Y197.907 E10.37633
G1 X218.922 Y200.59 E10.56719
G1 X218.922 Y201.079 E10.59178
G1 X216.239 Y198.396 E10.78265
G1 X216.239 Y198.885 E10.80724
G1 X218.922 Y201.568 E10.9981
G1 X218.922 Y202.057 E11.02269
G1 X216.239 Y199.374 E11.21356
G1 X216.239 Y199.862 E11.23815
G1 X218.922 Y202.546 E11.42902
G1 X218.922 Y203.034 E11.45361
G1 X216.239 Y200.351 E11.64447
G1 X216.239 Y200.84 E11.66906
G1 X218.922 Y203.523 E11.85993
G1 X218.922 Y204.012 E11.88452
G1 X216.239 Y201.329 E12.07538
G1 X216.239 Y201.818 E12.09997
G1 X218.922 Y204.501 E12.29084
G1 X218.922 Y204.99 E12.31543
G1 X216.239 Y202.307 E12.5063
G1 X216.239 Y202.796 E12.53089
G1 X218.922 Y205.479 E12.72175
G1 X218.922 Y205.968 E12.74634
G1 X216.239 Y203.284 E12.93721
G1 X216.239 Y203.773 E12.9618
G1 X218.922 Y206.456 E13.15266
G1 X218.922 Y206.945 E13.17725
G1 X216.239 Y204.262 E13.36812
G1 X216.239 Y204.751 E13.39271
G1 X218.922 Y207.434 E13.58358
G1 X218.922 Y207.923 E13.60816
G1 X216.239 Y205.24 E13.79903
G1 X216.239 Y205.729 E13.82362
G1 X218.922 Y208.412 E14.01449
G1 X218.922 Y208.901 E14.03908
G1 X216.239 Y206.218 E14.22994
G1 X216.239 Y206.706 E14.25453
G1 X218.922 Y209.39 E14.4454
G1 X218.922 Y209.878 E14.46999
G1 X216.239 Y207.195 E14.66085
G1 X216.239 Y207.684 E14.68544
G1 X218.922 Y210.367 E14.87631
G1 X218.922 Y210.856 E14.9009
G1 X216.239 Y208.173 E15.09177
G1 X216.239 Y208.662 E15.11636
G1 X218.922 Y211.345 E15.30722
G1 X218.922 Y211.834 E15.33181
G1 X216.226 Y209.138 E15.5236
G1 X216.198 Y209.341 E15.53394
G1 X216.121 Y209.521 E15.54379
G1 X218.922 Y212.323 E15.74309
G1 X218.922 Y212.812 E15.76768
G1 X215.925 Y209.814 E15.98093
G1 X215.644 Y210.022 E15.99851
G1 X218.463 Y212.842 E16.19909
G1 X217.975 Y212.842 E16.22368
G1 X215.271 Y210.138 E16.41599
G1 X215.124 Y210.158 E16.42345
G1 X214.803 Y210.158 E16.43963
G1 X217.486 Y212.842 E16.63049
G1 X216.997 Y212.842 E16.65508
G1 X214.314 Y210.158 E16.84595
G1 X213.825 Y210.158 E16.87054
G1 X216.508 Y212.842 E17.06141
G1 X216.019 Y212.842 E17.08599
G1 X213.336 Y210.158 E17.27686
G1 X212.847 Y210.158 E17.30145
G1 X215.53 Y212.842 E17.49232
G1 X215.041 Y212.842 E17.51691
G1 X212.358 Y210.158 E17.70777
G1 X211.869 Y210.158 E17.73236
G1 X214.553 Y212.842 E17.92323
G1 X214.064 Y212.842 E17.94782
G1 X211.381 Y210.158 E18.13868
G1 X210.892 Y210.158 E18.16327
G1 X213.575 Y212.842 E18.35414
G1 X213.086 Y212.842 E18.37873
G1 X210.403 Y210.158 E18.5696
G1 X209.914 Y210.158 E18.59419
G1 X212.597 Y212.842 E18.78505
G1 X212.378 Y212.842 E18.79608
G1 X212.139 Y212.872 E18.8082
G1 X209.425 Y210.158 E19.00124
G1 X208.936 Y210.158 E19.02583
G1 X211.801 Y213.023 E19.22964
G1 X211.614 Y213.145 E19.24087
G1 X211.528 Y213.239 E19.24728
G1 X208.447 Y210.158 E19.46641
G1 X207.959 Y210.158 E19.491
G1 X211.348 Y213.547 E19.73208
G1 X211.298 Y213.674 E19.7389
G1 X211.261 Y213.95 E19.75292
G1 X207.47 Y210.158 E20.02262
G1 X206.981 Y210.158 E20.04721
G1 X211.26 Y214.438 E20.35162
G1 X211.259 Y214.926 E20.37617
G1 X206.492 Y210.158 E20.71529
G1 X206.003 Y210.158 E20.73988
G1 X208.741 Y212.897 E20.93466
G1 X208.886 Y212.925 E20.94209
G1 X209.224 Y213.145 E20.96237
G1 X209.336 Y213.267 E20.97067
G1 X209.448 Y213.438 E20.98098
G1 X209.544 Y213.699 E20.99495
G1 X211.258 Y215.414 E21.11693
G1 X211.258 Y215.902 E21.14148
G1 X209.579 Y214.223 E21.26091
G1 X209.581 Y214.714 E21.28561
G1 X211.257 Y216.39 E21.40484
G1 X211.245 Y216.867 E21.42884
G1 X209.583 Y215.205 E21.54708
G1 X209.585 Y215.696 E21.57178
G1 X210.753 Y216.864 E21.65487
G1 X210.261 Y216.86 E21.67962
G1 X209.587 Y216.186 E21.72757
G1 X209.589 Y216.677 E21.75226
G1 X209.925 Y217.014 E21.77617
G1 E19.77617 F2400
G92 E0
G1 Z3.35 F7800
G1 X208.353 Y212.997
G1 Z.35
G1 E2 F2400
G1 F1800
G1 X205.514 Y210.158 E2.20191
G1 X205.025 Y210.158 E2.2265
G1 X207.709 Y212.842 E2.41736
G1 X207.22 Y212.842 E2.44195
G1 X204.537 Y210.158 E2.63282
G1 X204.048 Y210.158 E2.65741
G1 X206.731 Y212.842 E2.84827
G1 X206.242 Y212.842 E2.87286
G1 X203.559 Y210.158 E3.06373
G1 X203.07 Y210.158 E3.08832
G1 X205.753 Y212.842 E3.27919
G1 X205.264 Y212.842 E3.30378
G1 X202.581 Y210.158 E3.49464
G1 X202.092 Y210.158 E3.51923
G1 X204.775 Y212.842 E3.7101
G1 X204.287 Y212.842 E3.73469
G1 X201.603 Y210.158 E3.92555
G1 X201.115 Y210.158 E3.95014
G1 X203.798 Y212.842 E4.14101
G1 X203.309 Y212.842 E4.1656
G1 X200.626 Y210.158 E4.35647
G1 X200.137 Y210.158 E4.38105
G1 X202.82 Y212.842 E4.57192
G1 X202.331 Y212.842 E4.59651
G1 X199.648 Y210.158 E4.78738
G1 X199.159 Y210.158 E4.81197
G1 X201.842 Y212.842 E5.00283
G1 X201.353 Y212.842 E5.02742
G1 X198.67 Y210.158 E5.21829
G1 X198.181 Y210.158 E5.24288
G1 X200.864 Y212.842 E5.43374
G1 X200.376 Y212.842 E5.45833
G1 X197.693 Y210.158 E5.6492
G1 X197.204 Y210.158 E5.67379
G1 X199.887 Y212.842 E5.86466
G1 X199.398 Y212.842 E5.88925
G1 X196.715 Y210.158 E6.08011
G1 X196.226 Y210.158 E6.1047
G1 X198.909 Y212.842 E6.29557
G1 X198.42 Y212.842 E6.32016
G1 X195.737 Y210.158 E6.51102
G1 X195.248 Y210.158 E6.53561
G1 X197.931 Y212.842 E6.72648
G1 X197.442 Y212.842 E6.75107
G1 X194.759 Y210.158 E6.94194
G1 X194.27 Y210.158 E6.96653
G1 X196.954 Y212.842 E7.15739
G1 X196.465 Y212.842 E7.18198
G1 X193.782 Y210.158 E7.37285
G1 X193.293 Y210.158 E7.39744
G1 X195.976 Y212.842 E7.5883
G1 X195.487 Y212.842 E7.61289
G1 X192.804 Y210.158 E7.80376
G1 X192.315 Y210.158 E7.82835
G1 X194.998 Y212.842 E8.01922
G1 X194.509 Y212.842 E8.0438
G1 X191.826 Y210.158 E8.23467
G1 X191.337 Y210.158 E8.25926
G1 X194.02 Y212.842 E8.45013
G1 X193.532 Y212.842 E8.47472
G1 X190.848 Y210.158 E8.66558
G1 X190.36 Y210.158 E8.69017
G1 X193.043 Y212.842 E8.88104
G1 X192.554 Y212.842 E8.90563
G1 X189.871 Y210.158 E9.09649
G1 X189.382 Y210.158 E9.12108
G1 X192.065 Y212.842 E9.31195
G1 X191.576 Y212.842 E9.33654
G1 X188.893 Y210.158 E9.52741
G1 X188.404 Y210.158 E9.552
G1 X191.087 Y212.842 E9.74286
G1 X190.598 Y212.842 E9.76745
G1 X187.915 Y210.158 E9.95832
G1 X187.426 Y210.158 E9.98291
G1 X190.11 Y212.842 E10.17377
G1 X189.621 Y212.842 E10.19836
G1 X186.938 Y210.158 E10.38923
G1 X186.449 Y210.158 E10.41382
G1 X189.132 Y212.842 E10.60468
G1 X188.643 Y212.842 E10.62927
G1 X185.96 Y210.158 E10.82014
G1 X185.471 Y210.158 E10.84473
G1 X188.154 Y212.842 E11.0356
G1 X187.665 Y212.842 E11.06019
G1 X184.982 Y210.158 E11.25105
G1 X184.579 Y210.158 E11.27132
G1 X184.579 Y210.244 E11.27564
G1 X187.176 Y212.842 E11.46039
G1 X186.703 Y212.857 E11.48423
G1 X184.579 Y210.733 E11.63528
G1 X184.579 Y211.222 E11.65987
G1 X186.35 Y212.993 E11.78584
G1 X186.155 Y213.106 E11.79717
G1 X186.076 Y213.208 E11.80365
G1 X184.579 Y211.711 E11.91014
G1 X184.579 Y212.2 E11.93473
G1 X185.868 Y213.489 E12.02641
G1 X185.776 Y213.886 E12.0469
G1 X184.579 Y212.689 E12.13204
G1 X184.579 Y213.178 E12.15663
G1 X185.762 Y214.36 E12.24073
G1 X185.763 Y214.85 E12.26538
G1 X184.579 Y213.666 E12.34955
G1 X184.579 Y214.155 E12.37414
G1 X185.764 Y215.34 E12.4584
G1 X185.765 Y215.83 E12.48304
G1 X184.579 Y214.644 E12.56737
G1 X184.579 Y215.133 E12.59196
G1 X185.766 Y216.32 E12.67636
G1 X185.767 Y216.809 E12.70101
G1 X184.579 Y215.622 E12.78549
G1 X184.579 Y216.111 E12.81008
G1 X185.768 Y217.299 E12.89463
G1 X185.769 Y217.789 E12.91928
G1 X184.579 Y216.6 E13.00391
G1 X184.579 Y217.088 E13.0285
G1 X185.77 Y218.279 E13.11321
G1 X185.771 Y218.769 E13.13785
G1 X184.568 Y217.566 E13.22341
G1 X184.479 Y217.903 E13.24095
G1 X184.453 Y217.94 E13.24319
G1 X185.761 Y219.248 E13.33628
G1 X185.735 Y219.4 E13.34402
G1 X185.624 Y219.6 E13.35552
G1 X184.249 Y218.224 E13.45337
G1 X183.963 Y218.427 E13.471
G1 X185.338 Y219.803 E13.56887
G1 X185.287 Y219.822 E13.57163
G1 X184.888 Y219.842 E13.59172
G1 X183.59 Y218.543 E13.68406
G1 X183.117 Y218.559 E13.70789
G1 X184.399 Y219.842 E13.79913
G1 X183.91 Y219.842 E13.82372
G1 X182.643 Y218.574 E13.91387
G1 X182.17 Y218.59 E13.93769
G1 X183.422 Y219.842 E14.02674
G1 X182.933 Y219.842 E14.05133
