; generated by PrusaSlicer 2.5.0 on 2022-10-13 at 23:28:46 UTC

; 

; external perimeters extrusion width = 0.45mm
; perimeters extrusion width = 0.45mm
; infill extrusion width = 0.45mm
; solid infill extrusion width = 0.45mm
; top infill extrusion width = 0.40mm
; first layer extrusion width = 0.42mm

M107
M190 S60 ; set bed temperature and wait for it to be reached
M104 S215 ; set temperature
;TYPE:Custom
G28 ; home all axes
G1 Z5 F5000 ; lift nozzle
M109 S215 ; set temperature and wait for it to be reached
G21 ; set units to millimeters
G90 ; use absolute coordinates
M82 ; use absolute distances for extrusion
G92 E0
; Filament gcode
M107
;LAYER_CHANGE
;Z:0.35
;HEIGHT:0.35
G1 Z.35 F7800
G1 E-2 F2400
G92 E0
G1 Z3.35 F7800
G1 X184.4 Y179.356
G1 Z.35
G1 E2 F2400
;TYPE:Skirt/Brim
;WIDTH:0.42
G1 F1800
G1 X185.256 Y178.632 E2.05625
G1 X186.214 Y178.051 E2.1125
G1 X187.238 Y177.631 E2.16802
G1 X189.579 Y177.058 E2.28897
G1 X190.695 Y176.955 E2.34522
G1 X191.813 Y177.029 E2.40148
G1 X193.026 Y177.315 E2.464
G1 X194.501 Y177.993 E2.54549
G1 X219.028 Y192.923 E3.98652
G1 X220.504 Y193.984 E4.07772
G1 X221.975 Y195.329 E4.17776
G1 X223.169 Y196.706 E4.26924
G1 X224.045 Y197.957 E4.34586
G1 X224.801 Y199.283 E4.42248
G1 X225.429 Y200.675 E4.49911
G1 X225.925 Y202.119 E4.57573
G1 X226.366 Y204.063 E4.67577
G1 X226.542 Y205.579 E4.75239
G1 X226.575 Y207.106 E4.82902
G1 X226.429 Y208.923 E4.9205
G1 X226.151 Y210.424 E4.99712
G1 X225.734 Y211.893 E5.07375
G1 X224.987 Y213.741 E5.17378
G1 X224.265 Y215.086 E5.25041
G1 X223.421 Y216.359 E5.32703
G1 X222.463 Y217.547 E5.40365
G1 X221.179 Y218.841 E5.49513
G1 X219.998 Y219.809 E5.57175
G1 X218.732 Y220.663 E5.64838
G1 X216.97 Y221.593 E5.74841
G1 X215.269 Y222.25 E5.83989
G1 X213.047 Y222.801 E5.95477
G1 X211.066 Y223.023 E6.05481
G1 X181.499 Y222.976 E7.53869
G1 X180.752 Y222.932 E7.57622
G1 X179.651 Y222.723 E7.63247
G1 X178.596 Y222.344 E7.68872
G1 X177.719 Y221.872 E7.73869
G1 X176.384 Y220.785 E7.8251
G1 X175.072 Y219.387 E7.92134
G1 X174.425 Y218.472 E7.9776
G1 X173.884 Y217.349 E8.04011
G1 X173.57 Y216.273 E8.09637
G1 X173.429 Y215.161 E8.15261
G1 X173.451 Y214.166 E8.20259
G1 X173.641 Y213.061 E8.25883
G1 X182.558 Y182.47 E9.85798
G1 X183.022 Y181.27 E9.92254
G1 X183.595 Y180.307 E9.97879
G1 X184.361 Y179.402 E10.03831
G1 E8.03831 F2400
G92 E0
G1 Z3.35 F7800
G1 X190.888 Y193.554
G1 Z.35
G1 E2 F2400
;TYPE:Perimeter
;WIDTH:0.42
G1 F1800
G1 X190.928 Y193.463 E2.00496
G1 X191.117 Y192.723 E2.04331
G1 X191.182 Y192.171 E2.07122
G1 X191.185 Y191.6 E2.09985
G1 X191.103 Y190.903 E2.13507
G1 X189.55 Y184.511 E2.46518
G1 X190.714 Y184.219 E2.52543
G1 X192.48 Y191.434 E2.89822
G1 X192.643 Y192.015 E2.92849
G1 X192.875 Y192.646 E2.96227
G1 X193.276 Y193.38 E3.00421
G1 X193.624 Y193.849 E3.03354
G1 X194.261 Y194.492 E3.07897
G1 X194.669 Y194.799 E3.1046
G1 X195.147 Y195.077 E3.13232
G1 X196.223 Y195.58 E3.19196
G1 X196.852 Y195.953 E3.22864
G1 X197.469 Y196.414 E3.26726
G1 X197.99 Y196.892 E3.30278
G1 X198.518 Y197.496 E3.34303
G1 X198.965 Y198.043 E3.37848
G1 X199.505 Y198.584 E3.41686
G1 X199.972 Y198.902 E3.44519
G1 X200.421 Y199.179 E3.47168
G1 X201.028 Y199.43 E3.50465
G1 X201.525 Y199.555 E3.53033
G1 X202.034 Y199.657 E3.55642
G1 X202.832 Y199.693 E3.59651
G1 X203.13 Y199.665 E3.61153
G1 X204.114 Y199.505 E3.66153
;WIDTH:0.452455
G1 X204.496 Y199.386 E3.68349
;WIDTH:0.484911
G1 X204.878 Y199.268 E3.70735
G1 X205.895 Y198.714 E3.77638
;WIDTH:0.439356
G1 X206.674 Y198.339 E3.82223
;WIDTH:0.43911
G1 X207.457 Y198.047 E3.86649
;WIDTH:0.436922
G1 X208.208 Y197.855 E3.90729
;WIDTH:0.4398
G1 X208.703 Y197.742 E3.93428
G1 X209.199 Y197.676 E3.96083
;WIDTH:0.432066
G1 X209.773 Y197.627 E3.99075
G1 X210.654 Y197.625 E4.03647
;WIDTH:0.431023
G1 X211.559 Y197.712 E4.0836
;WIDTH:0.440083
G1 X212.082 Y197.801 E4.11176
G1 X212.899 Y198.01 E4.15654
G1 X213.699 Y198.296 E4.20164
;WIDTH:0.439267
G1 X214.468 Y198.656 E4.24663
G1 X215.2 Y199.085 E4.29162
;WIDTH:0.43788
G1 X215.89 Y199.581 E4.33645
;WIDTH:0.43592
G1 X216.581 Y200.193 E4.38491
;WIDTH:0.433613
G1 X217.242 Y200.915 E4.43599
;WIDTH:0.446588
G1 X217.629 Y201.42 E4.4704
G1 X218.036 Y202.061 E4.51142
;WIDTH:0.43077
G1 X218.442 Y202.802 E4.55517
;WIDTH:0.4393
G1 X218.658 Y203.281 E4.58299
;WIDTH:0.440092
G1 X218.94 Y204.082 E4.62809
G1 X219.147 Y204.905 E4.67318
;WIDTH:0.439507
G1 X219.276 Y205.744 E4.7182
;WIDTH:0.438348
G1 X219.327 Y206.592 E4.76306
;WIDTH:0.436591
G1 X219.29 Y207.507 E4.81125
;WIDTH:0.446075
G1 X219.18 Y208.301 E4.85449
G1 X218.995 Y209.129 E4.90031
;WIDTH:0.439285
G1 X218.733 Y209.929 E4.94491
;WIDTH:0.437334
G1 X218.434 Y210.594 E4.98337
;WIDTH:0.430557
G1 X218.044 Y211.345 E5.02712
;WIDTH:0.440049
G1 X217.75 Y211.814 E5.05653
G1 X217.241 Y212.493 E5.10159
;WIDTH:0.439812
G1 X216.67 Y213.121 E5.14665
;WIDTH:0.438988
G1 X216.048 Y213.689 E5.19122
;WIDTH:0.438353
G1 X215.11 Y214.369 E5.25248
;WIDTH:0.434042
G1 X214.139 Y214.904 E5.31037
;WIDTH:0.439052
G1 X213.095 Y215.328 E5.37005
G1 X212.277 Y215.558 E5.41504
;WIDTH:0.437689
G1 X211.558 Y215.679 E5.45349
;WIDTH:0.439673
G1 X211.02 Y215.755 E5.48234
;WIDTH:0.439952
G1 X210.163 Y215.789 E5.52785
;WIDTH:0.442087
G1 X209.335 Y215.743 E5.57212
G1 X208.17 Y215.547 E5.63526
;WIDTH:0.430923
G1 X207.261 Y215.283 E5.68424
;WIDTH:0.430511
G1 X206.541 Y214.999 E5.72426
;WIDTH:0.439853
G1 X206.084 Y214.784 E5.75105
G1 X205.605 Y214.504 E5.78054
;WIDTH:0.430898
G1 X204.804 Y213.982 E5.83
G1 X204.073 Y213.374 E5.87928
;WIDTH:0.430665
G1 X203.482 Y212.774 E5.92283
;WIDTH:0.445045
G1 X203.143 Y212.378 E5.95086
G1 X202.548 Y211.543 E6.00605
;WIDTH:0.457845
G1 X201.997 Y210.6 E6.0669
G1 X201.551 Y210.033 E6.10707
;WIDTH:0.42
G1 X200.956 Y209.437 E6.14933
G1 X200.466 Y209.05 E6.18068
G1 X199.85 Y208.682 E6.21667
G1 X199.448 Y208.507 E6.23871
G1 X198.939 Y208.327 E6.2658
G1 X198.253 Y208.176 E6.30104
G1 X197.337 Y208.137 E6.34704
G1 X196.507 Y208.255 E6.38912
G1 X195.982 Y208.415 E6.41666
G1 X195.087 Y208.759 E6.46481
G1 X194.393 Y208.945 E6.50087
G1 X193.69 Y209.06 E6.53661
G1 X192.99 Y209.105 E6.57181
G1 X191.882 Y209.036 E6.62748
G1 X191.09 Y208.917 E6.66769
G1 X190.227 Y208.915 E6.71099
G1 X189.664 Y209.001 E6.73958
G1 X188.928 Y209.222 E6.77816
G1 X188.013 Y209.664 E6.82915
G1 X187.271 Y210.21 E6.87539
G1 X181.535 Y215.691 E7.27355
G1 X180.711 Y214.83 E7.33333
G1 X185.457 Y210.262 E7.66392
G1 X185.554 Y210.152 E7.6713
G1 X186.216 Y209.202 E7.7294
G1 X186.614 Y208.266 E7.78043
G1 X186.799 Y207.332 E7.82821
G1 X186.793 Y206.407 E7.87466
G1 X186.596 Y205.503 E7.92108
G1 X186.115 Y204.327 E7.98486
G1 X185.905 Y203.623 E8.02168
G1 X185.724 Y202.493 E8.07913
G1 X185.703 Y201.773 E8.11527
G1 X185.821 Y200.625 E8.1732
G1 X185.989 Y199.913 E8.20989
G1 X186.233 Y199.212 E8.24716
G1 X186.554 Y198.532 E8.28489
G1 X186.943 Y197.889 E8.32263
G1 X187.392 Y197.297 E8.35989
G1 X187.906 Y196.748 E8.39764
G1 X188.466 Y196.263 E8.43484
G1 X189.469 Y195.557 E8.4964
G1 X190.021 Y195.033 E8.53457
G1 X190.481 Y194.413 E8.57332
G1 X190.685 Y194.017 E8.59566
G1 X190.864 Y193.609 E8.61806
G1 X190.574 Y193.421 F7800
G1 F1800
G1 X190.775 Y192.683 E8.65646
G1 X190.839 Y192.131 E8.68437
G1 X190.842 Y191.636 E8.70917
G1 X190.768 Y190.984 E8.74209
G1 X189.205 Y184.554 E9.0742
G1 X189.202 Y184.36 E9.08395
G1 X189.337 Y184.209 E9.09408
G1 X190.774 Y183.864 E9.16825
G1 X190.941 Y183.916 E9.17704
G1 X191.036 Y184.082 E9.18663
G1 X192.815 Y191.352 E9.56226
G1 X192.97 Y191.903 E9.59099
G1 X193.18 Y192.485 E9.62207
G1 X193.556 Y193.179 E9.66166
G1 X193.871 Y193.609 E9.68842
G1 X194.46 Y194.21 E9.73063
G1 X194.86 Y194.512 E9.7558
G1 X195.319 Y194.778 E9.78242
G1 X196.384 Y195.275 E9.84139
G1 X197.043 Y195.666 E9.87984
G1 X197.688 Y196.148 E9.92026
G1 X198.236 Y196.65 E9.95756
G1 X198.789 Y197.282 E9.99967
G1 X199.21 Y197.8 E10.03317
G1 X199.736 Y198.328 E10.07059
G1 X200.161 Y198.614 E10.09628
G1 X200.607 Y198.882 E10.12243
G1 X201.312 Y199.153 E10.16033
G1 X202.05 Y199.312 E10.1982
G1 X202.848 Y199.348 E10.2383
G1 X203.079 Y199.323 E10.24997
G1 X204.006 Y199.177 E10.29708
G1 X204.657 Y198.957 E10.33157
G1 X205.733 Y198.398 E10.39241
G1 X206.527 Y198.015 E10.43662
G1 X207.342 Y197.711 E10.4803
G1 X208.639 Y197.393 E10.54732
G1 X209.515 Y197.284 E10.59164
G1 X210.39 Y197.257 E10.63557
G1 X211.281 Y197.314 E10.68034
G1 X212.146 Y197.451 E10.7243
G1 X212.995 Y197.668 E10.76827
G1 X213.826 Y197.965 E10.81256
G1 X214.625 Y198.338 E10.85683
G1 X215.386 Y198.784 E10.90111
G1 X216.103 Y199.299 E10.94539
G1 X216.768 Y199.878 E10.98965
G1 X217.389 Y200.533 E11.03493
G1 X217.918 Y201.206 E11.07792
G1 X218.616 Y202.344 E11.1449
G1 X218.984 Y203.139 E11.18888
G1 X219.278 Y203.971 E11.23316
G1 X219.493 Y204.826 E11.27743
G1 X219.628 Y205.698 E11.32171
G1 X219.68 Y206.579 E11.36597
G1 X219.649 Y207.48 E11.41124
G1 X219.535 Y208.355 E11.45551
G1 X219.34 Y209.215 E11.49978
G1 X219.068 Y210.049 E11.54379
G1 X218.517 Y211.242 E11.60976
G1 X218.049 Y212.007 E11.65474
G1 X217.52 Y212.713 E11.699
G1 X216.928 Y213.366 E11.74328
G1 X216.28 Y213.958 E11.78729
G1 X215.214 Y214.726 E11.85325
G1 X214.436 Y215.16 E11.89796
G1 X213.221 Y215.661 E11.96391
G1 X212.363 Y215.902 E12.00862
G1 X211.066 Y216.108 E12.07457
G1 X210.17 Y216.145 E12.11956
G1 X209.308 Y216.099 E12.16285
G1 X208.416 Y215.968 E12.2081
G1 X207.579 Y215.763 E12.25138
G1 X206.734 Y215.472 E12.2962
G1 X205.928 Y215.104 E12.34069
G1 X204.59 Y214.259 E12.42012
G1 X203.833 Y213.629 E12.46954
G1 X203.219 Y213.006 E12.51343
G1 X202.854 Y212.589 E12.54124
G1 X202.247 Y211.723 E12.59432
G1 X201.703 Y210.815 E12.64743
G1 X201.3 Y210.27 E12.68145
G1 X200.835 Y209.784 E12.71522
G1 X200.35 Y209.389 E12.74663
G1 X199.54 Y208.917 E12.79366
G1 X198.858 Y208.662 E12.83017
G1 X198.232 Y208.52 E12.86242
G1 X197.385 Y208.478 E12.90494
G1 X196.588 Y208.591 E12.94535
G1 X196.105 Y208.737 E12.97068
G1 X195.193 Y209.087 E13.0197
G1 X194.465 Y209.283 E13.05753
G1 X193.729 Y209.403 E13.09499
G1 X192.99 Y209.45 E13.13214
G1 X191.844 Y209.38 E13.18974
G1 X191.085 Y209.262 E13.22829
G1 X190.276 Y209.256 E13.26892
G1 X189.755 Y209.334 E13.29535
G1 X189.073 Y209.535 E13.33099
G1 X188.215 Y209.944 E13.37873
G1 X187.509 Y210.459 E13.42258
G1 X181.733 Y215.979 E13.82353
G1 X181.527 Y216.062 E13.83469
G1 X181.324 Y215.97 E13.84585
G1 X180.458 Y215.064 E13.90875
G1 X180.326 Y214.815 E13.9229
G1 X180.375 Y214.675 E13.93033
G1 X185.218 Y210.014 E14.26771
G1 X185.901 Y209.061 E14.32652
G1 X186.277 Y208.193 E14.37401
G1 X186.454 Y207.327 E14.41835
G1 X186.455 Y206.474 E14.46117
G1 X186.277 Y205.634 E14.50429
G1 X185.789 Y204.441 E14.56894
G1 X185.568 Y203.7 E14.60775
G1 X185.38 Y202.526 E14.66745
G1 X185.358 Y201.761 E14.70585
G1 X185.48 Y200.568 E14.76604
G1 X185.657 Y199.817 E14.80476
G1 X185.914 Y199.082 E14.84382
G1 X186.249 Y198.369 E14.88337
G1 X186.657 Y197.695 E14.92292
G1 X187.128 Y197.075 E14.96197
G1 X187.667 Y196.499 E15.00153
G1 X188.254 Y195.99 E15.04056
G1 X189.237 Y195.302 E15.10079
G1 X189.744 Y194.828 E15.1356
G1 X190.204 Y194.208 E15.17435
G1 X190.549 Y193.476 E15.21497
G1 X190.409 Y192.731 F7800
;TYPE:External perimeter
G1 F1800
G1 X190.497 Y192.09 E15.2474
G1 X190.499 Y191.673 E15.26837
G1 X190.433 Y191.066 E15.299
G1 X188.852 Y184.509 E15.63747
G1 X188.882 Y184.214 E15.65237
G1 X189.049 Y183.982 E15.66671
G1 X189.201 Y183.888 E15.67569
G1 X190.689 Y183.524 E15.75256
G1 X191.01 Y183.554 E15.76871
G1 X191.226 Y183.718 E15.78237
G1 X191.365 Y183.973 E15.79694
G1 X193.15 Y191.27 E16.17393
G1 X193.296 Y191.792 E16.20112
G1 X193.486 Y192.325 E16.2295
G1 X193.819 Y192.953 E16.26523
G1 X194.119 Y193.369 E16.29094
G1 X194.678 Y193.942 E16.33114
G1 X195.3 Y194.369 E16.36898
G1 X196.545 Y194.97 E16.43835
G1 X197.234 Y195.379 E16.47858
G1 X197.908 Y195.882 E16.5208
G1 X198.482 Y196.409 E16.55988
G1 X199.059 Y197.068 E16.60385
G1 X199.455 Y197.557 E16.6354
G1 X200.079 Y198.148 E16.67855
G1 X200.739 Y198.564 E16.7177
G1 X201.32 Y198.801 E16.74919
G1 X202.035 Y198.964 E16.78599
G1 X203.028 Y198.982 E16.83584
G1 X203.899 Y198.849 E16.88007
G1 X204.497 Y198.652 E16.91165
G1 X205.579 Y198.09 E16.97285
G1 X206.391 Y197.698 E17.01811
G1 X207.24 Y197.381 E17.06361
G1 X208.576 Y197.053 E17.13265
G1 X209.489 Y196.939 E17.17879
G1 X210.396 Y196.912 E17.22435
G1 X211.319 Y196.971 E17.27073
G1 X212.216 Y197.113 E17.31631
G1 X213.096 Y197.338 E17.36189
G1 X213.957 Y197.645 E17.40779
G1 X214.786 Y198.032 E17.45369
G1 X215.575 Y198.494 E17.49958
G1 X216.317 Y199.028 E17.54548
G1 X217.007 Y199.629 E17.59137
G1 X217.65 Y200.307 E17.63828
G1 X218.202 Y201.009 E17.68308
G1 X218.92 Y202.181 E17.75208
G1 X219.304 Y203.009 E17.79788
G1 X219.609 Y203.871 E17.84377
G1 X219.832 Y204.758 E17.88967
G1 X219.971 Y205.662 E17.93556
G1 X220.026 Y206.575 E17.98146
G1 X219.993 Y207.509 E18.02836
G1 X219.875 Y208.415 E18.07425
G1 X219.673 Y209.307 E18.12015
G1 X219.389 Y210.175 E18.16597
G1 X218.822 Y211.405 E18.23395
G1 X218.335 Y212.201 E18.28076
G1 X217.787 Y212.932 E18.32665
G1 X217.172 Y213.61 E18.37254
G1 X216.498 Y214.226 E18.41837
G1 X215.4 Y215.018 E18.48634
G1 X214.586 Y215.471 E18.53308
G1 X213.334 Y215.987 E18.60105
G1 X212.437 Y216.24 E18.64779
G1 X211.1 Y216.452 E18.71576
G1 X210.168 Y216.49 E18.76258
G1 X209.274 Y216.443 E18.80748
G1 X208.35 Y216.307 E18.85435
G1 X207.481 Y216.094 E18.89925
G1 X206.606 Y215.792 E18.94569
G1 X205.766 Y215.41 E18.99201
G1 X205.247 Y215.096 E19.02247
G1 X204.378 Y214.531 E19.07446
G1 X203.597 Y213.88 E19.12551
G1 X202.922 Y213.19 E19.17394
G1 X202.575 Y212.792 E19.20044
G1 X201.951 Y211.899 E19.25513
G1 X201.425 Y211.018 E19.30661
G1 X201.049 Y210.507 E19.33846
G1 X200.619 Y210.053 E19.36986
G1 X200.132 Y209.656 E19.40138
G1 X199.875 Y209.5 E19.41645
G1 X199.409 Y209.236 E19.44333
G1 X198.778 Y208.997 E19.47719
G1 X198.21 Y208.864 E19.50646
G1 X197.434 Y208.82 E19.5455
G1 X196.651 Y208.93 E19.58518
G1 X196.228 Y209.06 E19.60736
G1 X195.3 Y209.416 E19.65725
G1 X194.538 Y209.62 E19.69685
G1 X193.767 Y209.747 E19.73604
G1 X192.99 Y209.796 E19.77513
G1 X191.806 Y209.723 E19.83467
G1 X191.08 Y209.607 E19.87157
G1 X190.35 Y209.596 E19.90818
G1 X189.845 Y209.666 E19.93379
G1 X189.219 Y209.847 E19.96649
G1 X188.417 Y210.224 E20.01097
G1 X187.747 Y210.709 E20.05244
G1 X182.442 Y215.778 E20.42068
G1 X181.792 Y216.357 E20.46438
G1 X181.519 Y216.417 E20.47843
G1 X181.248 Y216.345 E20.49248
G1 X181.094 Y216.228 E20.5022
G1 X180.209 Y215.303 E20.56647
G1 X180.05 Y215.068 E20.5807
G1 X179.976 Y214.807 E20.59427
G1 X180.096 Y214.464 E20.6125
G1 X184.979 Y209.765 E20.9526
G1 X185.586 Y208.921 E21.00479
G1 X185.94 Y208.12 E21.04874
G1 X186.11 Y207.323 E21.08963
G1 X186.116 Y206.542 E21.12882
G1 X185.958 Y205.764 E21.16866
G1 X185.463 Y204.556 E21.23416
G1 X185.231 Y203.777 E21.27496
G1 X185.036 Y202.558 E21.33692
G1 X185.013 Y201.748 E21.37757
G1 X185.139 Y200.51 E21.44002
G1 X185.326 Y199.72 E21.48077
G1 X185.594 Y198.951 E21.52164
G1 X185.945 Y198.206 E21.56299
G1 X186.372 Y197.501 E21.60435
G1 X186.864 Y196.852 E21.64521
G1 X187.427 Y196.251 E21.68657
G1 X188.042 Y195.717 E21.72742
G1 X189.005 Y195.046 E21.78633
G1 X189.467 Y194.623 E21.81778
G1 X189.945 Y193.972 E21.85828
G1 X190.262 Y193.285 E21.89628
G1 X190.393 Y192.789 E21.92203
G1 X190.789 Y192.607 F7800
G1 E19.92203 F2400
G92 E0
G1 Z3.35 F7800
G1 X212.034 Y198.165
G1 Z.35
G1 E2 F2400
;TYPE:Perimeter
;WIDTH:0.440034
G1 F1800
G1 X212.783 Y198.357 E2.04106
G1 X213.305 Y198.528 E2.07023
;WIDTH:0.431091
G1 X214.001 Y198.825 E2.10945
;WIDTH:0.431312
G1 X214.803 Y199.261 E2.15673
;WIDTH:0.432565
G1 X215.558 Y199.78 E2.20439
;WIDTH:0.434442
G1 X216.255 Y200.375 E2.2523
;WIDTH:0.43627
G1 X216.853 Y201.005 E2.29797
;WIDTH:0.446588
G1 X217.32 Y201.625 E2.33993
G1 X217.673 Y202.138 E2.37358
;WIDTH:0.439578
G1 X217.981 Y202.684 E2.4068
G1 X218.318 Y203.411 E2.44931
;WIDTH:0.440092
G1 X218.588 Y204.178 E2.49252
G1 X218.734 Y204.702 E2.52137
;WIDTH:0.431045
G1 X218.885 Y205.513 E2.56411
;WIDTH:0.432024
G1 X218.962 Y206.426 E2.6117
;WIDTH:0.433304
G1 X218.944 Y207.342 E2.65945
;WIDTH:0.446075
G1 X218.727 Y208.733 E2.73545
;WIDTH:0.431311
