; generated by PrusaSlicer 2.5.0 on 2022-10-12 at 03:00:01 UTC

; 

; external perimeters extrusion width = 0.45mm
; perimeters extrusion width = 0.45mm
; infill extrusion width = 0.45mm
; solid infill extrusion width = 0.45mm
; top infill extrusion width = 0.40mm
; support material extrusion width = 0.35mm
; first layer extrusion width = 0.42mm

M107
M190 S60 ; set bed temperature and wait for it to be reached
M104 S215 ; set temperature
;TYPE:Custom
G28 ; home all axes
G1 Z5 F5000 ; lift nozzle
M109 S215 ; set temperature and wait for it to be reached
G21 ; set units to millimeters
G90 ; use absolute coordinates
M82 ; use absolute distances for extrusion
G92 E0
; Filament gcode
M107
;LAYER_CHANGE
;Z:0.35
;HEIGHT:0.35
G1 Z.35 F7800
G1 E-2 F2400
G92 E0
G1 Z3.35 F7800
G1 X154.39 Y177.969
G1 Z.35
G1 E2 F2400
;TYPE:Skirt/Brim
;WIDTH:0.42
G1 F1800
G1 X176.025 Y162.641 E3.33065
G1 X179.571 Y160.592 E3.53619
G1 X181.922 Y159.458 E3.66716
G1 X185.74 Y157.963 E3.87297
G1 X188.08 Y157.241 E3.99584
G1 X190.296 Y156.684 E4.11051
G1 X194.334 Y155.973 E4.31631
G1 X196.932 Y155.718 E4.44729
G1 X201.019 Y155.622 E4.65245
G1 X203.467 Y155.746 E4.77549
G1 X205.594 Y155.965 E4.88279
G1 X207.847 Y156.309 E4.99719
G1 X210.094 Y156.775 E5.11232
G1 X213.877 Y157.837 E5.30955
G1 X216.038 Y158.609 E5.42469
G1 X218.148 Y159.49 E5.53947
G1 X220.071 Y160.407 E5.64639
G1 X222.363 Y161.657 E5.77736
G1 X225.666 Y163.785 E5.9746
G1 X245.609 Y177.969 E7.20276
G1 X247.606 Y180.302 E7.35688
G1 X250.392 Y185.873 E7.66948
G1 X251.062 Y188.71 E7.8158
G1 X251.062 Y211.29 E8.94895
G1 X250.392 Y214.127 E9.09527
G1 X247.606 Y219.698 E9.40787
G1 X245.609 Y222.031 E9.56198
G1 X223.906 Y237.404 E10.89672
G1 X220.352 Y239.45 E11.10253
G1 X218.148 Y240.511 E11.22529
G1 X216.038 Y241.392 E11.34006
G1 X212.15 Y242.696 E11.54587
G1 X209.619 Y243.334 E11.67684
G1 X205.594 Y244.037 E11.88191
G1 X203.152 Y244.279 E12.00505
G1 X199.053 Y244.381 E12.21086
G1 X196.773 Y244.273 E12.32539
G1 X194.334 Y244.028 E12.44839
G1 X192.22 Y243.704 E12.55573
G1 X189.988 Y243.247 E12.67009
G1 X187.767 Y242.671 E12.78523
G1 X184.041 Y241.422 E12.98246
G1 X181.922 Y240.543 E13.09759
G1 X179.857 Y239.558 E13.2124
G1 X177.709 Y238.389 E13.33513
G1 X174.262 Y236.168 E13.54094
G1 X154.39 Y222.031 E14.76484
G1 X152.394 Y219.698 E14.91892
G1 X149.608 Y214.127 E15.23152
G1 X148.938 Y211.29 E15.37784
G1 X148.938 Y188.71 E16.51099
G1 X149.608 Y185.873 E16.65731
G1 X152.394 Y180.302 E16.96991
G1 X154.351 Y178.015 E17.12099
G1 E15.12099 F2400
G92 E0
G1 Z3.35 F7800
G1 X200.034 Y169.437
G1 Z.35
G1 E2 F2400
;TYPE:Support material
G1 F1800
G1 X201.524 Y169.474 E2.07482
G1 X203.045 Y169.588 E2.15136
G1 X204.558 Y169.778 E2.2279
G1 X206.06 Y170.043 E2.30444
G1 X207.547 Y170.382 E2.38098
G1 X209.015 Y170.796 E2.45752
G1 X210.461 Y171.282 E2.53406
G1 X211.88 Y171.839 E2.6106
G1 X213.27 Y172.467 E2.68714
G1 X214.627 Y173.163 E2.76368
G1 X215.948 Y173.926 E2.84022
G1 X217.228 Y174.754 E2.91676
G1 X218.466 Y175.645 E2.9933
G1 X219.658 Y176.597 E3.06985
G1 X220.801 Y177.607 E3.14638
G1 X221.892 Y178.672 E3.22292
G1 X222.929 Y179.791 E3.29947
G1 X223.909 Y180.96 E3.37601
G1 X224.829 Y182.176 E3.45255
G1 X225.687 Y183.437 E3.52909
G1 X226.481 Y184.739 E3.60563
G1 X227.209 Y186.079 E3.68217
G1 X227.87 Y187.453 E3.75871
G1 X228.516 Y188.99 E3.84238
G1 X228.735 Y189.136 E3.85556
G1 X236.556 Y189.136 E4.24805
G1 X236.816 Y188.766 E4.27074
G1 X236.098 Y186.674 E4.38173
G1 X235.426 Y184.972 E4.47354
G1 X234.589 Y183.139 E4.57467
G1 X241.931 Y183.139 E4.94317
G1 X241.931 Y188.71 E5.22277
G1 X244.717 Y188.71 E5.36257
G1 X244.717 Y211.29 E6.49572
G1 X241.931 Y211.29 E6.63552
G1 X241.931 Y216.861 E6.91512
G1 X234.589 Y216.861 E7.28358
G1 X235.426 Y215.029 E7.38465
G1 X236.098 Y213.328 E7.47646
G1 X236.816 Y211.236 E7.58745
G1 X236.556 Y210.866 E7.61013
G1 X228.735 Y210.866 E8.00262
G1 X228.516 Y211.011 E8.0158
G1 X227.87 Y212.548 E8.09948
G1 X227.209 Y213.923 E8.17602
G1 X226.481 Y215.263 E8.25256
G1 X225.687 Y216.565 E8.3291
G1 X224.848 Y217.797 E8.40392
G1 X223.909 Y219.042 E8.48218
G1 X222.929 Y220.211 E8.55872
G1 X221.892 Y221.329 E8.63526
G1 X220.801 Y222.395 E8.7118
G1 X219.658 Y223.405 E8.78834
G1 X218.466 Y224.356 E8.86488
G1 X217.228 Y225.247 E8.94142
G1 X215.948 Y226.075 E9.01796
G1 X214.627 Y226.838 E9.0945
G1 X213.27 Y227.534 E9.17104
G1 X211.88 Y228.162 E9.24758
G1 X210.461 Y228.72 E9.32412
G1 X209.015 Y229.206 E9.40066
G1 X207.547 Y229.619 E9.4772
G1 X206.06 Y229.959 E9.55374
G1 X204.558 Y230.224 E9.63028
G1 X203.045 Y230.413 E9.70682
G1 X201.524 Y230.527 E9.78336
G1 X199.999 Y230.566 E9.8599
G1 X198.475 Y230.527 E9.93644
G1 X196.988 Y230.416 E10.01126
G1 X195.441 Y230.224 E10.08952
G1 X193.939 Y229.959 E10.16606
G1 X192.452 Y229.619 E10.2426
G1 X190.984 Y229.206 E10.31914
G1 X189.538 Y228.72 E10.39568
G1 X188.119 Y228.162 E10.47222
G1 X186.729 Y227.534 E10.54876
G1 X185.372 Y226.838 E10.6253
G1 X184.081 Y226.092 E10.70012
G1 X182.77 Y225.247 E10.77838
G1 X181.532 Y224.356 E10.85492
G1 X180.341 Y223.405 E10.93146
G1 X179.198 Y222.395 E11.008
G1 X178.106 Y221.329 E11.08454
G1 X177.07 Y220.211 E11.16108
G1 X176.09 Y219.042 E11.23762
G1 X175.17 Y217.825 E11.31416
G1 X174.331 Y216.593 E11.38898
G1 X173.518 Y215.263 E11.46724
G1 X172.789 Y213.923 E11.54378
G1 X172.129 Y212.548 E11.62032
G1 X171.482 Y211.011 E11.704
G1 X171.264 Y210.866 E11.71718
G1 X163.446 Y210.866 E12.10949
G1 X163.186 Y211.227 E12.13183
G1 X163.873 Y213.258 E12.23946
G1 X164.611 Y215.114 E12.33966
G1 X165.409 Y216.861 E12.43608
G1 X158.069 Y216.861 E12.80449
G1 X158.069 Y211.29 E13.08408
G1 X155.283 Y211.29 E13.22388
G1 X155.283 Y188.71 E14.35704
G1 X158.069 Y188.71 E14.49684
G1 X158.069 Y183.139 E14.77643
G1 X165.41 Y183.139 E15.14488
G1 X164.611 Y184.888 E15.24136
G1 X163.873 Y186.743 E15.34157
G1 X163.186 Y188.775 E15.4492
G1 X163.446 Y189.136 E15.47153
G1 X171.264 Y189.136 E15.86385
G1 X171.482 Y188.99 E15.87703
G1 X172.129 Y187.453 E15.9607
G1 X172.789 Y186.079 E16.03724
G1 X173.518 Y184.739 E16.11378
G1 X174.312 Y183.437 E16.19032
G1 X175.17 Y182.176 E16.26687
G1 X176.09 Y180.96 E16.34341
G1 X177.07 Y179.791 E16.41995
G1 X178.106 Y178.672 E16.49649
G1 X179.198 Y177.607 E16.57303
G1 X180.341 Y176.597 E16.64957
G1 X181.532 Y175.645 E16.72611
G1 X182.77 Y174.754 E16.80265
G1 X184.081 Y173.909 E16.8809
G1 X185.372 Y173.163 E16.95573
G1 X186.729 Y172.467 E17.03226
G1 X188.119 Y171.839 E17.10881
G1 X189.538 Y171.282 E17.18535
G1 X190.984 Y170.796 E17.26189
G1 X192.485 Y170.375 E17.34014
G1 X193.939 Y170.043 E17.41497
G1 X195.441 Y169.778 E17.4915
G1 X196.954 Y169.588 E17.56805
G1 X198.475 Y169.474 E17.64459
G1 X199.982 Y169.436 E17.72025
G1 X197.361 Y177.862 F7800
G1 F1800
G1 X197.361 Y180.648 E17.86005
G1 X191.79 Y180.648 E18.13965
G1 X191.79 Y183.433 E18.27944
G1 X186.219 Y183.433 E18.55904
G1 X186.219 Y186.219 E18.69884
G1 X183.433 Y186.219 E18.83864
G1 X183.433 Y191.79 E19.11824
G1 X180.648 Y191.79 E19.25804
G1 X180.648 Y197.361 E19.53763
G1 X177.862 Y197.361 E19.67743
G1 X177.862 Y202.639 E19.94227
G1 X180.648 Y202.639 E20.08207
G1 X180.648 Y208.21 E20.36166
G1 X183.433 Y208.21 E20.50146
G1 X183.433 Y213.781 E20.78106
G1 X186.219 Y213.781 E20.92086
G1 X186.219 Y216.567 E21.06066
G1 X191.79 Y216.567 E21.34026
G1 X191.79 Y219.352 E21.48005
G1 X197.361 Y219.352 E21.75965
G1 X197.361 Y222.138 E21.89945
G1 X202.639 Y222.138 E22.16428
G1 X202.639 Y219.352 E22.30408
G1 X208.21 Y219.352 E22.58368
G1 X208.21 Y216.567 E22.72348
G1 X213.781 Y216.567 E23.00308
G1 X213.781 Y213.781 E23.14288
G1 X216.567 Y213.781 E23.28268
G1 X216.567 Y208.21 E23.56227
G1 X219.352 Y208.21 E23.70207
G1 X219.352 Y202.639 E23.98167
G1 X222.138 Y202.639 E24.12147
G1 X222.138 Y197.361 E24.3863
G1 X219.352 Y197.361 E24.5261
G1 X219.352 Y191.79 E24.8057
G1 X216.567 Y191.79 E24.9455
G1 X216.567 Y186.219 E25.2251
G1 X213.781 Y186.219 E25.36489
G1 X213.781 Y183.433 E25.50469
G1 X208.21 Y183.433 E25.78429
G1 X208.21 Y180.648 E25.92409
G1 X202.639 Y180.648 E26.20369
G1 X202.639 Y177.862 E26.34349
G1 X197.413 Y177.862 E26.60572
G1 E24.60572 F2400
G92 E0
G1 Z3.35 F7800
G1 X244.069 Y211.134
G1 Z.35
G1 E2 F2400
G1 F1800
G1 X244.069 Y189.021 E3.10979
G1 X243.686 Y189.021 E3.12902
G1 X243.686 Y210.979 E4.23102
G1 X243.303 Y210.979 E4.25025
G1 X243.303 Y189.021 E5.35225
G1 X242.92 Y189.021 E5.37148
G1 X242.92 Y210.979 E6.47348
G1 X242.536 Y210.979 E6.49272
G1 X242.536 Y189.021 E7.59472
G1 X242.153 Y189.021 E7.61395
G1 X242.153 Y210.979 E8.71595
G1 X241.77 Y210.979 E8.73518
G1 X241.77 Y189.021 E9.83718
G1 X241.621 Y189.021 E9.84465
G1 X241.621 Y183.45 E10.12425
G1 X241.387 Y183.45 E10.13601
G1 X241.387 Y216.55 E11.7972
G1 X241.003 Y216.55 E11.81644
G1 X241.003 Y183.45 E13.47763
G1 X240.62 Y183.45 E13.49686
G1 X240.62 Y216.55 E15.15806
G1 X240.237 Y216.55 E15.17729
G1 X240.237 Y183.45 E16.83849
G1 X239.854 Y183.45 E16.85772
G1 X239.854 Y216.55 E18.51891
G1 X239.471 Y216.55 E18.53815
G1 X239.471 Y183.45 E20.19934
G1 X239.087 Y183.45 E20.21857
G1 X239.087 Y216.55 E21.87977
G1 X238.704 Y216.55 E21.899
G1 X238.704 Y183.45 E23.5602
G1 X238.321 Y183.45 E23.57943
G1 X238.321 Y216.55 E25.24062
G1 X237.938 Y216.55 E25.25985
G1 X237.938 Y183.45 E26.92105
G1 X237.555 Y183.45 E26.94028
G1 X237.555 Y216.55 E28.60148
G1 X237.171 Y216.55 E28.62071
G1 X237.171 Y183.45 E30.2819
G1 X236.788 Y183.45 E30.30114
G1 X236.788 Y187.742 E30.51654
G1 X236.405 Y186.611 E30.57645
G1 X236.405 Y183.45 E30.73512
G1 X236.022 Y183.45 E30.75436
G1 X236.022 Y185.635 E30.86404
G1 X235.639 Y184.689 E30.91525
G1 X235.639 Y183.45 E30.97747
G1 X235.255 Y183.45 E30.9967
G1 X235.255 Y184.221 E31.03541
G1 E29.03541 F2400
G92 E0
G1 Z3.35 F7800
G1 X236.788 Y216.706
G1 Z.35
G1 E2 F2400
G1 F1800
G1 X236.788 Y212.259 E2.22313
G1 X236.405 Y213.39 E2.28304
G1 X236.405 Y216.55 E2.44165
G1 X236.022 Y216.55 E2.46088
G1 X236.022 Y214.366 E2.5705
G1 X235.639 Y215.312 E2.62171
G1 X235.639 Y216.55 E2.68387
G1 X235.255 Y216.55 E2.7031
G1 X235.255 Y215.78 E2.74175
G1 X236.788 Y210.926 F7800
G1 F1800
G1 X236.788 Y189.345 E3.82484
G1 X236.717 Y189.446 E3.83104
G1 X236.405 Y189.446 E3.84671
G1 X236.405 Y210.555 E4.90609
G1 X236.022 Y210.555 E4.92532
G1 X236.022 Y189.446 E5.98471
G1 X235.639 Y189.446 E6.00394
G1 X235.639 Y210.555 E7.06332
G1 X235.255 Y210.555 E7.08256
G1 X235.255 Y189.446 E8.14194
G1 X234.872 Y189.446 E8.16117
G1 X234.872 Y210.555 E9.22056
G1 X234.489 Y210.555 E9.23979
G1 X234.489 Y189.446 E10.29917
G1 X234.106 Y189.446 E10.31841
G1 X234.106 Y210.555 E11.37779
G1 X233.722 Y210.555 E11.39702
G1 X233.722 Y189.446 E12.45641
G1 X233.339 Y189.446 E12.47564
G1 X233.339 Y210.555 E13.53502
G1 X232.956 Y210.555 E13.55425
G1 X232.956 Y189.446 E14.61364
G1 X232.573 Y189.446 E14.63287
G1 X232.573 Y210.555 E15.69226
G1 X232.19 Y210.555 E15.71149
G1 X232.19 Y189.446 E16.77087
G1 X231.806 Y189.446 E16.7901
G1 X231.806 Y210.555 E17.84949
G1 X231.423 Y210.555 E17.86872
G1 X231.423 Y189.446 E18.9281
G1 X231.04 Y189.446 E18.94734
G1 X231.04 Y210.555 E20.00672
G1 X230.657 Y210.555 E20.02595
G1 X230.657 Y189.446 E21.08534
G1 X230.274 Y189.446 E21.10457
G1 X230.274 Y210.555 E22.16395
G1 X229.89 Y210.555 E22.18318
G1 X229.89 Y189.446 E23.24257
G1 X229.507 Y189.446 E23.2618
G1 X229.507 Y210.555 E24.32119
G1 X229.124 Y210.555 E24.34042
G1 X229.124 Y189.446 E25.3998
G1 X228.741 Y189.446 E25.41903
G1 X228.741 Y210.555 E26.47842
G1 X228.641 Y210.555 E26.4834
G1 X228.358 Y210.744 E26.50051
G1 X228.358 Y189.257 E27.57882
G1 X228.267 Y189.197 E27.5843
G1 X227.974 Y188.502 E27.62214
G1 X227.974 Y211.499 E28.77627
G1 X227.591 Y212.411 E28.82589
G1 X227.591 Y187.591 E30.07149
G1 X227.208 Y186.792 E30.11595
G1 X227.208 Y213.209 E31.44171
G1 X226.825 Y213.981 E31.48494
G1 X226.825 Y186.021 E32.88812
G1 X226.441 Y185.316 E32.92839
G1 X226.441 Y214.686 E34.40234
G1 X226.058 Y215.36 E34.44126
G1 X226.058 Y184.642 E35.98288
G1 X225.675 Y184.013 E36.01981
G1 X225.675 Y215.988 E37.62447
G1 X225.292 Y216.593 E37.66043
G1 X225.292 Y183.408 E39.32585
G1 X224.909 Y182.845 E39.36003
G1 X224.909 Y217.156 E41.08196
G1 X224.525 Y217.712 E41.11582
G1 X224.525 Y182.29 E42.8935
G1 X224.142 Y181.783 E42.92538
G1 X224.142 Y218.218 E44.75392
G1 X223.759 Y218.725 E44.7858
G1 X223.759 Y181.276 E46.66518
G1 X223.376 Y180.807 E46.69558
G1 X223.376 Y219.194 E48.62207
G1 X222.993 Y219.651 E48.65201
G1 X222.993 Y180.35 E50.6244
G1 X222.609 Y179.902 E50.65396
G1 X222.609 Y220.099 E52.67125
G1 X222.226 Y220.512 E52.69955
G1 X222.226 Y202.949 E53.58098
G1 X221.843 Y202.949 E53.60021
G1 X221.843 Y220.926 E54.5024
G1 X221.46 Y221.318 E54.52991
G1 X221.46 Y202.949 E55.45177
G1 X221.077 Y202.949 E55.471
G1 X221.077 Y221.692 E56.41164
G1 X220.693 Y222.066 E56.43852
G1 X220.693 Y202.949 E57.39794
G1 X220.31 Y202.949 E57.41717
G1 X220.31 Y222.414 E58.39406
G1 X219.927 Y222.753 E58.41972
G1 X219.927 Y202.949 E59.4136
G1 X219.663 Y202.949 E59.42686
G1 X219.663 Y208.52 E59.70646
G1 X219.544 Y208.52 E59.71243
G1 X219.544 Y223.091 E60.4437
G1 X219.16 Y223.405 E60.46854
G1 X219.16 Y208.52 E61.21553
G1 X218.777 Y208.52 E61.23476
G1 X218.777 Y223.711 E61.9971
G1 X218.394 Y224.016 E62.02171
G1 X218.394 Y208.52 E62.79941
G1 X218.011 Y208.52 E62.81864
G1 X218.011 Y224.301 E63.61063
G1 X217.628 Y224.577 E63.63432
G1 X217.628 Y208.52 E64.44016
G1 X217.244 Y208.52 E64.45939
G1 X217.244 Y224.853 E65.27906
G1 X216.861 Y225.115 E65.30235
G1 X216.861 Y214.091 E65.85556
G1 X216.478 Y214.091 E65.87479
G1 X216.478 Y225.362 E66.44043
G1 X216.095 Y225.61 E66.46333
G1 X216.095 Y214.091 E67.0414
G1 X215.712 Y214.091 E67.06064
G1 X215.712 Y225.853 E67.65089
G1 X215.328 Y226.074 E67.6731
G1 X215.328 Y214.091 E68.27446
G1 X214.945 Y214.091 E68.2937
G1 X214.945 Y226.296 E68.90618
G1 X214.562 Y226.517 E68.92839
G1 X214.562 Y214.091 E69.55198
G1 X214.179 Y214.091 E69.57121
G1 X214.179 Y226.719 E70.20494
G1 X213.796 Y226.916 E70.22656
G1 X213.796 Y216.877 E70.73036
G1 X213.412 Y216.877 E70.74959
G1 X213.412 Y227.112 E71.26326
G1 X213.029 Y227.302 E71.28473
G1 X213.029 Y216.877 E71.80794
G1 X212.646 Y216.877 E71.82717
G1 X212.646 Y227.476 E72.35906
G1 X212.263 Y227.649 E72.38017
G1 X212.263 Y216.877 E72.92075
G1 X211.88 Y216.877 E72.93998
G1 X211.88 Y227.822 E73.48924
G1 X211.759 Y227.876 E73.49585
G1 X211.496 Y227.979 E73.51004
G1 X211.496 Y216.877 E74.06721
G1 X211.113 Y216.877 E74.08645
G1 X211.113 Y228.13 E74.65117
G1 X210.73 Y228.28 E74.67183
G1 X210.73 Y216.877 E75.24412
G1 X210.347 Y216.877 E75.26335
G1 X210.347 Y228.43 E75.84316
G1 X209.963 Y228.559 E75.86345
G1 X209.963 Y216.877 E76.44973
G1 X209.58 Y216.877 E76.46896
G1 X209.58 Y228.688 E77.06171
G1 X209.197 Y228.817 E77.082
G1 X209.197 Y216.877 E77.68121
G1 X208.814 Y216.877 E77.70044
G1 X208.814 Y228.94 E78.30582
G1 X208.431 Y229.048 E78.3258
G1 X208.431 Y219.663 E78.7968
G1 X208.047 Y219.663 E78.81603
G1 X208.047 Y229.156 E79.29244
G1 X207.664 Y229.263 E79.31242
G1 X207.664 Y219.663 E79.79424
G1 X207.281 Y219.663 E79.81348
G1 X207.281 Y229.361 E80.30021
G1 X206.898 Y229.449 E80.31994
G1 X206.898 Y219.663 E80.81107
G1 X206.515 Y219.663 E80.8303
G1 X206.515 Y229.536 E81.32582
G1 X206.131 Y229.624 E81.34555
G1 X206.131 Y219.663 E81.84546
G1 X205.748 Y219.663 E81.8647
G1 X205.748 Y229.698 E82.36835
G1 X205.365 Y229.766 E82.38788
G1 X205.365 Y219.663 E82.89493
G1 X204.982 Y219.663 E82.91416
G1 X204.982 Y229.834 E83.4246
G1 X204.599 Y229.901 E83.44413
G1 X204.599 Y219.663 E83.95797
G1 X204.215 Y219.663 E83.9772
G1 X204.215 Y229.954 E84.49367
G1 X203.832 Y230.002 E84.51305
G1 X203.832 Y219.663 E85.03193
G1 X203.449 Y219.663 E85.05116
G1 X203.449 Y230.05 E85.57246
G1 X203.066 Y230.098 E85.59184
G1 X203.066 Y219.663 E86.11554
G1 X202.949 Y219.663 E86.1214
G1 X202.949 Y222.448 E86.2612
G1 X202.682 Y222.448 E86.27457
G1 X202.682 Y230.129 E86.66005
G1 X202.299 Y230.158 E86.67934
G1 X202.299 Y222.448 E87.06626
G1 X201.916 Y222.448 E87.08549
G1 X201.916 Y230.187 E87.47386
G1 X201.533 Y230.216 E87.49314
G1 X201.533 Y222.448 E87.88295
G1 X201.15 Y222.448 E87.90218
G1 X201.15 Y230.226 E88.29253
G1 X200.766 Y230.236 E88.31177
G1 X200.766 Y222.448 E88.70259
