; generated by PrusaSlicer 2.5.0 on 2022-10-12 at 23:34:59 UTC

; 

; external perimeters extrusion width = 0.45mm
; perimeters extrusion width = 0.45mm
; infill extrusion width = 0.45mm
; solid infill extrusion width = 0.45mm
; top infill extrusion width = 0.40mm
; support material extrusion width = 0.35mm
; first layer extrusion width = 0.42mm

M107
M190 S60 ; set bed temperature and wait for it to be reached
M104 S215 ; set temperature
;TYPE:Custom
G28 ; home all axes
G1 Z5 F5000 ; lift nozzle
M109 S215 ; set temperature and wait for it to be reached
G21 ; set units to millimeters
G90 ; use absolute coordinates
M82 ; use absolute distances for extrusion
G92 E0
; Filament gcode
M107
;LAYER_CHANGE
;Z:0.35
;HEIGHT:0.35
G1 Z.35 F7800
G1 E-2 F2400
G92 E0
G1 Z3.35 F7800
G1 X163.441 Y162.805
G1 Z.35
G1 E2 F2400
;TYPE:Skirt/Brim
;WIDTH:0.42
G1 F1800
G1 X165.494 Y160.892 E2.14085
G1 X167.195 Y159.455 E2.25258
G1 X169.417 Y157.753 E2.39303
G1 X171.251 Y156.485 E2.50493
G1 X172.752 Y155.532 E2.59418
G1 X175.637 Y153.885 E2.7609
G1 X178.637 Y152.423 E2.92838
G1 X180.274 Y151.719 E3.01781
G1 X183.285 Y150.598 E3.17905
G1 X185 Y150.047 E3.26945
G1 X188.134 Y149.214 E3.4322
G1 X190.001 Y148.813 E3.52804
G1 X193.092 Y148.306 E3.68522
G1 X195.039 Y148.081 E3.78356
G1 X198.25 Y147.874 E3.94504
G1 X200.369 Y147.847 E4.05143
G1 X203.269 Y147.948 E4.19706
G1 X205.365 Y148.122 E4.3026
G1 X207.25 Y148.354 E4.39789
G1 X210.498 Y148.912 E4.56332
G1 X213.756 Y149.694 E4.73145
G1 X215.447 Y150.184 E4.81978
G1 X218.496 Y151.236 E4.98165
G1 X220.287 Y151.95 E5.07843
G1 X223.255 Y153.315 E5.24239
G1 X225.097 Y154.277 E5.34669
G1 X229.137 Y156.742 E5.58419
G1 X231.758 Y158.628 E5.74625
G1 X233.543 Y160.06 E5.8611
G1 X235.446 Y161.743 E5.98859
G1 X237.137 Y163.38 E6.10671
G1 X238.395 Y164.704 E6.19838
G1 X240.536 Y167.181 E6.36266
G1 X242.566 Y169.864 E6.53152
G1 X243.571 Y171.332 E6.6208
G1 X245.246 Y174.06 E6.78146
G1 X246.115 Y175.638 E6.87185
G1 X247.607 Y178.695 E7.04257
G1 X248.4 Y180.565 E7.14451
G1 X249.432 Y183.364 E7.2942
G1 X249.968 Y185.05 E7.38301
G1 X250.8 Y188.184 E7.54575
G1 X251.206 Y190.098 E7.64393
G1 X251.654 Y192.808 E7.7818
G1 X251.93 Y195.146 E7.89995
G1 X252.073 Y197.09 E7.99777
G1 X252.156 Y200.349 E8.16137
G1 X252.112 Y202.106 E8.24955
G1 X251.884 Y205.336 E8.41206
G1 X251.683 Y207.019 E8.49713
G1 X251.104 Y210.419 E8.67022
G1 X250.313 Y213.749 E8.84197
G1 X249.737 Y215.71 E8.94456
G1 X248.122 Y220.117 E9.18015
G1 X246.862 Y222.892 E9.33306
G1 X245.859 Y224.845 E9.44323
G1 X244.642 Y226.966 E9.56596
G1 X243.226 Y229.187 E9.69816
G1 X242.135 Y230.74 E9.79341
G1 X240.173 Y233.264 E9.95385
G1 X238.989 Y234.644 E10.0451
G1 X236.619 Y237.141 E10.21785
G1 X234.675 Y238.958 E10.35141
G1 X232.896 Y240.473 E10.46868
G1 X230.31 Y242.443 E10.63184
G1 X228.807 Y243.48 E10.72348
G1 X226.065 Y245.175 E10.88523
G1 X224.431 Y246.082 E10.97903
G1 X221.689 Y247.431 E11.13241
G1 X219.589 Y248.338 E11.24719
G1 X217.075 Y249.279 E11.3819
G1 X214.787 Y250.016 E11.50255
G1 X212.434 Y250.65 E11.62483
G1 X209.821 Y251.224 E11.75909
G1 X208.123 Y251.521 E11.84565
G1 X204.719 Y251.944 E12.01775
G1 X201.419 Y252.135 E12.18365
G1 X199.134 Y252.151 E12.29834
G1 X196.478 Y252.035 E12.43175
G1 X194.078 Y251.821 E12.55268
G1 X189.506 Y251.09 E12.78503
G1 X186.562 Y250.389 E12.93692
G1 X184.17 Y249.691 E13.06198
G1 X181.586 Y248.795 E13.19924
G1 X179.373 Y247.898 E13.31905
G1 X177.147 Y246.88 E13.44191
G1 X174.7 Y245.606 E13.58034
G1 X172.489 Y244.307 E13.70908
G1 X170.187 Y242.794 E13.84731
G1 X168.243 Y241.366 E13.96837
G1 X166.158 Y239.684 E14.1028
G1 X164.352 Y238.069 E14.22441
G1 X162.468 Y236.214 E14.35707
G1 X160.835 Y234.44 E14.47808
G1 X158.87 Y232.068 E14.63268
G1 X157.212 Y229.815 E14.77307
G1 X156.064 Y228.099 E14.87666
G1 X154.771 Y225.975 E15.00145
G1 X153.421 Y223.467 E15.14443
G1 X152.383 Y221.282 E15.26579
G1 X151.327 Y218.743 E15.4038
G1 X150.555 Y216.602 E15.51805
G1 X149.79 Y214.102 E15.64922
G1 X149.233 Y211.961 E15.76026
G1 X148.737 Y209.609 E15.88091
G1 X148.305 Y206.923 E16.01744
G1 X148.058 Y204.695 E16.12993
G1 X147.865 Y201.32 E16.29957
G1 X147.851 Y199.274 E16.40224
G1 X147.966 Y196.434 E16.54489
G1 X148.22 Y193.741 E16.68063
G1 X148.924 Y189.449 E16.89894
G1 X149.553 Y186.765 E17.03726
G1 X150.2 Y184.511 E17.15498
G1 X151.285 Y181.375 E17.3215
G1 X152.056 Y179.477 E17.42432
G1 X153.265 Y176.853 E17.5693
G1 X154.173 Y175.104 E17.66822
G1 X155.778 Y172.347 E17.82829
G1 X156.954 Y170.548 E17.93616
G1 X158.642 Y168.224 E18.08033
G1 X160.15 Y166.356 E18.20082
G1 X161.891 Y164.394 E18.33244
G1 X163.399 Y162.848 E18.44084
G1 E16.44084 F2400
G92 E0
G1 Z3.35 F7800
G1 X199.773 Y154.191
G1 Z.35
G1 E2 F2400
;TYPE:Support material
G1 F1800
G1 X201.074 Y154.204 E2.06528
G1 X202.811 Y154.278 E2.15254
G1 X204.695 Y154.431 E2.24739
G1 X206.271 Y154.623 E2.32711
G1 X207.945 Y154.884 E2.41213
G1 X209.119 Y155.106 E2.47207
G1 X210.606 Y155.436 E2.54852
G1 X212.178 Y155.839 E2.62999
G1 X213.456 Y156.21 E2.69677
G1 X214.709 Y156.615 E2.76286
G1 X216.318 Y157.195 E2.84866
G1 X217.749 Y157.766 E2.926
G1 X218.805 Y158.226 E2.98379
G1 X220.508 Y159.035 E3.07839
G1 X222.102 Y159.871 E3.16875
G1 X222.725 Y160.222 E3.20465
G1 X224.348 Y161.194 E3.29959
G1 X225.561 Y161.983 E3.37223
G1 X226.437 Y162.585 E3.42553
G1 X227.956 Y163.708 E3.52037
G1 X229.51 Y164.958 E3.62046
G1 X230.192 Y165.544 E3.66558
G1 X231.173 Y166.434 E3.73203
G1 X232.549 Y167.764 E3.82809
G1 X233.659 Y168.927 E3.90876
G1 X234.786 Y170.19 E3.99373
G1 X235.537 Y171.09 E4.05256
G1 X236.488 Y172.303 E4.12991
G1 X237.445 Y173.611 E4.21124
G1 X238.232 Y174.76 E4.28114
G1 X238.908 Y175.816 E4.34404
G1 X239.781 Y177.283 E4.4297
G1 X240.483 Y178.559 E4.5028
G1 X241.075 Y179.708 E4.56769
G1 X241.853 Y181.369 E4.65974
G1 X242.382 Y182.61 E4.72745
G1 X242.809 Y183.686 E4.78552
G1 X243.394 Y185.319 E4.87259
G1 X243.877 Y186.828 E4.95212
G1 X244.177 Y187.865 E5.00627
G1 X244.604 Y189.557 E5.09385
G1 X244.973 Y191.28 E5.18229
G1 X245.209 Y192.61 E5.25008
G1 X245.374 Y193.711 E5.30596
G1 X245.612 Y195.726 E5.40775
G1 X245.733 Y197.348 E5.48938
G1 X245.798 Y198.958 E5.57025
G1 X245.812 Y200.193 E5.63223
G1 X245.777 Y201.752 E5.71048
G1 X245.686 Y203.369 E5.79179
G1 X245.567 Y204.741 E5.86088
G1 X245.412 Y206.056 E5.92733
G1 X245.132 Y207.874 E6.01964
G1 X244.897 Y209.103 E6.08245
G1 X244.622 Y210.387 E6.14834
G1 X244.169 Y212.163 E6.24035
G1 X243.669 Y213.855 E6.32886
G1 X243.17 Y215.327 E6.40688
G1 X242.8 Y216.34 E6.46101
G1 X242.276 Y217.649 E6.53177
G1 X241.708 Y218.954 E6.60322
G1 X241.138 Y220.155 E6.66993
G1 X240.29 Y221.805 E6.76301
G1 X239.768 Y222.742 E6.81685
G1 X239.226 Y223.66 E6.87037
G1 X238.721 Y224.479 E6.91861
G1 X237.974 Y225.627 E6.98738
G1 X237.075 Y226.912 E7.06606
G1 X236.056 Y228.259 E7.15084
G1 X235.295 Y229.207 E7.21187
G1 X234.322 Y230.346 E7.287
G1 X233.169 Y231.597 E7.37242
G1 X232.218 Y232.571 E7.4407
G1 X231.251 Y233.501 E7.50806
G1 X230.432 Y234.24 E7.56344
G1 X228.934 Y235.517 E7.66221
G1 X227.89 Y236.347 E7.72915
G1 X226.413 Y237.433 E7.82113
G1 X225.33 Y238.172 E7.88694
G1 X224.237 Y238.872 E7.95208
G1 X222.837 Y239.713 E8.03405
G1 X221.483 Y240.464 E8.11176
G1 X219.758 Y241.33 E8.20863
G1 X218.734 Y241.803 E8.26523
G1 X217.309 Y242.416 E8.34309
G1 X215.9 Y242.962 E8.41889
G1 X215.049 Y243.266 E8.46425
G1 X213.874 Y243.662 E8.52649
G1 X213.09 Y243.902 E8.56764
G1 X210.942 Y244.483 E8.67934
G1 X209.581 Y244.8 E8.74943
G1 X208.743 Y244.97 E8.79237
G1 X207.247 Y245.236 E8.86863
G1 X205.56 Y245.472 E8.9541
G1 X204.222 Y245.618 E9.02165
G1 X202.866 Y245.724 E9.08993
G1 X201.155 Y245.795 E9.17587
G1 X199.809 Y245.811 E9.2434
G1 X198.281 Y245.781 E9.3201
G1 X197.735 Y245.753 E9.34752
G1 X196.649 Y245.686 E9.40214
G1 X195.331 Y245.573 E9.46851
G1 X193.361 Y245.325 E9.5682
G1 X192.242 Y245.147 E9.62505
G1 X190.896 Y244.899 E9.69376
G1 X189.12 Y244.498 E9.78512
G1 X187.303 Y244.012 E9.87952
G1 X186.536 Y243.78 E9.9197
G1 X184.779 Y243.205 E10.01247
G1 X183.767 Y242.837 E10.06653
G1 X182.516 Y242.344 E10.13402
G1 X180.194 Y241.305 E10.26167
G1 X178.652 Y240.529 E10.34833
G1 X177.341 Y239.813 E10.42328
G1 X176.469 Y239.303 E10.47398
G1 X175.456 Y238.679 E10.53368
G1 X174.625 Y238.138 E10.58343
G1 X173.632 Y237.46 E10.64379
G1 X172.522 Y236.652 E10.71269
G1 X171.03 Y235.484 E10.80777
G1 X170.245 Y234.831 E10.85903
G1 X169.333 Y234.033 E10.91984
G1 X167.664 Y232.451 E11.03526
G1 X167.008 Y231.782 E11.08226
G1 X166.117 Y230.828 E11.14778
G1 X164.644 Y229.13 E11.26061
G1 X163.806 Y228.079 E11.32806
G1 X163.251 Y227.345 E11.37424
G1 X161.891 Y225.427 E11.49223
G1 X161.143 Y224.259 E11.56185
G1 X160.563 Y223.306 E11.61786
G1 X159.593 Y221.585 E11.71699
G1 X158.981 Y220.4 E11.78392
G1 X158.223 Y218.799 E11.87284
G1 X157.683 Y217.545 E11.94133
G1 X157.217 Y216.383 E12.00419
G1 X156.596 Y214.661 E12.09604
G1 X156.178 Y213.348 E12.1652
G1 X155.819 Y212.101 E12.23034
G1 X155.523 Y210.969 E12.28906
G1 X155.091 Y209.035 E12.38851
G1 X154.865 Y207.827 E12.45016
G1 X154.603 Y206.153 E12.53518
G1 X154.426 Y204.647 E12.61131
G1 X154.276 Y202.815 E12.70354
G1 X154.201 Y200.958 E12.7968
G1 X154.19 Y200.227 E12.8335
G1 X154.207 Y198.711 E12.90958
G1 X154.294 Y196.899 E13.00062
G1 X154.347 Y196.185 E13.03657
G1 X154.528 Y194.43 E13.12509
G1 X154.795 Y192.575 E13.21915
G1 X154.971 Y191.586 E13.26958
G1 X155.293 Y190.018 E13.34993
G1 X155.708 Y188.305 E13.43834
G1 X156.023 Y187.179 E13.49706
G1 X156.633 Y185.241 E13.59901
G1 X157.249 Y183.54 E13.68979
G1 X157.502 Y182.902 E13.72423
G1 X158.242 Y181.162 E13.81913
G1 X158.994 Y179.581 E13.90702
G1 X159.341 Y178.898 E13.94544
G1 X160.31 Y177.127 E14.04675
G1 X161.21 Y175.627 E14.13457
G1 X161.968 Y174.461 E14.20435
G1 X162.603 Y173.541 E14.26047
G1 X163.628 Y172.151 E14.34711
G1 X164.607 Y170.917 E14.4262
G1 X165.316 Y170.072 E14.48153
G1 X166.48 Y168.778 E14.56888
G1 X167.62 Y167.596 E14.65129
G1 X168.352 Y166.877 E14.70276
G1 X169.749 Y165.598 E14.79785
G1 X171.151 Y164.416 E14.88987
G1 X171.775 Y163.921 E14.92984
G1 X173.196 Y162.85 E15.01915
G1 X174.659 Y161.838 E15.10844
G1 X175.983 Y160.992 E15.18727
G1 X177.444 Y160.128 E15.27245
G1 X178.51 Y159.543 E15.33348
G1 X179.853 Y158.86 E15.40909
G1 X181.327 Y158.17 E15.49075
G1 X182.568 Y157.635 E15.5586
G1 X183.778 Y157.158 E15.62384
G1 X185.392 Y156.583 E15.70984
G1 X186.877 Y156.108 E15.78811
G1 X187.971 Y155.797 E15.84517
G1 X189.649 Y155.376 E15.93199
G1 X191.171 Y155.049 E16.01012
G1 X192.274 Y154.845 E16.06644
G1 X193.996 Y154.586 E16.15382
G1 X195.609 Y154.401 E16.23529
G1 X196.649 Y154.311 E16.28769
G1 X198.397 Y154.219 E16.37554
G1 X199.721 Y154.191 E16.442
G1 E14.442 F2400
G92 E0
G1 Z3.35 F7800
G1 X199.839 Y164.077
G1 Z.35
G1 E2 F2400
G1 F1800
G1 X198.99 Y164.084 E2.0426
G1 X197.955 Y164.127 E2.09456
G1 X196.55 Y164.238 E2.16529
G1 X195.577 Y164.343 E2.21442
G1 X194.636 Y164.472 E2.26209
G1 X193 Y164.759 E2.34545
G1 X191.257 Y165.149 E2.43506
G1 X189.484 Y165.644 E2.52745
G1 X187.917 Y166.162 E2.61028
G1 X187.014 Y166.498 E2.65864
G1 X186.1 Y166.868 E2.70813
G1 X184.829 Y167.429 E2.77789
G1 X183.754 Y167.952 E2.83787
G1 X183.47 Y168.114 E2.85427
G1 X183.023 Y168.334 E2.87928
G1 X182.053 Y168.872 E2.93492
G1 X181.316 Y169.307 E2.97791
G1 X179.899 Y170.219 E3.06246
G1 X178.843 Y170.957 E3.12713
G1 X178.027 Y171.571 E3.17836
G1 X177.139 Y172.281 E3.23542
G1 X175.644 Y173.584 E3.33492
G1 X174.617 Y174.573 E3.40651
G1 X173.937 Y175.267 E3.45526
G1 X173.298 Y175.958 E3.5025
G1 X172.273 Y177.15 E3.58139
G1 X171.117 Y178.627 E3.67554
G1 X169.977 Y180.265 E3.77565
G1 X169.185 Y181.521 E3.85016
G1 X168.229 Y183.221 E3.94807
G1 X167.608 Y184.45 E4.01717
G1 X167.11 Y185.534 E4.07703
G1 X166.781 Y186.308 E4.11925
G1 X166.091 Y188.112 E4.21618
G1 X165.57 Y189.725 E4.30124
G1 X165.336 Y190.541 E4.34383
G1 X165.039 Y191.706 E4.40419
G1 X164.753 Y193.03 E4.47217
G1 X164.425 Y194.953 E4.57004
G1 X164.257 Y196.353 E4.64083
G1 X164.106 Y198.369 E4.74229
G1 X164.075 Y200.212 E4.83478
G1 X164.097 Y201.408 E4.89485
G1 X164.236 Y203.456 E4.99783
G1 X164.479 Y205.415 E5.09691
G1 X164.724 Y206.817 E5.16834
G1 X164.911 Y207.733 E5.21525
G1 X165.133 Y208.679 E5.26403
G1 X165.598 Y210.369 E5.35198
G1 X166.147 Y212.042 E5.44034
G1 X166.873 Y213.91 E5.54093
G1 X167.404 Y215.119 E5.6072
G1 X167.869 Y216.076 E5.66059
G1 X168.396 Y217.093 E5.71807
G1 X169.287 Y218.648 E5.80802
G1 X170.136 Y219.979 E5.88725
G1 X170.494 Y220.505 E5.9192
G1 X171.136 Y221.389 E5.97403
G1 X172.193 Y222.755 E6.06067
G1 X173.079 Y223.797 E6.12935
G1 X174.488 Y225.301 E6.23274
G1 X175.459 Y226.247 E6.30081
G1 X177.015 Y227.615 E6.40476
G1 X178.542 Y228.823 E6.50249
G1 X179.942 Y229.812 E6.58851
G1 X180.803 Y230.366 E6.6399
G1 X182.069 Y231.137 E6.7143
G1 X183.253 Y231.794 E6.78226
G1 X184.637 Y232.476 E6.8597
G1 X186.211 Y233.18 E6.94618
G1 X188.23 Y233.951 E7.05465
G1 X189.447 Y234.347 E7.11888
G1 X190.925 Y234.768 E7.19603
G1 X192.787 Y235.2 E7.29196
G1 X194.313 Y235.478 E7.36978
G1 X196.362 Y235.746 E7.47351
G1 X197.588 Y235.85 E7.53525
G1 X199.74 Y235.929 E7.64335
G1 X201.655 Y235.894 E7.73944
G1 X203.559 Y235.754 E7.83526
G1 X205.201 Y235.554 E7.91828
G1 X206.154 Y235.401 E7.9667
G1 X207.111 Y235.219 E8.0156
G1 X208.738 Y234.848 E8.09936
G1 X210.413 Y234.39 E8.18651
G1 X212.441 Y233.711 E8.29382
G1 X213.655 Y233.236 E8.35926
G1 X215.036 Y232.637 E8.43478
G1 X216.945 Y231.685 E8.54185
G1 X217.785 Y231.221 E8.59002
G1 X218.692 Y230.688 E8.64282
G1 X219.866 Y229.939 E8.7127
G1 X220.672 Y229.39 E8.76166
G1 X221.454 Y228.825 E8.81004
G1 X222.751 Y227.81 E8.89273
G1 X224.166 Y226.592 E8.9864
G1 X225.574 Y225.238 E9.08444
G1 X226.554 Y224.208 E9.15582
G1 X227.202 Y223.477 E9.20481
G1 X227.982 Y222.54 E9.26601
G1 X228.545 Y221.825 E9.31168
G1 X229.101 Y221.076 E9.35851
G1 X229.971 Y219.82 E9.43517
G1 X230.984 Y218.199 E9.53112
G1 X231.727 Y216.867 E9.60762
G1 X232.31 Y215.726 E9.67192
G1 X233.191 Y213.763 E9.77995
G1 X233.566 Y212.828 E9.83047
G1 X233.907 Y211.894 E9.8804
G1 X234.343 Y210.561 E9.95078
G1 X234.616 Y209.636 E9.99918
G1 X234.858 Y208.721 E10.04666
G1 X235.248 Y206.978 E10.1363
G1 X235.551 Y205.223 E10.22568
G1 X235.771 Y203.374 E10.31913
G1 X235.881 Y201.91 E10.39284
G1 X235.931 Y199.944 E10.49149
G1 X235.904 Y198.581 E10.55995
G1 X235.836 Y197.364 E10.62112
G1 X235.764 Y196.531 E10.66309
G1 X235.503 Y194.457 E10.76798
G1 X235.229 Y192.931 E10.8458
G1 X235.054 Y192.104 E10.88821
G1 X234.771 Y190.94 E10.94831
G1 X234.396 Y189.61 E11.01766
G1 X234.097 Y188.661 E11.06759
G1 X233.798 Y187.801 E11.11328
G1 X233.253 Y186.392 E11.1891
G1 X232.496 Y184.666 E11.2837
G1 X231.704 Y183.09 E11.37219
G1 X230.816 Y181.522 E11.46266
G1 X229.811 Y179.944 E11.55654
G1 X228.973 Y178.748 E11.62983
G1 X227.759 Y177.186 E11.72911
G1 X227.023 Y176.318 E11.78623
G1 X226.393 Y175.619 E11.83346
G1 X225.321 Y174.508 E11.91092
G1 X224.351 Y173.577 E11.97842
G1 X222.762 Y172.199 E12.08399
G1 X222.119 Y171.683 E12.12534
G1 X221.164 Y170.963 E12.18537
G1 X220.022 Y170.165 E12.25527
G1 X219.2 Y169.629 E12.30455
G1 X218.384 Y169.128 E12.3526
G1 X217.119 Y168.412 E12.42555
G1 X215.352 Y167.513 E12.52503
G1 X213.587 Y166.738 E12.62176
G1 X212.131 Y166.178 E12.70006
G1 X211.229 Y165.869 E12.74793
G1 X210.3 Y165.579 E12.79677
G1 X208.945 Y165.2 E12.86738
G1 X207.904 Y164.952 E12.92105
G1 X206.772 Y164.714 E12.9791
G1 X205.043 Y164.423 E13.06711
G1 X203.4 Y164.231 E13.15015
G1 X201.924 Y164.119 E13.22443
G1 X201.073 Y164.085 E13.26715
G1 X199.89 Y164.074 E13.32652
G1 E11.32652 F2400
G92 E0
G1 Z3.35 F7800
G1 X245.219 Y206.255
G1 Z.35
G1 E2 F2400
G1 F1800
G1 X245.219 Y194.997 E2.56499
G1 X245.065 Y193.749 E2.62806
G1 X244.836 Y192.266 E2.70341
G1 X244.836 Y207.761 E3.48105
G1 X244.452 Y209.701 E3.5803
G1 X244.452 Y190.31 E4.55346
G1 X244.335 Y189.763 E4.58152
G1 X244.069 Y188.713 E4.63591
G1 X244.069 Y211.289 E5.76893
G1 X243.871 Y212.076 E5.80968
G1 X243.686 Y212.688 E5.84176
G1 X243.686 Y187.28 E7.11689
G1 X243.303 Y186.041 E7.182
G1 X243.303 Y213.97 E8.58368
G1 X242.92 Y215.094 E8.64327
G1 X242.92 Y184.92 E10.15761
G1 X242.536 Y183.844 E10.21493
