; generated by PrusaSlicer 2.5.0 on 2022-10-13 at 21:41:34 UTC

; 

; external perimeters extrusion width = 0.45mm
; perimeters extrusion width = 0.45mm
; infill extrusion width = 0.45mm
; solid infill extrusion width = 0.45mm
; top infill extrusion width = 0.40mm
; support material extrusion width = 0.35mm
; first layer extrusion width = 0.42mm

M107
M190 S60 ; set bed temperature and wait for it to be reached
M104 S215 ; set temperature
;TYPE:Custom
G28 ; home all axes
G1 Z5 F5000 ; lift nozzle
M109 S215 ; set temperature and wait for it to be reached
G21 ; set units to millimeters
G90 ; use absolute coordinates
M82 ; use absolute distances for extrusion
G92 E0
; Filament gcode
M107
;LAYER_CHANGE
;Z:0.35
;HEIGHT:0.35
G1 Z.35 F7800
G1 E-2 F2400
G92 E0
G1 Z3.35 F7800
G1 X161.363 Y161.363
G1 Z.35
G1 E2 F2400
;TYPE:Skirt/Brim
;WIDTH:0.42
G1 F1800
G1 X166.359 Y156.368 E2.35456
G1 X168.008 Y155.179 E2.45657
G1 X179.15 Y149.608 E3.08177
G1 X179.981 Y149.264 E3.12691
G1 X188.338 Y146.478 E3.569
G1 X190.345 Y146.152 E3.67101
G1 X209.655 Y146.152 E4.64013
G1 X211.662 Y146.478 E4.74214
G1 X220.019 Y149.264 E5.18422
G1 X220.85 Y149.608 E5.22937
G1 X231.992 Y155.179 E5.85457
G1 X233.641 Y156.368 E5.95658
G1 X243.632 Y166.359 E6.66569
G1 X244.821 Y168.008 E6.7677
G1 X250.392 Y179.15 E7.3929
G1 X250.736 Y179.981 E7.43805
G1 X253.522 Y188.338 E7.88013
G1 X253.848 Y190.345 E7.98214
G1 X253.848 Y209.655 E8.95127
G1 X253.522 Y211.662 E9.05328
G1 X250.736 Y220.019 E9.49536
G1 X250.392 Y220.85 E9.54051
G1 X244.821 Y231.992 E10.16571
G1 X243.632 Y233.641 E10.26772
G1 X233.641 Y243.632 E10.97683
G1 X231.992 Y244.821 E11.07884
G1 X220.85 Y250.392 E11.70404
G1 X220.019 Y250.736 E11.74919
G1 X211.662 Y253.522 E12.19127
G1 X209.655 Y253.848 E12.29328
G1 X190.345 Y253.848 E13.2624
G1 X188.338 Y253.522 E13.36442
G1 X179.981 Y250.736 E13.8065
G1 X179.15 Y250.392 E13.85164
G1 X168.008 Y244.821 E14.47684
G1 X166.359 Y243.632 E14.57886
G1 X156.368 Y233.641 E15.28797
G1 X155.179 Y231.992 E15.38998
G1 X149.608 Y220.85 E16.01518
G1 X149.264 Y220.019 E16.06032
G1 X146.478 Y211.662 E16.50241
G1 X146.152 Y209.655 E16.60442
G1 X146.152 Y190.345 E17.57354
G1 X146.478 Y188.338 E17.67555
G1 X149.264 Y179.981 E18.11764
G1 X149.608 Y179.15 E18.16278
G1 X155.179 Y168.008 E18.78798
G1 X156.368 Y166.359 E18.88999
G1 X161.321 Y161.406 E19.24154
G1 E17.24154 F2400
G92 E0
G1 Z3.35 F7800
G1 X211.29 Y154.132
G1 Z.35
G1 E2 F2400
;TYPE:Support material
G1 F1800
G1 X211.29 Y155.283 E2.05778
G1 X218.012 Y155.283 E2.39515
G1 X219.647 Y156.917 E2.51115
G1 X219.647 Y158.069 E2.56893
G1 X223.583 Y158.069 E2.7665
G1 X225.218 Y159.703 E2.8825
G1 X225.218 Y160.854 E2.94028
G1 X229.155 Y160.854 E3.13785
G1 X230.789 Y162.488 E3.25385
G1 X230.789 Y163.64 E3.31163
G1 X231.94 Y163.64 E3.3694
G1 X233.575 Y165.274 E3.4854
G1 X233.575 Y166.425 E3.54318
G1 X234.726 Y166.425 E3.60095
G1 X236.36 Y168.06 E3.71695
G1 X236.36 Y169.211 E3.77473
G1 X237.512 Y169.211 E3.83251
G1 X239.146 Y170.845 E3.9485
G1 X239.146 Y174.782 E4.14608
G1 X240.297 Y174.782 E4.20385
G1 X241.931 Y176.417 E4.31985
G1 X241.931 Y180.353 E4.51743
G1 X243.083 Y180.353 E4.5752
G1 X244.717 Y181.988 E4.6912
G1 X244.717 Y188.71 E5.02858
G1 X245.868 Y188.71 E5.08635
G1 X247.503 Y190.345 E5.20235
G1 X247.503 Y209.655 E6.17147
G1 X245.868 Y211.29 E6.28747
G1 X244.717 Y211.29 E6.34524
G1 X244.717 Y218.012 E6.68262
G1 X243.083 Y219.647 E6.79862
G1 X241.931 Y219.647 E6.85639
G1 X241.931 Y223.583 E7.05397
G1 X240.297 Y225.218 E7.16996
G1 X239.146 Y225.218 E7.22774
G1 X239.146 Y229.155 E7.42532
G1 X237.512 Y230.789 E7.54131
G1 X236.36 Y230.789 E7.59909
G1 X236.36 Y231.94 E7.65687
G1 X234.726 Y233.575 E7.77287
G1 X233.575 Y233.575 E7.83064
G1 X233.575 Y234.726 E7.88842
G1 X231.94 Y236.36 E8.00442
G1 X230.789 Y236.36 E8.06219
G1 X230.789 Y237.512 E8.11997
G1 X229.155 Y239.146 E8.23597
G1 X225.218 Y239.146 E8.43354
G1 X225.218 Y240.297 E8.49132
G1 X223.583 Y241.931 E8.60732
G1 X219.647 Y241.931 E8.80489
G1 X219.647 Y243.083 E8.86267
G1 X218.012 Y244.717 E8.97867
G1 X211.29 Y244.717 E9.31604
G1 X211.29 Y245.868 E9.37382
G1 X209.655 Y247.503 E9.48981
G1 X190.345 Y247.503 E10.45894
G1 X188.71 Y245.868 E10.57493
G1 X188.71 Y244.717 E10.63271
G1 X181.988 Y244.717 E10.97009
G1 X180.353 Y243.083 E11.08608
G1 X180.353 Y241.931 E11.14386
G1 X176.417 Y241.931 E11.34144
G1 X174.782 Y240.297 E11.45743
G1 X174.782 Y239.146 E11.51521
G1 X170.845 Y239.146 E11.71279
G1 X169.211 Y237.512 E11.82878
G1 X169.211 Y236.36 E11.88656
G1 X168.06 Y236.36 E11.94434
G1 X166.425 Y234.726 E12.06033
G1 X166.425 Y233.575 E12.11811
G1 X165.274 Y233.575 E12.17589
G1 X163.64 Y231.94 E12.29188
G1 X163.64 Y230.789 E12.34966
G1 X162.488 Y230.789 E12.40744
G1 X160.854 Y229.155 E12.52343
G1 X160.854 Y225.218 E12.72101
G1 X159.703 Y225.218 E12.77879
G1 X158.069 Y223.583 E12.89478
G1 X158.069 Y219.647 E13.09236
G1 X156.917 Y219.647 E13.15014
G1 X155.283 Y218.012 E13.26613
G1 X155.283 Y211.29 E13.60351
G1 X154.132 Y211.29 E13.66129
G1 X152.497 Y209.655 E13.77728
G1 X152.497 Y190.345 E14.7464
G1 X154.132 Y188.71 E14.8624
G1 X155.283 Y188.71 E14.92018
G1 X155.283 Y181.988 E15.25755
G1 X156.917 Y180.353 E15.37355
G1 X158.069 Y180.353 E15.43133
G1 X158.069 Y176.417 E15.6289
G1 X159.703 Y174.782 E15.7449
G1 X160.854 Y174.782 E15.80268
G1 X160.854 Y170.845 E16.00025
G1 X162.488 Y169.211 E16.11625
G1 X163.64 Y169.211 E16.17403
G1 X163.64 Y168.06 E16.2318
G1 X165.274 Y166.425 E16.3478
G1 X166.425 Y166.425 E16.40558
G1 X166.425 Y165.274 E16.46335
G1 X168.06 Y163.64 E16.57935
G1 X169.211 Y163.64 E16.63713
G1 X169.211 Y162.488 E16.6949
G1 X170.845 Y160.854 E16.8109
G1 X174.782 Y160.854 E17.00848
G1 X174.782 Y159.703 E17.06625
G1 X176.417 Y158.069 E17.18225
G1 X180.353 Y158.069 E17.37983
G1 X180.353 Y156.917 E17.4376
G1 X181.988 Y155.283 E17.5536
G1 X188.71 Y155.283 E17.89098
G1 X188.71 Y154.132 E17.94875
G1 X190.345 Y152.497 E18.06475
G1 X209.655 Y152.497 E19.03387
G1 X211.253 Y154.095 E19.14727
G1 E17.14727 F2400
G92 E0
G1 Z3.35 F7800
G1 X191.79 Y166.72
G1 Z.35
G1 E2 F2400
G1 F1800
G1 X191.79 Y167.871 E2.05778
G1 X190.156 Y169.505 E2.17377
G1 X186.219 Y169.505 E2.37135
G1 X186.219 Y170.657 E2.42913
G1 X184.585 Y172.291 E2.54512
G1 X180.648 Y172.291 E2.7427
G1 X180.648 Y173.442 E2.80048
G1 X179.014 Y175.077 E2.91647
G1 X177.862 Y175.077 E2.97425
G1 X177.862 Y176.228 E3.03203
G1 X176.228 Y177.862 E3.14802
G1 X175.077 Y177.862 E3.2058
G1 X175.077 Y179.014 E3.26358
G1 X173.442 Y180.648 E3.37957
G1 X172.291 Y180.648 E3.43735
G1 X172.291 Y184.585 E3.63493
G1 X170.657 Y186.219 E3.75092
G1 X169.505 Y186.219 E3.8087
G1 X169.505 Y190.156 E4.00628
G1 X167.871 Y191.79 E4.12227
G1 X166.72 Y191.79 E4.18005
G1 X166.72 Y208.21 E5.00407
G1 X167.871 Y208.21 E5.06185
G1 X169.505 Y209.844 E5.17784
G1 X169.505 Y213.781 E5.37542
G1 X170.657 Y213.781 E5.4332
G1 X172.291 Y215.415 E5.54919
G1 X172.291 Y219.352 E5.74677
G1 X173.442 Y219.352 E5.80455
G1 X175.077 Y220.986 E5.92054
G1 X175.077 Y222.138 E5.97832
G1 X176.228 Y222.138 E6.0361
G1 X177.862 Y223.772 E6.15209
G1 X177.862 Y224.923 E6.20987
G1 X179.014 Y224.923 E6.26765
G1 X180.648 Y226.558 E6.38364
G1 X180.648 Y227.709 E6.44142
G1 X184.585 Y227.709 E6.639
G1 X186.219 Y229.343 E6.75499
G1 X186.219 Y230.495 E6.81277
G1 X190.156 Y230.495 E7.01035
G1 X191.79 Y232.129 E7.12634
G1 X191.79 Y233.28 E7.18412
G1 X208.21 Y233.28 E8.00814
G1 X208.21 Y232.129 E8.06592
G1 X209.844 Y230.495 E8.18191
G1 X213.781 Y230.495 E8.37949
G1 X213.781 Y229.343 E8.43727
G1 X215.415 Y227.709 E8.55326
G1 X219.352 Y227.709 E8.75084
G1 X219.352 Y226.558 E8.80862
G1 X220.986 Y224.923 E8.92461
G1 X222.138 Y224.923 E8.98239
G1 X222.138 Y223.772 E9.04017
G1 X223.772 Y222.138 E9.15616
G1 X224.923 Y222.138 E9.21394
G1 X224.923 Y220.986 E9.27172
G1 X226.558 Y219.352 E9.38772
G1 X227.709 Y219.352 E9.44549
G1 X227.709 Y215.415 E9.64307
G1 X229.343 Y213.781 E9.75907
G1 X230.495 Y213.781 E9.81684
G1 X230.495 Y209.844 E10.01442
G1 X232.129 Y208.21 E10.13042
G1 X233.28 Y208.21 E10.18819
G1 X233.28 Y191.79 E11.01221
G1 X232.129 Y191.79 E11.06999
G1 X230.495 Y190.156 E11.18599
G1 X230.495 Y186.219 E11.38356
G1 X229.343 Y186.219 E11.44134
G1 X227.709 Y184.585 E11.55733
G1 X227.709 Y180.648 E11.75491
G1 X226.558 Y180.648 E11.81269
G1 X224.923 Y179.014 E11.92868
G1 X224.923 Y177.862 E11.98646
G1 X223.772 Y177.862 E12.04424
G1 X222.138 Y176.228 E12.16024
G1 X222.138 Y175.077 E12.21801
G1 X220.986 Y175.077 E12.27579
G1 X219.352 Y173.442 E12.39179
G1 X219.352 Y172.291 E12.44956
G1 X215.415 Y172.291 E12.64714
G1 X213.781 Y170.657 E12.76314
G1 X213.781 Y169.505 E12.82091
G1 X209.844 Y169.505 E13.01849
G1 X208.21 Y167.871 E13.13449
G1 X208.21 Y166.72 E13.19226
G1 X191.842 Y166.72 E14.01369
G1 E12.01369 F2400
G92 E0
G1 Z3.35 F7800
G1 X209.804 Y152.865
G1 Z.35
G1 E2 F2400
G1 F1800
G1 X190.416 Y152.865 E2.973
G1 X190.033 Y153.248 E3.0002
G1 X209.967 Y153.248 E4.00065
G1 X210.351 Y153.632 E4.02785
G1 X189.649 Y153.632 E5.06677
G1 X189.266 Y154.015 E5.09396
G1 X210.734 Y154.015 E6.17134
G1 X210.979 Y154.26 E6.18876
G1 X210.979 Y154.398 E6.19568
G1 X189.021 Y154.398 E7.29769
G1 X189.021 Y154.781 E7.31692
G1 X210.979 Y154.781 E8.41893
G1 X210.979 Y155.164 E8.43816
G1 X189.021 Y155.164 E9.54017
G1 X189.021 Y155.548 E9.5594
G1 X210.979 Y155.548 E10.66141
G1 X210.979 Y155.593 E10.6637
G1 X217.884 Y155.593 E11.0102
G1 X218.221 Y155.931 E11.03416
G1 X181.779 Y155.931 E12.86305
G1 X181.396 Y156.314 E12.89025
G1 X218.604 Y156.314 E14.7576
G1 X218.988 Y156.697 E14.7848
G1 X181.012 Y156.697 E16.69062
G1 X180.664 Y157.046 E16.71536
G1 X180.664 Y157.08 E16.7171
G1 X219.336 Y157.08 E18.6579
G1 X219.336 Y157.464 E18.67713
G1 X180.664 Y157.464 E20.61793
G1 X180.664 Y157.847 E20.63717
G1 X219.336 Y157.847 E22.57797
G1 X219.336 Y158.23 E22.5972
G1 X180.664 Y158.23 E24.538
G1 X180.664 Y158.379 E24.54547
G1 X176.545 Y158.379 E24.75217
G1 X176.311 Y158.613 E24.76881
G1 X223.689 Y158.613 E27.14654
G1 X224.072 Y158.997 E27.17374
G1 X175.928 Y158.997 E29.58994
G1 X175.544 Y159.38 E29.61714
G1 X224.456 Y159.38 E32.0718
G1 X224.839 Y159.763 E32.099
G1 X175.161 Y159.763 E34.59212
G1 X175.093 Y159.831 E34.59698
G1 X175.093 Y160.146 E34.61277
G1 X224.907 Y160.146 E37.11277
G1 X224.907 Y160.529 E37.132
G1 X175.093 Y160.529 E39.632
G1 X175.093 Y160.913 E39.65123
G1 X224.907 Y160.913 E42.15123
G1 X224.907 Y161.165 E42.16388
G1 X229.026 Y161.165 E42.37058
G1 X229.157 Y161.296 E42.3799
G1 X170.843 Y161.296 E45.30647
G1 X170.459 Y161.679 E45.33367
G1 X229.541 Y161.679 E48.29871
G1 X229.924 Y162.062 E48.32591
G1 X170.076 Y162.062 E51.32941
G1 X169.693 Y162.445 E51.35661
G1 X230.307 Y162.445 E54.39857
G1 X230.479 Y162.617 E54.41075
G1 X230.479 Y162.829 E54.42137
G1 X169.521 Y162.829 E57.48057
G1 X169.521 Y163.212 E57.4998
G1 X230.479 Y163.212 E60.55899
G1 X230.479 Y163.595 E60.57822
G1 X169.521 Y163.595 E63.63742
G1 X169.521 Y163.95 E63.65524
G1 X168.188 Y163.95 E63.72214
G1 X168.16 Y163.978 E63.72414
G1 X231.84 Y163.978 E66.91996
G1 X232.223 Y164.361 E66.94715
G1 X167.777 Y164.361 E70.18144
G1 X167.394 Y164.745 E70.20864
G1 X232.606 Y164.745 E73.48138
G1 X232.989 Y165.128 E73.50858
G1 X167.011 Y165.128 E76.81979
G1 X166.736 Y165.403 E76.83929
G1 X166.736 Y165.511 E76.84474
G1 X233.264 Y165.511 E80.18353
G1 X233.264 Y165.894 E80.20276
G1 X166.736 Y165.894 E83.54155
G1 X166.736 Y166.278 E83.56078
G1 X233.264 Y166.278 E86.89957
G1 X233.264 Y166.661 E86.9188
G1 X208.52 Y166.661 E88.16061
G1 X208.52 Y167.044 E88.17984
G1 X234.906 Y167.044 E89.50402
G1 X235.289 Y167.427 E89.53122
G1 X208.52 Y167.427 E90.87463
G1 X208.52 Y167.742 E90.89045
G1 X208.588 Y167.81 E90.89527
G1 X235.672 Y167.81 E92.2545
G1 X236.05 Y168.194 E92.28152
G1 X208.971 Y168.194 E93.64048
G1 X209.354 Y168.577 E93.66768
G1 X236.05 Y168.577 E95.00742
G1 X236.05 Y168.96 E95.02665
G1 X209.738 Y168.96 E96.34716
G1 X209.973 Y169.195 E96.36384
G1 X214.091 Y169.195 E96.57054
G1 X214.091 Y169.343 E96.57798
G1 X236.05 Y169.343 E97.67998
G1 X236.05 Y169.521 E97.68893
G1 X237.383 Y169.521 E97.75583
G1 X237.588 Y169.726 E97.77038
G1 X214.091 Y169.726 E98.94958
G1 X214.091 Y170.11 E98.96881
G1 X237.971 Y170.11 E100.16725
G1 X238.354 Y170.493 E100.19445
G1 X214.091 Y170.493 E101.41211
G1 X214.091 Y170.528 E101.41388
G1 X214.439 Y170.876 E101.43858
G1 X238.738 Y170.876 E102.65801
G1 X238.835 Y170.974 E102.66496
G1 X238.835 Y171.259 E102.67928
G1 X214.822 Y171.259 E103.88439
G1 X215.206 Y171.642 E103.91159
G1 X238.835 Y171.642 E105.09747
G1 X238.835 Y172.026 E105.1167
G1 X219.663 Y172.026 E106.07891
G1 X219.663 Y172.409 E106.09815
G1 X238.835 Y172.409 E107.06036
G1 X238.835 Y172.792 E107.07959
G1 X219.663 Y172.792 E108.0418
G1 X219.663 Y173.175 E108.06103
G1 X238.835 Y173.175 E109.02324
G1 X238.835 Y173.559 E109.04247
G1 X219.907 Y173.559 E109.9924
G1 X220.291 Y173.942 E110.0196
G1 X238.835 Y173.942 E110.95029
G1 X238.835 Y174.325 E110.96952
G1 X220.674 Y174.325 E111.88098
G1 X221.057 Y174.708 E111.90818
G1 X238.835 Y174.708 E112.80041
G1 X238.835 Y175.091 E112.81964
G1 X222.448 Y175.091 E113.64206
G1 X222.448 Y175.475 E113.66129
G1 X240.551 Y175.475 E114.56977
G1 X240.934 Y175.858 E114.59697
G1 X222.448 Y175.858 E115.52468
G1 X222.448 Y176.099 E115.5368
G1 X222.59 Y176.241 E115.54686
G1 X241.317 Y176.241 E116.4867
G1 X241.621 Y176.545 E116.50828
G1 X241.621 Y176.624 E116.51225
G1 X222.973 Y176.624 E117.44812
G1 X223.356 Y177.007 E117.47532
G1 X241.621 Y177.007 E118.39196
G1 X241.621 Y177.391 E118.41119
G1 X223.739 Y177.391 E119.3086
G1 X223.901 Y177.552 E119.32004
G1 X225.234 Y177.552 E119.38694
G1 X225.234 Y177.774 E119.39808
G1 X241.621 Y177.774 E120.22049
G1 X241.621 Y178.157 E120.23973
G1 X225.234 Y178.157 E121.06214
G1 X225.234 Y178.54 E121.08137
G1 X241.621 Y178.54 E121.90378
G1 X241.621 Y178.923 E121.92301
G1 X225.272 Y178.923 E122.74349
G1 X225.655 Y179.307 E122.77069
G1 X241.621 Y179.307 E123.57194
G1 X241.621 Y179.69 E123.59117
G1 X226.039 Y179.69 E124.37319
G1 X226.422 Y180.073 E124.40038
G1 X241.621 Y180.073 E125.16317
G1 X241.621 Y180.456 E125.1824
G1 X228.019 Y180.456 E125.86501
G1 X228.019 Y180.84 E125.88425
G1 X243.13 Y180.84 E126.64258
G1 X243.513 Y181.223 E126.66977
G1 X228.019 Y181.223 E127.44734
G1 X228.019 Y181.606 E127.46657
G1 X243.896 Y181.606 E128.26336
G1 X244.279 Y181.989 E128.29056
G1 X228.019 Y181.989 E129.10658
G1 X228.019 Y182.372 E129.12582
G1 X244.407 Y182.372 E129.94823
G1 X244.407 Y182.756 E129.96746
G1 X228.019 Y182.756 E130.78987
G1 X228.019 Y183.139 E130.8091
G1 X244.407 Y183.139 E131.63151
G1 X244.407 Y183.522 E131.65075
G1 X228.019 Y183.522 E132.47316
G1 X228.019 Y183.905 E132.49239
G1 X244.407 Y183.905 E133.3148
G1 X244.407 Y184.288 E133.33403
G1 X228.019 Y184.288 E134.15645
G1 X228.019 Y184.456 E134.16487
G1 X228.235 Y184.672 E134.18016
G1 X244.407 Y184.672 E134.99176
G1 X244.407 Y185.055 E135.01099
G1 X228.618 Y185.055 E135.80336
G1 X229.001 Y185.438 E135.83056
G1 X244.407 Y185.438 E136.60369
G1 X244.407 Y185.821 E136.62293
G1 X229.384 Y185.821 E137.37683
G1 X229.472 Y185.909 E137.38304
G1 X230.805 Y185.909 E137.44994
G1 X230.805 Y186.204 E137.46478
G1 X244.407 Y186.204 E138.1474
G1 X244.407 Y186.588 E138.16663
G1 X230.805 Y186.588 E138.84924
G1 X230.805 Y186.971 E138.86847
G1 X244.407 Y186.971 E139.55109
G1 X244.407 Y187.354 E139.57032
G1 X230.805 Y187.354 E140.25293
G1 X230.805 Y187.737 E140.27216
G1 X244.407 Y187.737 E140.95478
G1 X244.407 Y188.12 E140.97401
G1 X230.805 Y188.12 E141.65662
G1 X230.805 Y188.504 E141.67585
G1 X244.407 Y188.504 E142.35847
G1 X244.407 Y188.887 E142.3777
G1 X230.805 Y188.887 E143.06031
G1 X230.805 Y189.27 E143.07954
G1 X245.989 Y189.27 E143.84158
G1 X246.372 Y189.653 E143.86877
G1 X230.805 Y189.653 E144.65004
G1 X230.805 Y190.027 E144.66881
G1 X246.756 Y190.037 E145.46931
G1 X247.139 Y190.42 E145.4965
G1 X231.197 Y190.42 E146.29654
G1 X231.581 Y190.803 E146.32374
G1 X247.192 Y190.803 E147.10723
G1 X247.192 Y191.186 E147.12646
G1 X231.964 Y191.186 E147.89072
G1 X232.258 Y191.48 E147.91157
G1 X233.591 Y191.48 E147.97848
G1 X233.591 Y191.569 E147.98296
G1 X247.192 Y191.569 E148.66558
