; generated by PrusaSlicer 2.5.0 on 2022-10-10 at 21:03:52 UTC

; 

; external perimeters extrusion width = 0.45mm
; perimeters extrusion width = 0.45mm
; infill extrusion width = 0.45mm
; solid infill extrusion width = 0.45mm
; top infill extrusion width = 0.40mm
; support material extrusion width = 0.35mm
; first layer extrusion width = 0.42mm

M107
M190 S60 ; set bed temperature and wait for it to be reached
M104 S215 ; set temperature
;TYPE:Custom
G28 ; home all axes
G1 Z5 F5000 ; lift nozzle
M109 S215 ; set temperature and wait for it to be reached
G21 ; set units to millimeters
G90 ; use absolute coordinates
M82 ; use absolute distances for extrusion
G92 E0
; Filament gcode
M107
;LAYER_CHANGE
;Z:0.35
;HEIGHT:0.35
G1 Z.35 F7800
G1 E-2 F2400
G92 E0
G1 Z3.35 F7800
G1 X162.756 Y162.756
G1 Z.35
G1 E2 F2400
;TYPE:Skirt/Brim
;WIDTH:0.42
G1 F1800
G1 X163.573 Y161.939 E2.058
G1 X164.54 Y161.146 E2.12075
G1 X172.897 Y155.575 E2.6248
G1 X179.15 Y152.393 E2.97691
G1 X179.981 Y152.049 E3.02205
G1 X188.338 Y149.264 E3.46414
G1 X190.345 Y148.938 E3.56615
G1 X209.655 Y148.938 E4.53527
G1 X211.662 Y149.264 E4.63728
G1 X220.019 Y152.049 E5.07936
G1 X220.85 Y152.393 E5.12451
G1 X227.103 Y155.575 E5.47661
G1 X235.46 Y161.146 E5.98067
G1 X236.427 Y161.939 E6.04342
G1 X238.061 Y163.573 E6.15941
G1 X238.854 Y164.54 E6.22217
G1 X244.425 Y172.897 E6.72622
G1 X247.607 Y179.15 E7.07832
G1 X247.981 Y180.074 E7.12832
G1 X250.266 Y187.296 E7.5085
G1 X250.562 Y189.21 E7.60571
G1 X250.562 Y210.79 E8.68869
G1 X250.266 Y212.704 E8.7859
G1 X247.981 Y219.927 E9.16609
G1 X247.607 Y220.85 E9.21608
G1 X244.821 Y226.421 E9.52868
G1 X238.854 Y235.46 E10.07223
G1 X238.061 Y236.427 E10.13499
G1 X236.427 Y238.061 E10.25098
G1 X235.46 Y238.854 E10.31374
G1 X227.103 Y244.425 E10.81779
G1 X220.85 Y247.607 E11.16989
G1 X220.019 Y247.951 E11.21504
G1 X211.662 Y250.736 E11.65712
G1 X209.655 Y251.062 E11.75913
G1 X190.345 Y251.062 E12.72826
G1 X188.338 Y250.736 E12.83027
G1 X179.981 Y247.951 E13.27235
G1 X179.15 Y247.607 E13.3175
G1 X172.897 Y244.425 E13.6696
G1 X164.54 Y238.854 E14.17365
G1 X163.573 Y238.061 E14.2364
G1 X161.939 Y236.427 E14.3524
G1 X161.146 Y235.46 E14.41515
G1 X155.575 Y227.103 E14.91921
G1 X152.393 Y220.85 E15.27131
G1 X152.019 Y219.927 E15.3213
G1 X149.734 Y212.704 E15.70149
G1 X149.438 Y210.79 E15.7987
G1 X149.438 Y189.21 E16.88168
G1 X149.734 Y187.296 E16.97889
G1 X152.019 Y180.074 E17.35907
G1 X152.393 Y179.15 E17.40907
G1 X155.179 Y173.579 E17.72167
G1 X161.146 Y164.54 E18.26522
G1 X161.939 Y163.573 E18.32797
G1 X162.714 Y162.798 E18.38296
G1 E16.38296 F2400
G92 E0
G1 Z3.35 F7800
G1 X211.29 Y156.917
G1 Z.35
G1 E2 F2400
;TYPE:Support material
G1 F1800
G1 X211.29 Y158.069 E2.05778
G1 X218.012 Y158.069 E2.39515
G1 X219.647 Y159.703 E2.51115
G1 X219.647 Y160.854 E2.56893
G1 X223.583 Y160.854 E2.7665
G1 X225.218 Y162.488 E2.8825
G1 X225.218 Y163.64 E2.94028
G1 X226.369 Y163.64 E2.99805
G1 X228.003 Y165.274 E3.11405
G1 X228.003 Y166.425 E3.17183
G1 X231.94 Y166.425 E3.3694
G1 X233.575 Y168.06 E3.4854
G1 X233.575 Y171.997 E3.68298
G1 X234.726 Y171.997 E3.74075
G1 X236.36 Y173.631 E3.85675
G1 X236.36 Y174.782 E3.91453
G1 X237.512 Y174.782 E3.9723
G1 X239.146 Y176.417 E4.0883
G1 X239.146 Y180.353 E4.28588
G1 X240.297 Y180.353 E4.34365
G1 X241.931 Y181.988 E4.45965
G1 X241.931 Y189.21 E4.82212
G1 X244.217 Y189.21 E4.93682
G1 X244.217 Y210.79 E6.0198
G1 X241.931 Y210.79 E6.13451
G1 X241.931 Y218.012 E6.49698
G1 X240.297 Y219.647 E6.61297
G1 X239.146 Y219.647 E6.67075
G1 X239.146 Y223.583 E6.86833
G1 X237.512 Y225.218 E6.98432
G1 X236.36 Y225.218 E7.0421
G1 X236.36 Y226.369 E7.09988
G1 X234.726 Y228.003 E7.21587
G1 X233.575 Y228.003 E7.27365
G1 X233.575 Y231.94 E7.47123
G1 X231.94 Y233.575 E7.58722
G1 X228.003 Y233.575 E7.7848
G1 X228.003 Y234.726 E7.84258
G1 X226.369 Y236.36 E7.95857
G1 X225.218 Y236.36 E8.01635
G1 X225.218 Y237.512 E8.07413
G1 X223.583 Y239.146 E8.19012
G1 X219.647 Y239.146 E8.3877
G1 X219.647 Y240.297 E8.44548
G1 X218.012 Y241.931 E8.56147
G1 X211.29 Y241.931 E8.89885
G1 X211.29 Y243.083 E8.95663
G1 X209.655 Y244.717 E9.07262
G1 X190.345 Y244.717 E10.04174
G1 X188.71 Y243.083 E10.15774
G1 X188.71 Y241.931 E10.21552
G1 X181.988 Y241.931 E10.55289
G1 X180.353 Y240.297 E10.66889
G1 X180.353 Y239.146 E10.72667
G1 X176.417 Y239.146 E10.92424
G1 X174.782 Y237.512 E11.04024
G1 X174.782 Y236.36 E11.09802
G1 X173.631 Y236.36 E11.15579
G1 X171.997 Y234.726 E11.27179
G1 X171.997 Y233.575 E11.32957
G1 X168.06 Y233.575 E11.52714
G1 X166.425 Y231.94 E11.64314
G1 X166.425 Y228.003 E11.84071
G1 X165.274 Y228.003 E11.89849
G1 X163.64 Y226.369 E12.01449
G1 X163.64 Y225.218 E12.07227
G1 X162.488 Y225.218 E12.13004
G1 X160.854 Y223.583 E12.24604
G1 X160.854 Y219.647 E12.44362
G1 X159.703 Y219.647 E12.50139
G1 X158.069 Y218.012 E12.61739
G1 X158.069 Y210.79 E12.97986
G1 X155.783 Y210.79 E13.09456
G1 X155.783 Y189.21 E14.17754
G1 X158.069 Y189.21 E14.29225
G1 X158.069 Y181.988 E14.65472
G1 X159.703 Y180.353 E14.77071
G1 X160.854 Y180.353 E14.82849
G1 X160.854 Y176.417 E15.02607
G1 X162.488 Y174.782 E15.14206
G1 X163.64 Y174.782 E15.19984
G1 X163.64 Y173.631 E15.25762
G1 X165.274 Y171.997 E15.37361
G1 X166.425 Y171.997 E15.43139
G1 X166.425 Y168.06 E15.62897
G1 X168.06 Y166.425 E15.74496
G1 X171.997 Y166.425 E15.94254
G1 X171.997 Y165.274 E16.00032
G1 X173.631 Y163.64 E16.11631
G1 X174.782 Y163.64 E16.17409
G1 X174.782 Y162.488 E16.23187
G1 X176.417 Y160.854 E16.34786
G1 X180.353 Y160.854 E16.54544
G1 X180.353 Y159.703 E16.60322
G1 X181.988 Y158.069 E16.71921
G1 X188.71 Y158.069 E17.05659
G1 X188.71 Y156.917 E17.11437
G1 X190.345 Y155.283 E17.23036
G1 X209.655 Y155.283 E18.19948
G1 X211.253 Y156.881 E18.31288
G1 E16.31288 F2400
G92 E0
G1 Z3.35 F7800
G1 X196.862 Y177.362
G1 Z.35
G1 E2 F2400
G1 F1800
G1 X196.862 Y180.148 E2.1398
G1 X191.29 Y180.148 E2.4194
G1 X191.29 Y182.933 E2.5592
G1 X185.719 Y182.933 E2.83879
G1 X185.719 Y185.719 E2.97859
G1 X182.933 Y185.719 E3.11839
G1 X182.933 Y191.29 E3.39799
G1 X180.148 Y191.29 E3.53779
G1 X180.148 Y196.862 E3.81739
G1 X177.362 Y196.862 E3.95718
G1 X177.362 Y203.138 E4.27219
G1 X180.148 Y203.138 E4.41199
G1 X180.148 Y208.71 E4.69159
G1 X182.933 Y208.71 E4.83139
G1 X182.933 Y214.281 E5.11099
G1 X185.719 Y214.281 E5.25079
G1 X185.719 Y217.067 E5.39058
G1 X191.29 Y217.067 E5.67018
G1 X191.29 Y219.852 E5.80998
G1 X196.862 Y219.852 E6.08958
G1 X196.862 Y222.638 E6.22938
G1 X203.138 Y222.638 E6.54439
G1 X203.138 Y219.852 E6.68419
G1 X208.71 Y219.852 E6.96378
G1 X208.71 Y217.067 E7.10358
G1 X214.281 Y217.067 E7.38318
G1 X214.281 Y214.281 E7.52298
G1 X217.067 Y214.281 E7.66278
G1 X217.067 Y208.71 E7.94238
G1 X219.852 Y208.71 E8.08217
G1 X219.852 Y203.138 E8.36177
G1 X222.638 Y203.138 E8.50157
G1 X222.638 Y196.862 E8.81658
G1 X219.852 Y196.862 E8.95638
G1 X219.852 Y191.29 E9.23598
G1 X217.067 Y191.29 E9.37578
G1 X217.067 Y185.719 E9.65537
G1 X214.281 Y185.719 E9.79517
G1 X214.281 Y182.933 E9.93497
G1 X208.71 Y182.933 E10.21457
G1 X208.71 Y180.148 E10.35437
G1 X203.138 Y180.148 E10.63397
G1 X203.138 Y177.362 E10.77376
G1 X196.913 Y177.362 E11.08618
G1 E9.08618 F2400
G92 E0
G1 Z3.35 F7800
G1 X166.22 Y196.862
G1 Z.35
G1 E2 F2400
G1 F1800
G1 X166.22 Y203.138 E2.31501
G1 X166.925 Y203.138 E2.35042
G1 X166.925 Y196.862 E2.66543
G1 X166.272 Y196.862 E2.69825
G1 E.69825 F2400
G92 E0
G1 Z3.35 F7800
G1 X233.075 Y196.862
G1 Z.35
G1 E2 F2400
G1 F1800
G1 X233.075 Y203.138 E2.31501
G1 X233.78 Y203.138 E2.35042
G1 X233.78 Y196.862 E2.66543
G1 X233.126 Y196.862 E2.69825
G1 E.69825 F2400
G92 E0
G1 Z3.35 F7800
G1 X233.419 Y168.387
G1 Z.35
G1 E2 F2400
G1 F1800
G1 X231.769 Y166.736 E2.11716
G1 X231.227 Y166.736 E2.14436
G1 X233.264 Y168.773 E2.28897
G1 X233.264 Y169.315 E2.31617
G1 X230.685 Y166.736 E2.49924
G1 X230.143 Y166.736 E2.52644
G1 X233.264 Y169.857 E2.74797
G1 X233.264 Y170.399 E2.77517
G1 X229.601 Y166.736 E3.03517
G1 X229.059 Y166.736 E3.06237
G1 X233.264 Y170.941 E3.36083
G1 X233.264 Y171.483 E3.38803
G1 X228.362 Y166.581 E3.73597
G1 E1.73597 F2400
G92 E0
G1 Z3.35 F7800
G1 X238.991 Y177.209
G1 Z.35
G1 E2 F2400
G1 F1800
G1 X236.719 Y174.937 E2.16125
G1 X236.205 Y174.424 F7800
G1 F1800
G1 X233.933 Y172.152 E2.32251
G1 E.32251 F2400
G92 E0
G1 Z3.35 F7800
G1 X227.848 Y166.067
G1 Z.35
G1 E2 F2400
G1 F1800
G1 X225.576 Y163.795 E2.16125
G1 X225.063 Y163.281 F7800
G1 F1800
G1 X222.946 Y161.165 E2.31148
G1 X222.404 Y161.165 E2.33868
G1 X238.835 Y177.596 E3.50489
G1 X238.835 Y178.138 E3.53209
G1 X221.862 Y161.165 E4.73677
G1 X221.32 Y161.165 E4.76396
G1 X238.835 Y178.68 E6.0071
G1 X238.835 Y179.222 E6.0343
G1 X220.778 Y161.165 E7.3159
G1 X220.236 Y161.165 E7.3431
G1 X238.835 Y179.764 E8.66317
G1 X238.835 Y180.306 E8.69036
G1 X219.694 Y161.165 E10.04889
G1 X219.336 Y161.165 E10.06686
G1 X219.336 Y160.806 E10.08483
G1 X216.909 Y158.379 E10.25712
G1 X217.451 Y158.379 E10.28432
G1 X219.491 Y160.42 E10.42917
G1 E8.42917 F2400
G92 E0
G1 Z3.35 F7800
G1 X241.776 Y182.705
G1 Z.35
G1 E2 F2400
G1 F1800
G1 X239.735 Y180.664 E2.14485
G1 X239.193 Y180.664 E2.17205
G1 X241.621 Y183.092 E2.34435
G1 X241.621 Y183.633 E2.37155
G1 X216.367 Y158.379 E4.16395
G1 X215.825 Y158.379 E4.19115
G1 X241.621 Y184.175 E6.02201
G1 X241.621 Y184.717 E6.04921
G1 X215.283 Y158.379 E7.91854
G1 X214.741 Y158.379 E7.94574
G1 X241.621 Y185.259 E9.85353
G1 X241.621 Y185.801 E9.88073
G1 X214.199 Y158.379 E11.82699
G1 X213.657 Y158.379 E11.85419
G1 X241.621 Y186.343 E13.83891
G1 X241.621 Y186.885 E13.86611
G1 X213.115 Y158.379 E15.88929
G1 X212.573 Y158.379 E15.91649
G1 X241.621 Y187.427 E17.97814
G1 X241.621 Y187.969 E18.00533
G1 X212.031 Y158.379 E20.10545
G1 X211.489 Y158.379 E20.13264
G1 X241.621 Y188.511 E22.27122
G1 X241.621 Y189.053 E22.29842
G1 X208.162 Y155.593 E24.67316
G1 X208.704 Y155.593 E24.70036
G1 X210.979 Y157.869 E24.86187
G1 X210.979 Y157.327 E24.88907
G1 X209.09 Y155.438 E25.02314
G1 E23.02314 F2400
G92 E0
G1 Z3.35 F7800
G1 X244.062 Y189.868
G1 Z.35
G1 E2 F2400
G1 F1800
G1 X243.715 Y189.521 E2.02464
G1 X243.173 Y189.521 E2.05184
G1 X243.907 Y190.255 E2.10393
G1 X243.907 Y190.797 E2.13112
G1 X242.631 Y189.521 E2.22168
G1 X242.089 Y189.521 E2.24887
G1 X243.907 Y191.339 E2.37789
G1 X243.907 Y191.88 E2.40509
G1 X207.62 Y155.593 E4.98051
G1 X207.078 Y155.593 E5.00771
G1 X243.907 Y192.422 E7.6216
G1 X243.907 Y192.964 E7.6488
G1 X206.536 Y155.593 E10.30115
G1 X205.994 Y155.593 E10.32835
G1 X243.907 Y193.506 E13.01916
G1 X243.907 Y194.048 E13.04636
G1 X205.452 Y155.593 E15.77564
G1 X204.91 Y155.593 E15.80284
G1 X243.907 Y194.59 E18.57058
G1 X243.907 Y195.132 E18.59778
G1 X204.368 Y155.593 E21.40399
G1 X203.826 Y155.593 E21.43118
G1 X243.907 Y195.674 E24.27586
G1 X243.907 Y196.216 E24.30305
G1 X203.284 Y155.593 E27.18619
G1 X202.742 Y155.593 E27.21338
G1 X243.907 Y196.758 E30.13498
G1 X243.907 Y197.3 E30.16218
G1 X202.2 Y155.593 E33.12224
G1 X201.658 Y155.593 E33.14944
G1 X243.907 Y197.842 E36.14796
G1 X243.907 Y198.384 E36.17516
G1 X201.116 Y155.593 E39.21215
G1 X200.574 Y155.593 E39.23935
G1 X243.907 Y198.926 E42.3148
G1 X243.907 Y199.468 E42.342
G1 X200.033 Y155.593 E45.45591
G1 X199.491 Y155.593 E45.48311
G1 X243.907 Y200.01 E48.63549
G1 X243.907 Y200.552 E48.66268
G1 X198.949 Y155.593 E51.85353
G1 X198.407 Y155.593 E51.88072
G1 X243.907 Y201.093 E55.11003
G1 X243.907 Y201.635 E55.13723
G1 X197.865 Y155.593 E58.40499
G1 X197.323 Y155.593 E58.43219
G1 X243.907 Y202.177 E61.73842
G1 X243.907 Y202.719 E61.76562
G1 X196.781 Y155.593 E65.11032
G1 X196.239 Y155.593 E65.13752
G1 X243.907 Y203.261 E68.52068
G1 X243.907 Y203.803 E68.54787
G1 X195.697 Y155.593 E71.9695
G1 X195.155 Y155.593 E71.99669
G1 X243.907 Y204.345 E75.45678
G1 X243.907 Y204.887 E75.48398
G1 X194.613 Y155.593 E78.98253
G1 X194.071 Y155.593 E79.00973
G1 X243.907 Y205.429 E82.54674
G1 X243.907 Y205.971 E82.57394
G1 X193.529 Y155.593 E86.14941
G1 X192.987 Y155.593 E86.17661
G1 X243.907 Y206.513 E89.79055
G1 X243.907 Y207.055 E89.81775
G1 X234.091 Y197.239 E90.51443
G1 X234.091 Y197.781 E90.54163
G1 X243.907 Y207.597 E91.23831
G1 X243.907 Y208.139 E91.26551
G1 X234.091 Y198.323 E91.96219
G1 X234.091 Y198.865 E91.98939
G1 X243.907 Y208.681 E92.68607
G1 X243.907 Y209.223 E92.71327
G1 X234.091 Y199.407 E93.40995
G1 X234.091 Y199.948 E93.43715
G1 X243.907 Y209.765 E94.13384
G1 X243.907 Y210.306 E94.16103
G1 X234.091 Y200.49 E94.85772
G1 X234.091 Y201.032 E94.88491
G1 X243.538 Y210.479 E95.5554
G1 X242.996 Y210.479 E95.58259
G1 X234.091 Y201.574 E96.21461
G1 X234.091 Y202.116 E96.24181
G1 X242.454 Y210.479 E96.83537
G1 X241.912 Y210.479 E96.86257
G1 X234.091 Y202.658 E97.41766
G1 X234.091 Y203.2 E97.44486
G1 X241.621 Y210.731 E97.97932
G1 X241.621 Y211.273 E98.00652
G1 X233.797 Y203.449 E98.56179
G1 X233.256 Y203.449 E98.58899
G1 X241.621 Y211.814 E99.18273
G1 X241.621 Y212.356 E99.20992
G1 X217.377 Y188.112 E100.93062
G1 X217.377 Y188.654 E100.95782
G1 X219.703 Y190.98 E101.1229
G1 X219.161 Y190.98 E101.15009
G1 X217.377 Y189.196 E101.2767
G1 X217.377 Y189.738 E101.3039
G1 X218.619 Y190.98 E101.39205
G1 X218.077 Y190.98 E101.41925
G1 X217.377 Y190.28 E101.46893
G1 X217.377 Y190.822 E101.49613
G1 X217.69 Y191.135 E101.51836
G1 E99.51836 F2400
G92 E0
G1 Z3.35 F7800
G1 X233.558 Y196.706
G1 Z.35
G1 E2 F2400
G1 F1800
G1 X192.445 Y155.593 E4.91794
G1 X191.903 Y155.593 E4.94514
G1 X232.861 Y196.551 E7.85206
G1 X232.764 Y196.551 E7.85692
G1 X232.764 Y196.996 E7.87926
G1 X191.361 Y155.593 E10.81776
G1 X190.82 Y155.593 E10.84496
G1 X232.764 Y197.538 E13.82193
G1 X232.764 Y198.08 E13.84913
G1 X190.375 Y155.691 E16.85762
G1 X190.104 Y155.962 E16.87685
G1 X232.764 Y198.622 E19.90458
G1 X232.764 Y199.164 E19.93177
G1 X189.833 Y156.233 E22.97873
G1 X189.563 Y156.504 E22.99796
G1 X232.764 Y199.706 E26.06415
G1 X232.764 Y200.248 E26.09135
G1 X189.292 Y156.775 E29.17677
G1 X189.021 Y157.046 E29.19599
G1 X232.764 Y200.79 E32.30064
G1 X232.764 Y201.332 E32.32783
G1 X217.377 Y185.944 E33.41993
G1 X217.377 Y186.486 E33.44713
G1 X232.764 Y201.874 E34.53922
G1 X232.764 Y202.416 E34.56642
G1 X217.377 Y187.028 E35.65851
G1 X217.377 Y187.57 E35.68571
G1 X232.919 Y203.113 E36.78882
G1 E34.78882 F2400
G92 E0
G1 Z3.35 F7800
G1 X216.996 Y185.564
G1 Z.35
G1 E2 F2400
G1 F1800
G1 X214.591 Y183.159 E2.1707
G1 X214.591 Y183.701 E2.1979
G1 X216.299 Y185.409 E2.31912
G1 X215.757 Y185.409 E2.34632
G1 X214.591 Y184.243 E2.42908
G1 X214.591 Y184.785 E2.45628
G1 X215.215 Y185.409 E2.50058
G1 X214.674 Y185.409 E2.52778
G1 X214.436 Y185.171 E2.54462
G1 E.54462 F2400
G92 E0
G1 Z3.35 F7800
G1 X214.211 Y182.778
G1 Z.35
G1 E2 F2400
G1 F1800
G1 X189.021 Y157.588 E3.78784
G1 X189.021 Y158.13 E3.81503
G1 X213.514 Y182.623 E5.55339
G1 X212.972 Y182.623 E5.58059
G1 X188.728 Y158.379 E7.30128
G1 X188.186 Y158.379 E7.32848
G1 X212.43 Y182.623 E9.04917
G1 X211.888 Y182.623 E9.07637
G1 X187.644 Y158.379 E10.79706
G1 X187.102 Y158.379 E10.82426
G1 X208.56 Y179.837 E12.34725
G1 X208.018 Y179.837 E12.37445
G1 X186.56 Y158.379 E13.89743
G1 X186.018 Y158.379 E13.92463
G1 X207.476 Y179.837 E15.44762
G1 X206.935 Y179.837 E15.47482
G1 X185.476 Y158.379 E16.9978
G1 X184.934 Y158.379 E17.025
G1 X206.393 Y179.837 E18.54799
G1 X205.851 Y179.837 E18.57519
G1 X203.449 Y177.436 E18.74565
G1 X203.449 Y177.978 E18.77285
G1 X205.309 Y179.837 E18.90485
G1 X204.767 Y179.837 E18.93205
G1 X203.449 Y178.52 E19.02559
G1 X203.449 Y179.061 E19.05279
G1 X204.225 Y179.837 E19.10786
G1 X203.683 Y179.837 E19.13506
G1 X203.294 Y179.448 E19.16269
G1 E17.16269 F2400
G92 E0
G1 Z3.35 F7800
G1 X241.776 Y213.054
G1 Z.35
G1 E2 F2400
G1 F1800
G1 X220.163 Y191.44 E3.53401
G1 X220.163 Y191.982 E3.56121
G1 X241.621 Y213.44 E5.0842
G1 X241.621 Y213.982 E5.1114
G1 X220.163 Y192.524 E6.63439
G1 X220.163 Y193.066 E6.66159
G1 X241.621 Y214.524 E8.18458
G1 X241.621 Y215.066 E8.21178
G1 X220.163 Y193.607 E9.73477
G1 X220.163 Y194.149 E9.76197
G1 X222.564 Y196.551 E9.93243
G1 X222.022 Y196.551 E9.95963
G1 X220.163 Y194.691 E10.09163
G1 X220.163 Y195.233 E10.11882
G1 X221.48 Y196.551 E10.21236
G1 X220.938 Y196.551 E10.23956
G1 X220.163 Y195.775 E10.29463
G1 X220.163 Y196.317 E10.32183
