; generated by PrusaSlicer 2.4.2 on 2022-08-30 at 19:02:19 UTC

; 

; external perimeters extrusion width = 0.45mm
; perimeters extrusion width = 0.45mm
; infill extrusion width = 0.45mm
; solid infill extrusion width = 0.45mm
; top infill extrusion width = 0.40mm
; first layer extrusion width = 0.42mm

; external perimeters extrusion width = 0.45mm
; perimeters extrusion width = 0.45mm
; infill extrusion width = 0.45mm
; solid infill extrusion width = 0.45mm
; top infill extrusion width = 0.40mm
; first layer extrusion width = 0.42mm

M107
M190 S60 ; set bed temperature and wait for it to be reached
M104 S215 ; set temperature
;TYPE:Custom
G28 ; home all axes
G1 Z5 F5000 ; lift nozzle
M109 S215 ; set temperature and wait for it to be reached
G21 ; set units to millimeters
G90 ; use absolute coordinates
M82 ; use absolute distances for extrusion
G92 E0
; Filament gcode
M107
;LAYER_CHANGE
;Z:0.35
;HEIGHT:0.35
G1 Z.35 F7800
G1 E-2 F2400
G92 E0
G1 Z3.35 F7800
G1 X163.374 Y154.225
G1 Z.35
G1 E2 F2400
;TYPE:Skirt/Brim
;WIDTH:0.42
G1 F1800
G1 X164.041 Y153.526 E2.04848
G1 X166.191 Y151.592 E2.19364
G1 X166.956 Y151.002 E2.24211
G1 X169.332 Y149.444 E2.38473
G1 X170.22 Y148.95 E2.43574
G1 X172.852 Y147.749 E2.5809
G1 X173.759 Y147.416 E2.62937
G1 X176.542 Y146.63 E2.77453
G1 X177.489 Y146.438 E2.82301
G1 X181.139 Y146.035 E3.0073
G1 X223.703 Y146.083 E5.14344
G1 X226.574 Y146.438 E5.2886
G1 X227.521 Y146.63 E5.33708
G1 X230.304 Y147.416 E5.48224
G1 X231.211 Y147.749 E5.53071
G1 X233.842 Y148.95 E5.67587
G1 X234.688 Y149.416 E5.72435
G1 X237.107 Y151.002 E5.86951
G1 X237.872 Y151.592 E5.91798
G1 X240.022 Y153.526 E6.06314
G1 X240.689 Y154.225 E6.11161
G1 X242.521 Y156.464 E6.25677
G1 X243.074 Y157.256 E6.30525
G1 X244.544 Y159.747 E6.45041
G1 X244.97 Y160.613 E6.49888
G1 X246.046 Y163.298 E6.64404
G1 X246.336 Y164.22 E6.69252
G1 X246.991 Y167.037 E6.83768
G1 X247.138 Y167.992 E6.88615
G1 X247.358 Y170.876 E7.03131
G1 X247.358 Y171.842 E7.07978
G1 X247.037 Y175.468 E7.26249
G1 X236.03 Y231.393 E10.123
G1 X235.214 Y233.484 E10.23562
G1 X234.332 Y234.613 E10.30754
G1 X233.744 Y235.203 E10.34931
G1 X231.898 Y236.479 E10.46193
G1 X230.08 Y236.997 E10.5568
G1 X184.297 Y242.886 E12.8734
G1 X182.264 Y243.044 E12.97572
G1 X169.488 Y243.069 E13.61693
G1 X167.28 Y242.669 E13.72955
G1 X165.053 Y241.252 E13.86203
G1 X164.463 Y240.664 E13.9038
G1 X163.187 Y238.819 E14.01642
G1 X162.644 Y236.773 E14.12265
G1 X156.705 Y171.842 E17.39488
G1 X156.705 Y170.876 E17.44335
G1 X156.921 Y168.042 E17.58597
G1 X157.072 Y167.037 E17.63698
G1 X157.727 Y164.22 E17.78214
G1 X158.017 Y163.298 E17.83061
G1 X159.092 Y160.613 E17.97577
G1 X159.519 Y159.747 E18.02425
G1 X160.989 Y157.256 E18.16941
G1 X161.542 Y156.464 E18.21788
G1 X163.336 Y154.272 E18.36003
G1 E16.36003 F2400
G92 E0
G1 Z3.35 F7800
G1 X168.937 Y158.866
G1 Z.35
G1 E2 F2400
;TYPE:Perimeter
G1 F1800
G1 X170.985 Y157.023 E2.13827
G1 X173.248 Y155.54 E2.27405
G1 X175.797 Y154.369 E2.41483
G1 X178.447 Y153.62 E2.55303
G1 X181.181 Y153.281 E2.6913
G1 X183.935 Y153.361 E2.82956
G1 X186.645 Y153.859 E2.96783
G1 X189.249 Y154.762 E3.10614
G1 X194.442 Y157.494 E3.40065
G1 X197.399 Y158.479 E3.55703
G1 X200.474 Y158.977 E3.71337
G1 X203.589 Y158.977 E3.8697
G1 X206.664 Y158.479 E4.02604
G1 X209.62 Y157.494 E4.18242
G1 X214.814 Y154.762 E4.47693
G1 X217.418 Y153.859 E4.61524
G1 X220.128 Y153.361 E4.7535
G1 X222.881 Y153.281 E4.89177
G1 X225.567 Y153.613 E5.02755
G1 X228.268 Y154.37 E5.16833
G1 X230.773 Y155.513 E5.30654
G1 X233.077 Y157.023 E5.4448
G1 X235.125 Y158.866 E5.58307
G1 X236.87 Y160.998 E5.72133
G1 X238.271 Y163.371 E5.8596
G1 X239.295 Y165.928 E5.99786
G1 X239.919 Y168.612 E6.13613
G1 X240.129 Y171.359 E6.27439
G1 X239.919 Y174.106 E6.41266
G1 X239.295 Y176.789 E6.55092
G1 X238.271 Y179.347 E6.68919
G1 X236.87 Y181.719 E6.82746
G1 X235.125 Y183.851 E6.96572
G1 X233.077 Y185.694 E7.10399
G1 X230.773 Y187.205 E7.24225
G1 X228.267 Y188.348 E7.38052
G1 X225.616 Y189.098 E7.51878
G1 X222.881 Y189.436 E7.65705
G1 X220.128 Y189.356 E7.79531
G1 X217.418 Y188.858 E7.93358
G1 X214.814 Y187.955 E8.07189
G1 X209.62 Y185.223 E8.3664
G1 X206.664 Y184.239 E8.52278
G1 X203.589 Y183.74 E8.67912
G1 X200.474 Y183.74 E8.83545
G1 X197.399 Y184.239 E8.99179
G1 X194.442 Y185.223 E9.14817
G1 X189.249 Y187.955 E9.44268
G1 X186.645 Y188.858 E9.58099
G1 X183.935 Y189.356 E9.71925
G1 X181.181 Y189.436 E9.85752
G1 X178.447 Y189.098 E9.99578
G1 X175.796 Y188.348 E10.13405
G1 X173.289 Y187.205 E10.27232
G1 X170.985 Y185.694 E10.41058
G1 X168.937 Y183.851 E10.54885
G1 X167.193 Y181.719 E10.68711
G1 X165.792 Y179.347 E10.82538
G1 X164.768 Y176.789 E10.96364
G1 X164.155 Y174.154 E11.09943
G1 X163.934 Y171.358 E11.2402
G1 X164.144 Y168.612 E11.37841
G1 X164.768 Y165.928 E11.51667
G1 X165.774 Y163.417 E11.65246
G1 X167.194 Y160.997 E11.79323
G1 X168.899 Y158.912 E11.92843
G1 X168.676 Y158.641 F7800
G1 F1800
G1 X170.774 Y156.749 E12.07021
G1 X173.081 Y155.237 E12.20862
G1 X175.678 Y154.044 E12.35204
G1 X178.379 Y153.281 E12.49291
G1 X181.165 Y152.936 E12.63382
G1 X183.972 Y153.018 E12.77472
G1 X186.733 Y153.525 E12.91563
G1 X189.386 Y154.445 E13.05657
G1 X194.578 Y157.176 E13.35097
G1 X197.481 Y158.143 E13.50454
G1 X200.502 Y158.632 E13.65809
G1 X203.561 Y158.632 E13.81164
G1 X206.581 Y158.143 E13.96519
G1 X209.485 Y157.176 E14.11876
G1 X214.676 Y154.445 E14.41316
G1 X217.33 Y153.525 E14.5541
G1 X220.091 Y153.018 E14.69501
G1 X222.898 Y152.936 E14.83591
G1 X225.635 Y153.274 E14.97432
G1 X228.387 Y154.045 E15.11774
G1 X230.94 Y155.21 E15.25861
G1 X233.289 Y156.749 E15.39952
G1 X235.376 Y158.627 E15.54043
G1 X237.154 Y160.8 E15.68133
G1 X238.581 Y163.218 E15.82224
G1 X239.625 Y165.824 E15.96315
G1 X240.261 Y168.559 E16.10406
G1 X240.475 Y171.359 E16.24496
G1 X240.261 Y174.158 E16.38587
G1 X239.625 Y176.893 E16.52678
G1 X238.581 Y179.499 E16.66769
G1 X237.154 Y181.917 E16.8086
G1 X235.376 Y184.09 E16.9495
G1 X233.289 Y185.968 E17.09041
G1 X230.94 Y187.508 E17.23132
G1 X228.386 Y188.673 E17.37223
G1 X225.684 Y189.437 E17.51314
G1 X222.898 Y189.782 E17.65404
G1 X220.091 Y189.7 E17.79495
G1 X217.33 Y189.193 E17.93586
G1 X214.676 Y188.272 E18.0768
G1 X209.485 Y185.541 E18.37119
G1 X206.581 Y184.575 E18.52477
G1 X203.561 Y184.085 E18.67832
G1 X200.502 Y184.085 E18.83187
G1 X197.481 Y184.575 E18.98541
G1 X194.578 Y185.541 E19.13899
G1 X189.386 Y188.272 E19.43339
G1 X186.733 Y189.193 E19.57433
G1 X183.972 Y189.7 E19.71523
G1 X181.165 Y189.782 E19.85614
G1 X178.379 Y189.437 E19.99705
G1 X175.677 Y188.673 E20.13796
G1 X173.122 Y187.508 E20.27887
G1 X170.774 Y185.968 E20.41977
G1 X168.687 Y184.09 E20.56068
G1 X166.909 Y181.917 E20.70159
G1 X165.482 Y179.499 E20.8425
G1 X164.438 Y176.893 E20.9834
G1 X163.813 Y174.207 E21.12181
G1 X163.588 Y171.358 E21.26523
G1 X163.802 Y168.559 E21.4061
G1 X164.438 Y165.824 E21.54701
G1 X165.463 Y163.264 E21.68541
G1 X166.91 Y160.8 E21.82883
G1 X168.638 Y158.687 E21.96581
G1 X168.409 Y158.422 F7800
;TYPE:External perimeter
G1 F1800
G1 X170.563 Y156.475 E22.11154
G1 X172.913 Y154.934 E22.25256
G1 X175.558 Y153.72 E22.39862
G1 X178.31 Y152.941 E22.54216
G1 X181.149 Y152.59 E22.68571
G1 X184.008 Y152.674 E22.82926
G1 X186.821 Y153.19 E22.97281
G1 X189.524 Y154.128 E23.11637
G1 X194.714 Y156.858 E23.41066
G1 X197.564 Y157.807 E23.56143
G1 X200.529 Y158.288 E23.71219
G1 X203.533 Y158.288 E23.86295
G1 X206.499 Y157.807 E24.01371
G1 X209.349 Y156.858 E24.16448
G1 X214.539 Y154.128 E24.45877
G1 X217.241 Y153.19 E24.60233
G1 X220.055 Y152.674 E24.74588
G1 X222.914 Y152.59 E24.88943
G1 X225.703 Y152.935 E25.03046
G1 X228.505 Y153.72 E25.17652
G1 X231.108 Y154.907 E25.32006
G1 X233.5 Y156.475 E25.46361
G1 X235.626 Y158.388 E25.60716
G1 X237.437 Y160.602 E25.75071
G1 X238.891 Y163.065 E25.89426
G1 X239.955 Y165.721 E26.03781
G1 X240.603 Y168.507 E26.18136
G1 X240.821 Y171.359 E26.32491
G1 X240.603 Y174.211 E26.46846
G1 X239.955 Y176.997 E26.61201
G1 X238.891 Y179.652 E26.75556
G1 X237.437 Y182.115 E26.89911
G1 X235.626 Y184.329 E27.04266
G1 X233.5 Y186.242 E27.18621
G1 X231.108 Y187.811 E27.32976
G1 X228.505 Y188.998 E27.47332
G1 X225.753 Y189.776 E27.61687
G1 X222.914 Y190.127 E27.76042
G1 X220.055 Y190.044 E27.90397
G1 X217.241 Y189.527 E28.04752
G1 X214.539 Y188.59 E28.19108
G1 X209.349 Y185.86 E28.48537
G1 X206.499 Y184.911 E28.63614
G1 X203.533 Y184.43 E28.7869
G1 X200.529 Y184.43 E28.93766
G1 X197.564 Y184.911 E29.08842
G1 X194.714 Y185.86 E29.23919
G1 X189.524 Y188.59 E29.53348
G1 X186.821 Y189.527 E29.67704
G1 X184.008 Y190.044 E29.82059
G1 X181.149 Y190.127 E29.96414
G1 X178.31 Y189.776 E30.10769
G1 X175.558 Y188.998 E30.25124
G1 X172.955 Y187.811 E30.39479
G1 X170.563 Y186.242 E30.53834
G1 X168.437 Y184.329 E30.68189
G1 X166.626 Y182.115 E30.82544
G1 X165.171 Y179.652 E30.96899
G1 X164.108 Y176.997 E31.11254
G1 X163.471 Y174.26 E31.25357
G1 X163.242 Y171.358 E31.39963
G1 X163.46 Y168.507 E31.54317
G1 X164.108 Y165.721 E31.68672
G1 X165.153 Y163.112 E31.82774
G1 X166.626 Y160.602 E31.9738
G1 X168.371 Y158.469 E32.11212
G1 X168.798 Y158.516 F7800
G1 E30.11212 F2400
G92 E0
G1 Z3.35 F7800
G1 X231.548 Y156.144
G1 Z.35
G1 E2 F2400
;TYPE:Solid infill
;WIDTH:0.420791
G1 F1800
G1 X236.811 Y161.407 E2.37439
G1 X237.516 Y162.601 E2.44411
G1 X230.667 Y155.752 E2.93128
G1 X229.761 Y155.335 E2.98145
G1 X238.123 Y163.696 E3.57622
G1 X238.449 Y164.512 E3.62041
G1 X228.863 Y154.925 E4.30236
G1 X228.179 Y154.613 E4.34017
G1 X228.016 Y154.568 E4.34865
G1 X238.776 Y165.327 E5.11404
G1 X239.048 Y166.006 E5.15082
G1 X239.072 Y166.113 E5.15633
G1 X227.337 Y154.378 E5.99112
G1 X226.658 Y154.188 E6.02658
G1 X239.221 Y166.75 E6.92021
G1 X239.369 Y167.387 E6.95311
G1 X225.98 Y153.998 E7.90558
G1 X225.516 Y153.868 E7.92982
G1 X225.339 Y153.846 E7.93877
G1 X239.517 Y168.024 E8.94735
G1 X239.664 Y168.659 E8.98014
G1 X224.781 Y153.777 E10.03883
G1 X224.223 Y153.708 E10.06711
G1 X239.704 Y169.189 E11.16837
G1 X239.744 Y169.718 E11.19507
G1 X223.665 Y153.639 E12.33888
G1 X223.107 Y153.57 E12.36716
G1 X239.785 Y170.247 E13.55355
G1 X239.825 Y170.776 E13.58025
G1 X222.597 Y153.548 E14.80581
G1 X222.122 Y153.562 E14.82971
G1 X239.866 Y171.306 E16.09193
G1 X239.838 Y171.767 E16.1152
G1 X221.647 Y153.576 E17.40928
G1 X221.172 Y153.59 E17.43318
G1 X239.804 Y172.222 E18.75859
G1 X239.769 Y172.676 E18.7815
G1 X220.697 Y153.604 E20.13822
G1 X220.222 Y153.618 E20.16213
G1 X239.734 Y173.13 E21.55018
G1 X239.7 Y173.584 E21.57309
G1 X219.8 Y153.685 E22.98867
G1 X219.387 Y153.76 E23.0098
G1 X239.665 Y174.038 E24.4523
G1 X239.576 Y174.439 E24.47291
G1 X218.974 Y153.836 E25.93849
G1 X218.561 Y153.912 E25.95961
G1 X239.484 Y174.835 E27.448
G1 X239.392 Y175.232 E27.46848
G1 X218.148 Y153.988 E28.97969
G1 X217.735 Y154.064 E29.00081
G1 X239.3 Y175.628 E30.53484
G1 X239.207 Y176.025 E30.55532
G1 X217.342 Y154.159 E32.11076
G1 X216.979 Y154.285 E32.13009
G1 X239.115 Y176.422 E33.70479
G1 X239.01 Y176.805 E33.7248
G1 X216.616 Y154.411 E35.31785
G1 X216.253 Y154.537 E35.33717
G1 X238.87 Y177.154 E36.94609
G1 X238.73 Y177.503 E36.965
G1 X215.89 Y154.663 E38.58979
G1 X215.527 Y154.789 E38.60912
G1 X238.591 Y177.853 E40.24978
G1 X238.451 Y178.202 E40.26869
G1 X215.164 Y154.915 E41.92523
G1 X214.815 Y155.054 E41.94415
G1 X238.311 Y178.551 E43.61559
G1 X238.171 Y178.9 E43.6345
G1 X214.494 Y155.223 E45.31879
G1 X214.174 Y155.391 E45.33699
G1 X238.029 Y179.247 E47.03398
G1 X237.848 Y179.554 E47.05193
G1 X213.854 Y155.56 E48.7588
G1 X213.533 Y155.728 E48.77701
G1 X237.666 Y179.862 E50.49375
G1 X237.485 Y180.169 E50.5117
G1 X213.213 Y155.897 E52.23833
G1 X212.893 Y156.065 E52.25654
G1 X237.303 Y180.476 E53.99304
G1 X237.122 Y180.784 E54.01099
G1 X212.572 Y156.234 E55.75737
G1 X212.252 Y156.402 E55.77558
G1 X236.94 Y181.091 E57.53184
G1 X236.759 Y181.398 E57.5498
G1 X211.931 Y156.571 E59.31594
G1 X211.611 Y156.739 E59.33414
G1 X236.561 Y181.689 E61.10896
G1 X236.341 Y181.958 E61.12643
G1 X211.291 Y156.908 E62.90838
G1 X210.97 Y157.076 E62.92659
G1 X236.121 Y182.227 E64.71569
G1 X235.901 Y182.496 E64.73316
G1 X210.65 Y157.245 E66.52939
G1 X210.33 Y157.414 E66.5476
G1 X235.681 Y182.764 E68.35097
G1 X235.461 Y183.033 E68.36845
G1 X210.009 Y157.582 E70.17896
G1 X209.684 Y157.746 E70.19727
G1 X235.241 Y183.302 E72.01527
G1 X235.021 Y183.571 E72.03274
G1 X209.317 Y157.868 E73.86118
G1 X208.951 Y157.99 E73.88062
G1 X234.777 Y183.817 E75.71784
G1 X234.52 Y184.048 E75.73525
G1 X208.584 Y158.112 E77.58026
G1 X208.217 Y158.234 E77.5997
G1 X234.263 Y184.28 E79.45249
G1 X234.005 Y184.511 E79.4699
G1 X207.85 Y158.356 E81.33047
G1 X207.484 Y158.478 E81.34991
G1 X233.748 Y184.743 E83.21827
G1 X233.491 Y184.974 E83.23568
G1 X207.117 Y158.601 E85.11182
G1 X206.75 Y158.723 E85.13126
G1 X233.233 Y185.206 E87.01518
G1 X232.976 Y185.437 E87.03259
G1 X206.333 Y158.794 E88.92788
G1 X205.912 Y158.863 E88.94931
G1 X232.689 Y185.639 E90.85412
G1 X232.394 Y185.833 E90.87188
G1 X205.492 Y158.931 E92.7856
G1 X205.071 Y158.999 E92.80704
G1 X232.099 Y186.027 E94.72968
G1 X231.803 Y186.22 E94.74744
G1 X204.65 Y159.067 E96.67901
G1 X204.23 Y159.135 E96.70044
G1 X231.508 Y186.414 E98.64093
G1 X231.213 Y186.607 E98.65869
G1 X203.809 Y159.204 E100.60809
G1 X203.61 Y159.236 E100.61824
G1 X203.353 Y159.236 E100.63119
G1 X230.918 Y186.801 E102.59206
G1 X230.648 Y186.978 E102.60827
G1 X230.619 Y186.991 E102.60989
G1 X202.864 Y159.236 E104.58429
G1 X202.375 Y159.236 E104.60888
G1 X230.283 Y187.144 E106.59417
G1 X229.947 Y187.297 E106.61273
G1 X201.886 Y159.236 E108.60892
G1 X201.397 Y159.236 E108.63351
G1 X229.612 Y187.45 E110.64059
G1 X229.276 Y187.604 E110.65915
G1 X200.908 Y159.236 E112.67712
G1 X200.413 Y159.229 E112.70204
G1 X228.94 Y187.757 E114.73137
G1 X228.604 Y187.91 E114.74993
G1 X199.829 Y159.135 E116.79688
G1 X199.246 Y159.04 E116.82661
G1 X228.269 Y188.063 E118.89118
G1 X227.9 Y188.183 E118.91069
G1 X198.662 Y158.946 E120.99054
G1 X198.079 Y158.851 E121.02027
G1 X227.519 Y188.291 E123.11451
G1 X227.138 Y188.399 E123.13443
G1 X197.496 Y158.756 E125.24306
G1 X197.337 Y158.731 E125.25115
G1 X196.803 Y158.553 E125.27944
G1 X226.757 Y188.506 E127.41021
G1 X226.375 Y188.614 E127.43013
G1 X196.07 Y158.309 E129.58593
G1 X195.337 Y158.065 E129.62479
G1 X225.994 Y188.722 E131.80561
G1 X225.613 Y188.83 E131.82553
G1 X194.604 Y157.821 E134.03139
G1 X194.341 Y157.733 E134.04537
G1 X193.681 Y157.386 E134.08289
G1 X225.185 Y188.89 E136.32402
G1 X224.75 Y188.944 E136.34607
G1 X192.649 Y156.843 E138.62962
G1 X191.618 Y156.301 E138.68823
G1 X224.315 Y188.998 E141.01421
G1 X223.88 Y189.052 E141.03626
G1 X190.586 Y155.758 E143.40465
G1 X189.555 Y155.216 E143.46327
G1 X223.445 Y189.106 E145.87409
G1 X223.01 Y189.16 E145.89614
G1 X188.694 Y154.844 E148.33725
G1 X187.946 Y154.584 E148.3771
G1 X222.529 Y189.167 E150.83723
G1 X222.025 Y189.153 E150.86257
G1 X187.197 Y154.324 E153.34012
G1 X186.579 Y154.11 E153.37303
G1 X186.474 Y154.091 E153.37837
G1 X221.522 Y189.138 E155.87149
G1 X221.018 Y189.123 E155.89683
G1 X185.876 Y153.981 E158.39673
G1 X185.277 Y153.871 E158.42735
G1 X220.514 Y189.108 E160.93403
G1 X220.155 Y189.098 E160.95212
G1 X219.984 Y189.066 E160.96088
G1 X184.678 Y153.761 E163.47239
G1 X184.079 Y153.651 E163.50301
G1 X219.385 Y188.957 E166.01452
G1 X218.786 Y188.847 E166.04515
G1 X183.548 Y153.609 E168.55182
G1 X183.045 Y153.594 E168.57716
G1 X218.187 Y188.737 E171.07706
G1 X217.588 Y188.627 E171.10768
G1 X182.541 Y153.58 E173.6008
G1 X182.038 Y153.565 E173.62615
G1 X216.866 Y188.393 E176.1037
G1 X216.117 Y188.133 E176.14356
G1 X181.534 Y153.55 E178.60368
G1 X181.194 Y153.54 E178.62082
G1 X181.053 Y153.558 E178.62795
G1 X215.369 Y187.874 E181.06907
G1 X214.917 Y187.717 E181.09311
G1 X214.508 Y187.502 E181.11637
G1 X180.618 Y153.611 E183.52719
G1 X180.183 Y153.665 E183.54924
G1 X213.477 Y186.959 E185.91764
G1 X212.445 Y186.417 E185.97626
G1 X179.748 Y153.719 E188.30224
G1 X179.313 Y153.773 E188.32428
G1 X211.414 Y185.874 E190.60784
G1 X210.382 Y185.332 E190.66646
G1 X178.878 Y153.827 E192.90759
G1 X178.45 Y153.888 E192.92934
G1 X209.458 Y184.897 E195.13519
G1 X208.726 Y184.652 E195.17405
