; generated by PrusaSlicer 2.4.2 on 2022-08-30 at 18:59:33 UTC

; 

; external perimeters extrusion width = 0.45mm
; perimeters extrusion width = 0.45mm
; infill extrusion width = 0.45mm
; solid infill extrusion width = 0.45mm
; top infill extrusion width = 0.40mm
; support material extrusion width = 0.35mm
; first layer extrusion width = 0.42mm

M107
M190 S60 ; set bed temperature and wait for it to be reached
M104 S215 ; set temperature
;TYPE:Custom
G28 ; home all axes
G1 Z5 F5000 ; lift nozzle
M109 S215 ; set temperature and wait for it to be reached
G21 ; set units to millimeters
G90 ; use absolute coordinates
M82 ; use absolute distances for extrusion
G92 E0
; Filament gcode
M107
;LAYER_CHANGE
;Z:0.35
;HEIGHT:0.35
G1 Z.35 F7800
G1 E-2 F2400
G92 E0
G1 Z3.35 F7800
G1 X147.087 Y165.657
G1 Z.35
G1 E2 F2400
;TYPE:Skirt/Brim
;WIDTH:0.42
G1 F1800
G1 X148.829 Y164.243 E2.11262
G1 X151.371 Y163.475 E2.24589
G1 X198.735 Y159.56 E4.63101
G1 X199.846 Y159.565 E4.68676
G1 X241.916 Y163.481 E6.8072
G1 X244.078 Y164.081 E6.91982
G1 X245.897 Y165.396 E7.03245
G1 X247.143 Y167.262 E7.14507
G1 X247.673 Y169.799 E7.27512
G1 X247.673 Y203.52 E8.96747
G1 X247.276 Y205.729 E9.08009
G1 X246.135 Y207.661 E9.19272
G1 X244.393 Y209.076 E9.30534
G1 X241.916 Y209.838 E9.43539
G1 X199.846 Y213.754 E11.55584
G1 X198.735 Y213.759 E11.61158
G1 X151.371 Y209.844 E13.9967
G1 X149.202 Y209.266 E14.10932
G1 X147.371 Y207.97 E14.22194
G1 X146.105 Y206.117 E14.33457
G1 X145.549 Y203.52 E14.46784
G1 X145.549 Y169.799 E16.16019
G1 X145.946 Y167.59 E16.27281
G1 X147.056 Y165.709 E16.38242
G1 E14.38242 F2400
G92 E0
G1 Z3.35 F7800
G1 X193.897 Y172.603
G1 Z.35
G1 E2 F2400
;TYPE:Support material interface
;WIDTH:0.35
G1 F1800
G1 X193.897 Y200.587 E3.11939
G1 X194.183 Y200.587 E3.13081
G1 X194.183 Y172.731 E4.24506
G1 X194.468 Y172.731 E4.25649
G1 X194.468 Y200.587 E5.37074
G1 X194.754 Y200.587 E5.38216
G1 X194.754 Y172.731 E6.49641
G1 X195.04 Y172.731 E6.50784
G1 X195.04 Y200.587 E7.62208
G1 X195.325 Y200.587 E7.63351
G1 X195.325 Y172.731 E8.74776
G1 X195.611 Y172.731 E8.75918
G1 X195.611 Y200.587 E9.87343
G1 X195.897 Y200.587 E9.88486
G1 X195.897 Y172.731 E10.99911
G1 X196.182 Y172.731 E11.01053
G1 X196.182 Y200.716 E12.12992
G1 E10.12992 F2400
G92 E0
G1 Z3.35 F7800
G1 X198.467 Y200.716
G1 Z.35
G1 E2 F2400
G1 F1800
G1 X198.467 Y172.731 E3.11939
G1 X198.753 Y172.731 E3.13081
G1 X198.753 Y200.587 E4.24506
G1 X199.038 Y200.587 E4.25649
G1 X199.038 Y172.731 E5.37074
G1 X199.324 Y172.731 E5.38216
G1 X199.324 Y200.716 E6.50155
G1 E4.50155 F2400
G92 E0
G1 Z3.35 F7800
G1 X199.258 Y169.799
G1 Z.35
G1 E2 F2400
;TYPE:Support material
;WIDTH:0.42
G1 F1800
G1 X241.328 Y169.799 E4.11132
G1 X241.328 Y203.52 E5.80367
G1 X199.258 Y203.52 E7.91499
G1 X199.258 Y207.436 E8.1115
G1 X195.342 Y203.52 E8.38942
G1 X151.894 Y203.52 E10.56991
G1 X151.894 Y169.799 E12.26226
G1 X195.342 Y169.799 E14.44276
G1 X199.258 Y165.883 E14.72067
G1 X199.258 Y169.747 E14.91459
G1 X197.072 Y172.342 F7800
G1 F1800
G1 X197.036 Y172.378 E14.91718
G1 X193.472 Y172.378 E15.09602
G1 X193.472 Y200.94 E16.52943
G1 X197.036 Y200.94 E16.70827
G1 X197.072 Y200.977 E16.71086
G1 X197.783 Y200.977 E16.74651
G1 X197.819 Y200.94 E16.7491
G1 X199.749 Y200.94 E16.84597
G1 X199.749 Y172.378 E18.27938
G1 X197.819 Y172.378 E18.37625
G1 X197.783 Y172.342 E18.37884
G1 X197.124 Y172.342 E18.41189
G1 E16.41189 F2400
G92 E0
G1 Z3.35 F7800
G1 X240.68 Y203.365
G1 Z.35
G1 E2 F2400
G1 F1800
G1 X240.68 Y170.109 E3.66898
G1 X240.297 Y170.109 E3.68822
G1 X240.297 Y203.21 E5.34941
G1 X239.913 Y203.21 E5.36864
G1 X239.913 Y170.109 E7.02984
G1 X239.53 Y170.109 E7.04907
G1 X239.53 Y203.21 E8.71027
G1 X239.147 Y203.21 E8.7295
G1 X239.147 Y170.109 E10.39069
G1 X238.764 Y170.109 E10.40993
G1 X238.764 Y203.21 E12.07112
G1 X238.381 Y203.21 E12.09035
G1 X238.381 Y170.109 E13.75155
G1 X237.997 Y170.109 E13.77078
G1 X237.997 Y203.21 E15.43198
G1 X237.614 Y203.21 E15.45121
G1 X237.614 Y170.109 E17.1124
G1 X237.231 Y170.109 E17.13163
G1 X237.231 Y203.21 E18.79283
G1 X236.848 Y203.21 E18.81206
G1 X236.848 Y170.109 E20.47326
G1 X236.465 Y170.109 E20.49249
G1 X236.465 Y203.21 E22.15368
G1 X236.081 Y203.21 E22.17292
G1 X236.081 Y170.109 E23.83411
G1 X235.698 Y170.109 E23.85334
G1 X235.698 Y203.21 E25.51454
G1 X235.315 Y203.21 E25.53377
G1 X235.315 Y170.109 E27.19497
G1 X234.932 Y170.109 E27.2142
G1 X234.932 Y203.21 E28.87539
G1 X234.548 Y203.21 E28.89463
G1 X234.548 Y170.109 E30.55582
G1 X234.165 Y170.109 E30.57505
G1 X234.165 Y203.21 E32.23625
G1 X233.782 Y203.21 E32.25548
G1 X233.782 Y170.109 E33.91668
G1 X233.399 Y170.109 E33.93591
G1 X233.399 Y203.21 E35.5971
G1 X233.016 Y203.21 E35.61633
G1 X233.016 Y170.109 E37.27753
G1 X232.632 Y170.109 E37.29676
G1 X232.632 Y203.21 E38.95796
G1 X232.249 Y203.21 E38.97719
G1 X232.249 Y170.109 E40.63838
G1 X231.866 Y170.109 E40.65762
G1 X231.866 Y203.21 E42.31881
G1 X231.483 Y203.21 E42.33804
G1 X231.483 Y170.109 E43.99924
G1 X231.1 Y170.109 E44.01847
G1 X231.1 Y203.21 E45.67967
G1 X230.716 Y203.21 E45.6989
G1 X230.716 Y170.109 E47.36009
G1 X230.333 Y170.109 E47.37933
G1 X230.333 Y203.21 E49.04052
G1 X229.95 Y203.21 E49.05975
G1 X229.95 Y170.109 E50.72095
G1 X229.567 Y170.109 E50.74018
G1 X229.567 Y203.21 E52.40138
G1 X229.184 Y203.21 E52.42061
G1 X229.184 Y170.109 E54.0818
G1 X228.8 Y170.109 E54.10103
G1 X228.8 Y203.21 E55.76223
G1 X228.417 Y203.21 E55.78146
G1 X228.417 Y170.109 E57.44266
G1 X228.034 Y170.109 E57.46189
G1 X228.034 Y203.21 E59.12308
G1 X227.651 Y203.21 E59.14232
G1 X227.651 Y170.109 E60.80351
G1 X227.267 Y170.109 E60.82274
G1 X227.267 Y203.21 E62.48394
G1 X226.884 Y203.21 E62.50317
G1 X226.884 Y170.109 E64.16437
G1 X226.501 Y170.109 E64.1836
G1 X226.501 Y203.21 E65.84479
G1 X226.118 Y203.21 E65.86403
G1 X226.118 Y170.109 E67.52522
G1 X225.735 Y170.109 E67.54445
G1 X225.735 Y203.21 E69.20565
G1 X225.351 Y203.21 E69.22488
G1 X225.351 Y170.109 E70.88608
G1 X224.968 Y170.109 E70.90531
G1 X224.968 Y203.21 E72.5665
G1 X224.585 Y203.21 E72.58573
G1 X224.585 Y170.109 E74.24693
G1 X224.202 Y170.109 E74.26616
G1 X224.202 Y203.21 E75.92736
G1 X223.819 Y203.21 E75.94659
G1 X223.819 Y170.109 E77.60778
G1 X223.435 Y170.109 E77.62702
G1 X223.435 Y203.21 E79.28821
G1 X223.052 Y203.21 E79.30744
G1 X223.052 Y170.109 E80.96864
G1 X222.669 Y170.109 E80.98787
G1 X222.669 Y203.21 E82.64907
G1 X222.286 Y203.21 E82.6683
G1 X222.286 Y170.109 E84.32949
G1 X221.903 Y170.109 E84.34873
G1 X221.903 Y203.21 E86.00992
G1 X221.519 Y203.21 E86.02915
G1 X221.519 Y170.109 E87.69035
G1 X221.136 Y170.109 E87.70958
G1 X221.136 Y203.21 E89.37078
G1 X220.753 Y203.21 E89.39001
G1 X220.753 Y170.109 E91.0512
G1 X220.37 Y170.109 E91.07043
G1 X220.37 Y203.21 E92.73163
G1 X219.986 Y203.21 E92.75086
G1 X219.986 Y170.109 E94.41206
G1 X219.603 Y170.109 E94.43129
G1 X219.603 Y203.21 E96.09248
G1 X219.22 Y203.21 E96.11172
G1 X219.22 Y170.109 E97.77291
G1 X218.837 Y170.109 E97.79214
G1 X218.837 Y203.21 E99.45334
G1 X218.454 Y203.21 E99.47257
G1 X218.454 Y170.109 E101.13377
G1 X218.07 Y170.109 E101.153
G1 X218.07 Y203.21 E102.81419
G1 X217.687 Y203.21 E102.83343
G1 X217.687 Y170.109 E104.49462
G1 X217.304 Y170.109 E104.51385
G1 X217.304 Y203.21 E106.17505
G1 X216.921 Y203.21 E106.19428
G1 X216.921 Y170.109 E107.85548
G1 X216.538 Y170.109 E107.87471
G1 X216.538 Y203.21 E109.5359
G1 X216.154 Y203.21 E109.55513
G1 X216.154 Y170.109 E111.21633
G1 X215.771 Y170.109 E111.23556
G1 X215.771 Y203.21 E112.89676
G1 X215.388 Y203.21 E112.91599
G1 X215.388 Y170.109 E114.57718
G1 X215.005 Y170.109 E114.59642
G1 X215.005 Y203.21 E116.25761
G1 X214.622 Y203.21 E116.27684
G1 X214.622 Y170.109 E117.93804
G1 X214.238 Y170.109 E117.95727
G1 X214.238 Y203.21 E119.61847
G1 X213.855 Y203.21 E119.6377
G1 X213.855 Y170.109 E121.29889
G1 X213.472 Y170.109 E121.31812
G1 X213.472 Y203.21 E122.97932
G1 X213.089 Y203.21 E122.99855
G1 X213.089 Y170.109 E124.65975
G1 X212.706 Y170.109 E124.67898
G1 X212.706 Y203.21 E126.34018
G1 X212.322 Y203.21 E126.35941
G1 X212.322 Y170.109 E128.0206
G1 X211.939 Y170.109 E128.03983
G1 X211.939 Y203.21 E129.70103
G1 X211.556 Y203.21 E129.72026
G1 X211.556 Y170.109 E131.38146
G1 X211.173 Y170.109 E131.40069
G1 X211.173 Y203.21 E133.06188
G1 X210.789 Y203.21 E133.08112
G1 X210.789 Y170.109 E134.74231
G1 X210.406 Y170.109 E134.76154
G1 X210.406 Y203.21 E136.42274
G1 X210.023 Y203.21 E136.44197
G1 X210.023 Y170.109 E138.10317
G1 X209.64 Y170.109 E138.1224
G1 X209.64 Y203.21 E139.78359
G1 X209.257 Y203.21 E139.80282
G1 X209.257 Y170.109 E141.46402
G1 X208.873 Y170.109 E141.48325
G1 X208.873 Y203.21 E143.14445
G1 X208.49 Y203.21 E143.16368
G1 X208.49 Y170.109 E144.82488
G1 X208.107 Y170.109 E144.84411
G1 X208.107 Y203.21 E146.5053
G1 X207.724 Y203.21 E146.52453
G1 X207.724 Y170.109 E148.18573
G1 X207.341 Y170.109 E148.20496
G1 X207.341 Y203.21 E149.86616
G1 X206.957 Y203.21 E149.88539
G1 X206.957 Y170.109 E151.54658
G1 X206.574 Y170.109 E151.56582
G1 X206.574 Y203.21 E153.22701
G1 X206.191 Y203.21 E153.24624
G1 X206.191 Y170.109 E154.90744
G1 X205.808 Y170.109 E154.92667
G1 X205.808 Y203.21 E156.58787
G1 X205.425 Y203.21 E156.6071
G1 X205.425 Y170.109 E158.26829
G1 X205.041 Y170.109 E158.28752
G1 X205.041 Y203.21 E159.94872
G1 X204.658 Y203.21 E159.96795
G1 X204.658 Y170.109 E161.62915
G1 X204.275 Y170.109 E161.64838
G1 X204.275 Y203.21 E163.30957
G1 X203.892 Y203.21 E163.32881
G1 X203.892 Y170.109 E164.99
G1 X203.508 Y170.109 E165.00923
G1 X203.508 Y203.21 E166.67043
G1 X203.125 Y203.21 E166.68966
G1 X203.125 Y170.109 E168.35086
G1 X202.742 Y170.109 E168.37009
G1 X202.742 Y203.21 E170.03128
G1 X202.359 Y203.21 E170.05052
G1 X202.359 Y170.109 E171.71171
G1 X201.976 Y170.109 E171.73094
G1 X201.976 Y203.21 E173.39214
G1 X201.592 Y203.21 E173.41137
G1 X201.592 Y170.109 E175.07257
G1 X201.209 Y170.109 E175.0918
G1 X201.209 Y203.21 E176.75299
G1 X200.826 Y203.21 E176.77222
G1 X200.826 Y170.109 E178.43342
G1 X200.443 Y170.109 E178.45265
G1 X200.443 Y203.21 E180.11385
G1 X200.06 Y203.21 E180.13308
G1 X200.06 Y170.109 E181.79427
G1 X199.676 Y170.109 E181.81351
G1 X199.676 Y172.068 E181.91182
G1 X199.293 Y172.068 E181.93105
G1 X199.293 Y170.109 E182.02937
G1 X198.947 Y170.109 E182.04672
G1 X198.947 Y166.632 E182.22121
G1 X198.91 Y166.67 E182.22386
G1 X198.91 Y172.068 E182.49478
G1 X198.527 Y172.068 E182.51402
G1 X198.527 Y167.053 E182.76571
G1 X198.144 Y167.436 E182.7929
G1 X198.144 Y172.068 E183.02536
G1 X197.948 Y172.068 E183.03519
G1 X197.911 Y172.031 E183.03778
G1 X197.76 Y172.031 E183.04535
G1 X197.76 Y167.819 E183.25675
G1 X197.377 Y168.202 E183.28395
G1 X197.377 Y172.031 E183.47611
G1 X196.994 Y172.031 E183.49534
G1 X196.994 Y168.586 E183.66827
G1 X196.611 Y168.969 E183.69547
G1 X196.611 Y172.068 E183.851
G1 X196.227 Y172.068 E183.87023
G1 X196.227 Y169.352 E184.00653
G1 X195.844 Y169.735 E184.03373
G1 X195.844 Y172.068 E184.1508
G1 X195.461 Y172.068 E184.17003
G1 X195.461 Y170.109 E184.26835
G1 X195.078 Y170.109 E184.28758
G1 X195.078 Y172.068 E184.38589
G1 X194.695 Y172.068 E184.40512
G1 X194.695 Y170.109 E184.50344
G1 X194.311 Y170.109 E184.52267
G1 X194.311 Y172.068 E184.62098
G1 X193.928 Y172.068 E184.64022
G1 X193.928 Y170.109 E184.73853
G1 X193.545 Y170.109 E184.75776
G1 X193.545 Y172.223 E184.86387
G1 E182.86387 F2400
G92 E0
G1 Z3.35 F7800
G1 X199.676 Y203.365
G1 Z.35
G1 E2 F2400
G1 F1800
G1 X199.676 Y201.251 E2.1061
G1 X199.293 Y201.251 E2.12534
G1 X199.293 Y203.21 E2.22365
G1 X198.947 Y203.21 E2.241
G1 X198.947 Y206.687 E2.41549
G1 X198.91 Y206.649 E2.41814
G1 X198.91 Y201.251 E2.68907
G1 X198.527 Y201.251 E2.7083
G1 X198.527 Y206.266 E2.95999
G1 X198.144 Y205.883 E2.98718
G1 X198.144 Y201.251 E3.21964
G1 X197.948 Y201.251 E3.22947
G1 X197.911 Y201.287 E3.23206
G1 X197.76 Y201.287 E3.23963
G1 X197.76 Y205.5 E3.45103
G1 X197.377 Y205.116 E3.47823
G1 X197.377 Y201.287 E3.67039
G1 X196.994 Y201.287 E3.68962
G1 X196.994 Y204.733 E3.86255
G1 X196.611 Y204.35 E3.88975
G1 X196.611 Y201.251 E4.04528
G1 X196.227 Y201.251 E4.06451
G1 X196.227 Y203.967 E4.20081
G1 X195.844 Y203.583 E4.22801
G1 X195.844 Y201.251 E4.34508
G1 X195.461 Y201.251 E4.36431
G1 X195.461 Y203.21 E4.46262
G1 X195.078 Y203.21 E4.48186
G1 X195.078 Y201.251 E4.58017
G1 X194.695 Y201.251 E4.5994
G1 X194.695 Y203.21 E4.69772
G1 X194.311 Y203.21 E4.71695
G1 X194.311 Y201.251 E4.81526
G1 X193.928 Y201.251 E4.83449
G1 X193.928 Y203.21 E4.93281
G1 X193.545 Y203.21 E4.95204
G1 X193.545 Y201.096 E5.05814
G1 X193.162 Y203.365 F7800
G1 F1800
G1 X193.162 Y170.109 E6.72713
G1 X192.779 Y170.109 E6.74636
G1 X192.779 Y203.21 E8.40756
G1 X192.395 Y203.21 E8.42679
G1 X192.395 Y170.109 E10.08798
G1 X192.012 Y170.109 E10.10721
G1 X192.012 Y203.21 E11.76841
G1 X191.629 Y203.21 E11.78764
G1 X191.629 Y170.109 E13.44884
G1 X191.246 Y170.109 E13.46807
G1 X191.246 Y203.21 E15.12926
G1 X190.863 Y203.21 E15.1485
G1 X190.863 Y170.109 E16.80969
G1 X190.479 Y170.109 E16.82892
G1 X190.479 Y203.21 E18.49012
G1 X190.096 Y203.21 E18.50935
G1 X190.096 Y170.109 E20.17055
G1 X189.713 Y170.109 E20.18978
G1 X189.713 Y203.21 E21.85097
G1 X189.33 Y203.21 E21.87021
G1 X189.33 Y170.109 E23.5314
G1 X188.946 Y170.109 E23.55063
G1 X188.946 Y203.21 E25.21183
G1 X188.563 Y203.21 E25.23106
G1 X188.563 Y170.109 E26.89226
G1 X188.18 Y170.109 E26.91149
G1 X188.18 Y203.21 E28.57268
G1 X187.797 Y203.21 E28.59191
G1 X187.797 Y170.109 E30.25311
G1 X187.414 Y170.109 E30.27234
G1 X187.414 Y203.21 E31.93354
G1 X187.03 Y203.21 E31.95277
G1 X187.03 Y170.109 E33.61396
G1 X186.647 Y170.109 E33.6332
G1 X186.647 Y203.21 E35.29439
G1 X186.264 Y203.21 E35.31362
G1 X186.264 Y170.109 E36.97482
G1 X185.881 Y170.109 E36.99405
G1 X185.881 Y203.21 E38.65525
G1 X185.498 Y203.21 E38.67448
G1 X185.498 Y170.109 E40.33567
G1 X185.114 Y170.109 E40.35491
G1 X185.114 Y203.21 E42.0161
G1 X184.731 Y203.21 E42.03533
G1 X184.731 Y170.109 E43.69653
G1 X184.348 Y170.109 E43.71576
G1 X184.348 Y203.21 E45.37696
G1 X183.965 Y203.21 E45.39619
G1 X183.965 Y170.109 E47.05738
G1 X183.582 Y170.109 E47.07661
G1 X183.582 Y203.21 E48.73781
G1 X183.198 Y203.21 E48.75704
G1 X183.198 Y170.109 E50.41824
G1 X182.815 Y170.109 E50.43747
G1 X182.815 Y203.21 E52.09866
G1 X182.432 Y203.21 E52.1179
G1 X182.432 Y170.109 E53.77909
G1 X182.049 Y170.109 E53.79832
G1 X182.049 Y203.21 E55.45952
G1 X181.665 Y203.21 E55.47875
G1 X181.665 Y170.109 E57.13995
G1 X181.282 Y170.109 E57.15918
G1 X181.282 Y203.21 E58.82037
G1 X180.899 Y203.21 E58.83961
G1 X180.899 Y170.109 E60.5008
G1 X180.516 Y170.109 E60.52003
G1 X180.516 Y203.21 E62.18123
G1 X180.133 Y203.21 E62.20046
G1 X180.133 Y170.109 E63.86166
G1 X179.749 Y170.109 E63.88089
G1 X179.749 Y203.21 E65.54208
G1 X179.366 Y203.21 E65.56131
G1 X179.366 Y170.109 E67.22251
G1 X178.983 Y170.109 E67.24174
G1 X178.983 Y203.21 E68.90294
G1 X178.6 Y203.21 E68.92217
G1 X178.6 Y170.109 E70.58336
G1 X178.217 Y170.109 E70.6026
G1 X178.217 Y203.21 E72.26379
G1 X177.833 Y203.21 E72.28302
G1 X177.833 Y170.109 E73.94422
G1 X177.45 Y170.109 E73.96345
G1 X177.45 Y203.21 E75.62465
G1 X177.067 Y203.21 E75.64388
G1 X177.067 Y170.109 E77.30507
G1 X176.684 Y170.109 E77.32431
G1 X176.684 Y203.21 E78.9855
G1 X176.301 Y203.21 E79.00473
G1 X176.301 Y170.109 E80.66593
G1 X175.917 Y170.109 E80.68516
G1 X175.917 Y203.21 E82.34636
G1 X175.534 Y203.21 E82.36559
G1 X175.534 Y170.109 E84.02678
G1 X175.151 Y170.109 E84.04601
G1 X175.151 Y203.21 E85.70721
G1 X174.768 Y203.21 E85.72644
G1 X174.768 Y170.109 E87.38764
G1 X174.385 Y170.109 E87.40687
G1 X174.385 Y203.21 E89.06806
G1 X174.001 Y203.21 E89.0873
G1 X174.001 Y170.109 E90.74849
G1 X173.618 Y170.109 E90.76772
G1 X173.618 Y203.21 E92.42892
G1 X173.235 Y203.21 E92.44815
G1 X173.235 Y170.109 E94.10935
G1 X172.852 Y170.109 E94.12858
G1 X172.852 Y203.21 E95.78977
G1 X172.468 Y203.21 E95.80901
G1 X172.468 Y170.109 E97.4702
G1 X172.085 Y170.109 E97.48943
G1 X172.085 Y203.21 E99.15063
G1 X171.702 Y203.21 E99.16986
G1 X171.702 Y170.109 E100.83106
G1 X171.319 Y170.109 E100.85029
G1 X171.319 Y203.21 E102.51148
G1 X170.936 Y203.21 E102.53071
G1 X170.936 Y170.109 E104.19191
G1 X170.552 Y170.109 E104.21114
