; generated by PrusaSlicer 2.5.0 on 2022-10-09 at 18:13:28 UTC

; 

; external perimeters extrusion width = 0.45mm
; perimeters extrusion width = 0.45mm
; infill extrusion width = 0.45mm
; solid infill extrusion width = 0.45mm
; top infill extrusion width = 0.40mm
; first layer extrusion width = 0.42mm

; external perimeters extrusion width = 0.45mm
; perimeters extrusion width = 0.45mm
; infill extrusion width = 0.45mm
; solid infill extrusion width = 0.45mm
; top infill extrusion width = 0.40mm
; first layer extrusion width = 0.42mm

; external perimeters extrusion width = 0.45mm
; perimeters extrusion width = 0.45mm
; infill extrusion width = 0.45mm
; solid infill extrusion width = 0.45mm
; top infill extrusion width = 0.40mm
; first layer extrusion width = 0.42mm

M107
M190 S60 ; set bed temperature and wait for it to be reached
M104 S215 ; set temperature
;TYPE:Custom
G28 ; home all axes
G1 Z5 F5000 ; lift nozzle
M109 S215 ; set temperature and wait for it to be reached
G21 ; set units to millimeters
G90 ; use absolute coordinates
M82 ; use absolute distances for extrusion
G92 E0
; Filament gcode
M107
;LAYER_CHANGE
;Z:0.35
;HEIGHT:0.35
G1 Z.35 F7800
G1 E-2 F2400
G92 E0
G1 Z3.35 F7800
G1 X160.693 Y176.809
G1 Z.35
G1 E2 F2400
;TYPE:Skirt/Brim
;WIDTH:0.42
G1 F1800
G1 X162.435 Y175.394 E2.11262
G1 X165.5 Y174.605 E2.27146
G1 X234.5 Y174.605 E5.73428
G1 X236.709 Y175.002 E5.84691
G1 X238.641 Y176.143 E5.95953
G1 X240.056 Y177.885 E6.07215
G1 X240.845 Y180.95 E6.23098
G1 X240.845 Y219.05 E8.14307
G1 X240.448 Y221.259 E8.25569
G1 X239.307 Y223.191 E8.36831
G1 X237.565 Y224.606 E8.48093
G1 X234.5 Y225.395 E8.63976
G1 X165.5 Y225.395 E12.10259
G1 X163.291 Y224.998 E12.21521
G1 X161.359 Y223.857 E12.32783
G1 X159.944 Y222.115 E12.44046
G1 X159.155 Y219.05 E12.59929
G1 X159.155 Y180.95 E14.51137
G1 X159.552 Y178.741 E14.624
G1 X160.662 Y176.861 E14.73361
G1 E12.73361 F2400
G92 E0
G1 Z3.35 F7800
G1 X216.4 Y181.85
G1 Z.35
G1 E2 F2400
;TYPE:Perimeter
;WIDTH:0.42
G1 F1800
G1 X233.6 Y181.85 E2.86322
G1 X233.6 Y218.15 E4.68499
G1 X216.4 Y218.15 E5.54821
G1 X216.4 Y181.91 E7.36697
G1 X216.055 Y181.505 F7800
G1 F1800
G1 X233.945 Y181.505 E8.2648
G1 X233.945 Y218.495 E10.12119
G1 X216.055 Y218.495 E11.01902
G1 X216.055 Y181.565 E12.8724
G1 X215.71 Y181.16 F7800
;TYPE:External perimeter
G1 F1800
G1 X234.29 Y181.16 E13.80485
G1 X234.29 Y218.84 E15.69586
G1 X215.71 Y218.84 E16.62831
G1 X215.71 Y181.22 E18.5163
G1 X216.083 Y181.305 F7800
G1 E16.5163 F2400
G92 E0
G1 Z3.35 F7800
G1 X233.497 Y182.657
G1 Z.35
G1 E2 F2400
;TYPE:Solid infill
;WIDTH:0.423138
G1 F1800
G1 X232.948 Y182.108 E2.03929
G1 X232.456 Y182.108 E2.06422
G1 X233.342 Y182.994 E2.12765
G1 X233.342 Y183.486 E2.15257
G1 X231.964 Y182.108 E2.25125
G1 X231.472 Y182.108 E2.27618
G1 X233.342 Y183.978 E2.41011
G1 X233.342 Y184.471 E2.43503
G1 X230.979 Y182.108 E2.60421
G1 X230.487 Y182.108 E2.62914
G1 X233.342 Y184.963 E2.83357
G1 X233.342 Y185.455 E2.85849
G1 X229.995 Y182.108 E3.09817
G1 X229.503 Y182.108 E3.1231
G1 X233.342 Y185.947 E3.39803
G1 X233.342 Y186.439 E3.42295
G1 X229.011 Y182.108 E3.73313
G1 X228.518 Y182.108 E3.75805
G1 X233.342 Y186.932 E4.10348
G1 X233.342 Y187.424 E4.12841
G1 X228.026 Y182.108 E4.50909
G1 X227.534 Y182.108 E4.53401
G1 X233.342 Y187.916 E4.94994
G1 X233.342 Y188.408 E4.97487
G1 X227.042 Y182.108 E5.42604
G1 X226.55 Y182.108 E5.45097
G1 X233.342 Y188.9 E5.9374
G1 X233.342 Y189.392 E5.96232
G1 X226.058 Y182.108 E6.484
G1 X225.565 Y182.108 E6.50893
G1 X233.342 Y189.885 E7.06585
G1 X233.342 Y190.377 E7.09078
G1 X225.073 Y182.108 E7.68296
G1 X224.581 Y182.108 E7.70788
G1 X233.342 Y190.869 E8.33531
G1 X233.342 Y191.361 E8.36024
G1 X224.089 Y182.108 E9.02291
G1 X223.597 Y182.108 E9.04784
G1 X233.342 Y191.853 E9.74577
G1 X233.342 Y192.346 E9.77069
G1 X223.104 Y182.108 E10.50387
G1 X222.612 Y182.108 E10.52879
G1 X233.342 Y192.838 E11.29722
G1 X233.342 Y193.33 E11.32215
G1 X222.12 Y182.108 E12.12582
G1 X221.628 Y182.108 E12.15075
G1 X233.342 Y193.822 E12.98968
G1 X233.342 Y194.314 E13.0146
G1 X221.136 Y182.108 E13.88878
G1 X220.643 Y182.108 E13.9137
G1 X233.342 Y194.807 E14.82313
G1 X233.342 Y195.299 E14.84806
G1 X220.151 Y182.108 E15.79273
G1 X219.659 Y182.108 E15.81766
G1 X233.342 Y195.791 E16.79759
G1 X233.342 Y196.283 E16.82251
G1 X219.167 Y182.108 E17.83769
G1 X218.675 Y182.108 E17.86261
G1 X233.342 Y196.775 E18.91304
G1 X233.342 Y197.267 E18.93797
G1 X218.183 Y182.108 E20.02364
G1 X217.69 Y182.108 E20.04857
G1 X233.342 Y197.76 E21.16949
G1 X233.342 Y198.252 E21.19442
G1 X217.198 Y182.108 E22.3506
G1 X216.706 Y182.108 E22.37552
G1 X233.342 Y198.744 E23.56695
G1 X233.342 Y199.236 E23.59187
G1 X216.658 Y182.553 E24.78671
G1 X216.658 Y183.045 E24.81163
G1 X233.342 Y199.728 E26.00647
G1 X233.342 Y200.221 E26.03139
G1 X216.658 Y183.537 E27.22623
G1 X216.658 Y184.03 E27.25115
G1 X233.342 Y200.713 E28.44599
G1 X233.342 Y201.205 E28.47091
G1 X216.658 Y184.522 E29.66575
G1 X216.658 Y185.014 E29.69067
G1 X233.342 Y201.697 E30.8855
G1 X233.342 Y202.189 E30.91043
G1 X216.658 Y185.506 E32.10526
G1 X216.658 Y185.998 E32.13019
G1 X233.342 Y202.681 E33.32502
G1 X233.342 Y203.174 E33.34995
G1 X216.658 Y186.491 E34.54478
G1 X216.658 Y186.983 E34.56971
G1 X233.342 Y203.666 E35.76454
G1 X233.342 Y204.158 E35.78947
G1 X216.658 Y187.475 E36.9843
G1 X216.658 Y187.967 E37.00923
G1 X233.342 Y204.65 E38.20406
G1 X233.342 Y205.142 E38.22899
G1 X216.658 Y188.459 E39.42382
G1 X216.658 Y188.951 E39.44875
G1 X233.342 Y205.635 E40.64358
G1 X233.342 Y206.127 E40.66851
G1 X216.658 Y189.444 E41.86334
G1 X216.658 Y189.936 E41.88827
G1 X233.342 Y206.619 E43.0831
G1 X233.342 Y207.111 E43.10803
G1 X216.658 Y190.428 E44.30286
G1 X216.658 Y190.92 E44.32779
G1 X233.342 Y207.603 E45.52262
G1 X233.342 Y208.095 E45.54755
G1 X216.658 Y191.412 E46.74238
G1 X216.658 Y191.905 E46.76731
G1 X233.342 Y208.588 E47.96214
G1 X233.342 Y209.08 E47.98707
G1 X216.658 Y192.397 E49.1819
G1 X216.658 Y192.889 E49.20683
G1 X233.342 Y209.572 E50.40166
G1 X233.342 Y210.064 E50.42659
G1 X216.658 Y193.381 E51.62142
G1 X216.658 Y193.873 E51.64635
G1 X233.342 Y210.556 E52.84118
G1 X233.342 Y211.049 E52.86611
G1 X216.658 Y194.365 E54.06094
G1 X216.658 Y194.858 E54.08586
G1 X233.342 Y211.541 E55.2807
G1 X233.342 Y212.033 E55.30562
G1 X216.658 Y195.35 E56.50046
G1 X216.658 Y195.842 E56.52538
G1 X233.342 Y212.525 E57.72022
G1 X233.342 Y213.017 E57.74514
G1 X216.658 Y196.334 E58.93998
G1 X216.658 Y196.826 E58.9649
G1 X233.342 Y213.51 E60.15974
G1 X233.342 Y214.002 E60.18466
G1 X216.658 Y197.319 E61.3795
G1 X216.658 Y197.811 E61.40442
G1 X233.342 Y214.494 E62.59926
G1 X233.342 Y214.986 E62.62418
G1 X216.658 Y198.303 E63.81902
G1 X216.658 Y198.795 E63.84394
G1 X233.342 Y215.478 E65.03878
G1 X233.342 Y215.97 E65.0637
G1 X216.658 Y199.287 E66.25854
G1 X216.658 Y199.779 E66.28346
G1 X233.342 Y216.463 E67.4783
G1 X233.342 Y216.955 E67.50322
G1 X216.658 Y200.272 E68.69806
G1 X216.658 Y200.764 E68.72298
G1 X233.342 Y217.447 E69.91782
G1 X233.342 Y217.892 E69.94033
G1 X233.294 Y217.892 E69.94274
G1 X216.658 Y201.256 E71.13417
G1 X216.658 Y201.748 E71.15909
G1 X232.802 Y217.892 E72.31527
G1 X232.31 Y217.892 E72.34019
G1 X216.658 Y202.24 E73.46112
G1 X216.658 Y202.733 E73.48604
G1 X231.817 Y217.892 E74.57172
G1 X231.325 Y217.892 E74.59664
G1 X216.658 Y203.225 E75.64707
G1 X216.658 Y203.717 E75.67199
G1 X230.833 Y217.892 E76.68717
G1 X230.341 Y217.892 E76.71209
G1 X216.658 Y204.209 E77.69202
G1 X216.658 Y204.701 E77.71694
G1 X229.849 Y217.892 E78.66162
G1 X229.356 Y217.892 E78.68655
G1 X216.658 Y205.194 E79.59597
G1 X216.658 Y205.686 E79.6209
G1 X228.864 Y217.892 E80.49507
G1 X228.372 Y217.892 E80.52
G1 X216.658 Y206.178 E81.35892
G1 X216.658 Y206.67 E81.38385
G1 X227.88 Y217.892 E82.18752
G1 X227.388 Y217.892 E82.21245
G1 X216.658 Y207.162 E82.98088
G1 X216.658 Y207.654 E83.0058
G1 X226.896 Y217.892 E83.73898
G1 X226.403 Y217.892 E83.7639
G1 X216.658 Y208.147 E84.46183
G1 X216.658 Y208.639 E84.48675
G1 X225.911 Y217.892 E85.14943
G1 X225.419 Y217.892 E85.17436
G1 X216.658 Y209.131 E85.80178
G1 X216.658 Y209.623 E85.82671
G1 X224.927 Y217.892 E86.41888
G1 X224.435 Y217.892 E86.44381
G1 X216.658 Y210.115 E87.00074
G1 X216.658 Y210.608 E87.02566
G1 X223.942 Y217.892 E87.54734
G1 X223.45 Y217.892 E87.57226
G1 X216.658 Y211.1 E88.05869
G1 X216.658 Y211.592 E88.08362
G1 X222.958 Y217.892 E88.53479
G1 X222.466 Y217.892 E88.55972
G1 X216.658 Y212.084 E88.97565
G1 X216.658 Y212.576 E89.00057
G1 X221.974 Y217.892 E89.38125
G1 X221.482 Y217.892 E89.40617
G1 X216.658 Y213.068 E89.7516
G1 X216.658 Y213.561 E89.77653
G1 X220.989 Y217.892 E90.0867
G1 X220.497 Y217.892 E90.11163
G1 X216.658 Y214.053 E90.38656
G1 X216.658 Y214.545 E90.41148
G1 X220.005 Y217.892 E90.65116
G1 X219.513 Y217.892 E90.67608
G1 X216.658 Y215.037 E90.88051
G1 X216.658 Y215.529 E90.90544
G1 X219.021 Y217.892 E91.07461
G1 X218.528 Y217.892 E91.09954
G1 X216.658 Y216.022 E91.23347
G1 X216.658 Y216.514 E91.25839
G1 X218.036 Y217.892 E91.35707
G1 X217.544 Y217.892 E91.382
G1 X216.658 Y217.006 E91.44542
G1 X216.658 Y217.498 E91.47035
G1 X217.207 Y218.047 E91.50964
G1 E89.50964 F2400
G92 E0
G1 Z3.35 F7800
G1 X191.4 Y181.85
G1 Z.35
G1 E2 F2400
;TYPE:Perimeter
;WIDTH:0.42
G1 F1800
G1 X208.6 Y181.85 E2.86322
G1 X208.6 Y218.15 E4.68499
G1 X191.4 Y218.15 E5.54821
G1 X191.4 Y181.91 E7.36697
G1 X191.055 Y181.505 F7800
G1 F1800
G1 X208.945 Y181.505 E8.2648
G1 X208.945 Y218.495 E10.12119
G1 X191.055 Y218.495 E11.01902
G1 X191.055 Y181.565 E12.8724
G1 X190.71 Y181.16 F7800
;TYPE:External perimeter
G1 F1800
G1 X209.29 Y181.16 E13.80485
G1 X209.29 Y218.84 E15.69586
G1 X190.71 Y218.84 E16.62831
G1 X190.71 Y181.22 E18.5163
G1 X191.083 Y181.305 F7800
G1 E16.5163 F2400
G92 E0
G1 Z3.35 F7800
G1 X208.497 Y182.657
G1 Z.35
G1 E2 F2400
;TYPE:Solid infill
;WIDTH:0.423138
G1 F1800
G1 X207.948 Y182.108 E2.03929
G1 X207.456 Y182.108 E2.06422
G1 X208.342 Y182.994 E2.12765
G1 X208.342 Y183.486 E2.15257
G1 X206.964 Y182.108 E2.25125
G1 X206.472 Y182.108 E2.27618
G1 X208.342 Y183.978 E2.41011
G1 X208.342 Y184.471 E2.43503
G1 X205.979 Y182.108 E2.60421
G1 X205.487 Y182.108 E2.62914
G1 X208.342 Y184.963 E2.83357
G1 X208.342 Y185.455 E2.85849
G1 X204.995 Y182.108 E3.09817
G1 X204.503 Y182.108 E3.1231
G1 X208.342 Y185.947 E3.39803
G1 X208.342 Y186.439 E3.42295
G1 X204.011 Y182.108 E3.73313
G1 X203.518 Y182.108 E3.75805
G1 X208.342 Y186.932 E4.10348
G1 X208.342 Y187.424 E4.12841
G1 X203.026 Y182.108 E4.50909
G1 X202.534 Y182.108 E4.53401
G1 X208.342 Y187.916 E4.94994
G1 X208.342 Y188.408 E4.97487
G1 X202.042 Y182.108 E5.42604
G1 X201.55 Y182.108 E5.45097
G1 X208.342 Y188.9 E5.9374
G1 X208.342 Y189.392 E5.96232
G1 X201.058 Y182.108 E6.484
G1 X200.565 Y182.108 E6.50893
G1 X208.342 Y189.885 E7.06585
G1 X208.342 Y190.377 E7.09078
G1 X200.073 Y182.108 E7.68296
G1 X199.581 Y182.108 E7.70788
G1 X208.342 Y190.869 E8.33531
G1 X208.342 Y191.361 E8.36024
G1 X199.089 Y182.108 E9.02291
G1 X198.597 Y182.108 E9.04784
G1 X208.342 Y191.853 E9.74577
G1 X208.342 Y192.346 E9.77069
G1 X198.104 Y182.108 E10.50387
G1 X197.612 Y182.108 E10.52879
G1 X208.342 Y192.838 E11.29722
G1 X208.342 Y193.33 E11.32215
G1 X197.12 Y182.108 E12.12582
G1 X196.628 Y182.108 E12.15075
G1 X208.342 Y193.822 E12.98968
G1 X208.342 Y194.314 E13.0146
G1 X196.136 Y182.108 E13.88878
G1 X195.643 Y182.108 E13.9137
G1 X208.342 Y194.807 E14.82313
G1 X208.342 Y195.299 E14.84806
G1 X195.151 Y182.108 E15.79273
G1 X194.659 Y182.108 E15.81766
G1 X208.342 Y195.791 E16.79759
G1 X208.342 Y196.283 E16.82251
G1 X194.167 Y182.108 E17.83769
G1 X193.675 Y182.108 E17.86261
G1 X208.342 Y196.775 E18.91304
G1 X208.342 Y197.267 E18.93797
G1 X193.183 Y182.108 E20.02364
G1 X192.69 Y182.108 E20.04857
G1 X208.342 Y197.76 E21.16949
G1 X208.342 Y198.252 E21.19442
G1 X192.198 Y182.108 E22.3506
G1 X191.706 Y182.108 E22.37552
G1 X208.342 Y198.744 E23.56695
G1 X208.342 Y199.236 E23.59187
G1 X191.658 Y182.553 E24.78671
G1 X191.658 Y183.045 E24.81163
G1 X208.342 Y199.728 E26.00647
G1 X208.342 Y200.221 E26.03139
G1 X191.658 Y183.537 E27.22623
G1 X191.658 Y184.03 E27.25115
G1 X208.342 Y200.713 E28.44599
G1 X208.342 Y201.205 E28.47091
G1 X191.658 Y184.522 E29.66575
G1 X191.658 Y185.014 E29.69067
G1 X208.342 Y201.697 E30.8855
G1 X208.342 Y202.189 E30.91043
G1 X191.658 Y185.506 E32.10526
G1 X191.658 Y185.998 E32.13019
G1 X208.342 Y202.681 E33.32502
G1 X208.342 Y203.174 E33.34995
G1 X191.658 Y186.491 E34.54478
G1 X191.658 Y186.983 E34.56971
G1 X208.342 Y203.666 E35.76454
G1 X208.342 Y204.158 E35.78947
G1 X191.658 Y187.475 E36.9843
G1 X191.658 Y187.967 E37.00923
G1 X208.342 Y204.65 E38.20406
G1 X208.342 Y205.142 E38.22899
G1 X191.658 Y188.459 E39.42382
G1 X191.658 Y188.951 E39.44875
G1 X208.342 Y205.635 E40.64358
G1 X208.342 Y206.127 E40.66851
G1 X191.658 Y189.444 E41.86334
G1 X191.658 Y189.936 E41.88827
G1 X208.342 Y206.619 E43.0831
G1 X208.342 Y207.111 E43.10803
G1 X191.658 Y190.428 E44.30286
G1 X191.658 Y190.92 E44.32779
G1 X208.342 Y207.603 E45.52262
G1 X208.342 Y208.095 E45.54755
G1 X191.658 Y191.412 E46.74238
G1 X191.658 Y191.905 E46.76731
G1 X208.342 Y208.588 E47.96214
G1 X208.342 Y209.08 E47.98707
G1 X191.658 Y192.397 E49.1819
G1 X191.658 Y192.889 E49.20683
G1 X208.342 Y209.572 E50.40166
G1 X208.342 Y210.064 E50.42659
G1 X191.658 Y193.381 E51.62142
G1 X191.658 Y193.873 E51.64635
G1 X208.342 Y210.556 E52.84118
G1 X208.342 Y211.049 E52.86611
G1 X191.658 Y194.365 E54.06094
G1 X191.658 Y194.858 E54.08586
G1 X208.342 Y211.541 E55.2807
G1 X208.342 Y212.033 E55.30562
G1 X191.658 Y195.35 E56.50046
G1 X191.658 Y195.842 E56.52538
G1 X208.342 Y212.525 E57.72022
G1 X208.342 Y213.017 E57.74514
G1 X191.658 Y196.334 E58.93998
G1 X191.658 Y196.826 E58.9649
G1 X208.342 Y213.51 E60.15974
G1 X208.342 Y214.002 E60.18466
G1 X191.658 Y197.319 E61.3795
G1 X191.658 Y197.811 E61.40442
G1 X208.342 Y214.494 E62.59926
G1 X208.342 Y214.986 E62.62418
G1 X191.658 Y198.303 E63.81902
G1 X191.658 Y198.795 E63.84394
G1 X208.342 Y215.478 E65.03878
G1 X208.342 Y215.97 E65.0637
G1 X191.658 Y199.287 E66.25854
G1 X191.658 Y199.779 E66.28346
G1 X208.342 Y216.463 E67.4783
G1 X208.342 Y216.955 E67.50322
G1 X191.658 Y200.272 E68.69806
G1 X191.658 Y200.764 E68.72298
G1 X208.342 Y217.447 E69.91782
G1 X208.342 Y217.892 E69.94033
G1 X208.294 Y217.892 E69.94274
G1 X191.658 Y201.256 E71.13417
G1 X191.658 Y201.748 E71.15909
G1 X207.802 Y217.892 E72.31527
G1 X207.31 Y217.892 E72.34019
G1 X191.658 Y202.24 E73.46112
G1 X191.658 Y202.733 E73.48604
G1 X206.817 Y217.892 E74.57172
G1 X206.325 Y217.892 E74.59664
G1 X191.658 Y203.225 E75.64707
G1 X191.658 Y203.717 E75.67199
G1 X205.833 Y217.892 E76.68717
G1 X205.341 Y217.892 E76.71209
G1 X191.658 Y204.209 E77.69202
G1 X191.658 Y204.701 E77.71694
G1 X204.849 Y217.892 E78.66162
G1 X204.356 Y217.892 E78.68655
G1 X191.658 Y205.194 E79.59597
G1 X191.658 Y205.686 E79.6209
G1 X203.864 Y217.892 E80.49507
G1 X203.372 Y217.892 E80.52
G1 X191.658 Y206.178 E81.35892
G1 X191.658 Y206.67 E81.38385
G1 X202.88 Y217.892 E82.18752
G1 X202.388 Y217.892 E82.21245
G1 X191.658 Y207.162 E82.98088
G1 X191.658 Y207.654 E83.0058
G1 X201.896 Y217.892 E83.73898
G1 X201.403 Y217.892 E83.7639
G1 X191.658 Y208.147 E84.46183
G1 X191.658 Y208.639 E84.48675
G1 X200.911 Y217.892 E85.14943
G1 X200.419 Y217.892 E85.17436
G1 X191.658 Y209.131 E85.80178
G1 X191.658 Y209.623 E85.82671
G1 X199.927 Y217.892 E86.41888
G1 X199.435 Y217.892 E86.44381
G1 X191.658 Y210.115 E87.00074
G1 X191.658 Y210.608 E87.02566
G1 X198.942 Y217.892 E87.54734
G1 X198.45 Y217.892 E87.57226
G1 X191.658 Y211.1 E88.05869
G1 X191.658 Y211.592 E88.08362
G1 X197.958 Y217.892 E88.53479
G1 X197.466 Y217.892 E88.55972
G1 X191.658 Y212.084 E88.97565
G1 X191.658 Y212.576 E89.00057
G1 X196.974 Y217.892 E89.38125
G1 X196.482 Y217.892 E89.40617
G1 X191.658 Y213.068 E89.7516
G1 X191.658 Y213.561 E89.77653
G1 X195.989 Y217.892 E90.0867
G1 X195.497 Y217.892 E90.11163
G1 X191.658 Y214.053 E90.38656
G1 X191.658 Y214.545 E90.41148
G1 X195.005 Y217.892 E90.65116
G1 X194.513 Y217.892 E90.67608
G1 X191.658 Y215.037 E90.88051
G1 X191.658 Y215.529 E90.90544
