; generated by PrusaSlicer 2.5.0 on 2022-10-09 at 17:04:54 UTC

; 

; external perimeters extrusion width = 0.45mm
; perimeters extrusion width = 0.45mm
; infill extrusion width = 0.45mm
; solid infill extrusion width = 0.45mm
; top infill extrusion width = 0.40mm
; first layer extrusion width = 0.42mm

M107
M190 S60 ; set bed temperature and wait for it to be reached
M104 S215 ; set temperature
;TYPE:Custom
G28 ; home all axes
G1 Z5 F5000 ; lift nozzle
M109 S215 ; set temperature and wait for it to be reached
G21 ; set units to millimeters
G90 ; use absolute coordinates
M82 ; use absolute distances for extrusion
G92 E0
; Filament gcode
M107
;LAYER_CHANGE
;Z:0.35
;HEIGHT:0.35
G1 Z.35 F7800
G1 E-2 F2400
G92 E0
G1 Z3.35 F7800
G1 X169.693 Y151.359
G1 Z.35
G1 E2 F2400
;TYPE:Skirt/Brim
;WIDTH:0.42
G1 F1800
G1 X171.435 Y149.944 E2.11262
G1 X174.5 Y149.155 E2.27146
G1 X224.5 Y149.155 E4.78075
G1 X225.328 Y149.209 E4.8224
G1 X227.428 Y149.772 E4.93151
G1 X229.07 Y150.759 E5.02763
G1 X230.241 Y151.93 E5.11076
G1 X231.328 Y153.813 E5.21986
G1 X231.757 Y155.413 E5.30299
G1 X231.845 Y156.5 E5.35772
G1 X231.845 Y244.5 E9.77408
G1 X231.448 Y246.709 E9.8867
G1 X230.307 Y248.641 E9.99933
G1 X228.565 Y250.056 E10.11195
G1 X225.5 Y250.845 E10.27078
G1 X175.5 Y250.845 E12.78008
G1 X174.413 Y250.757 E12.83481
G1 X172.572 Y250.228 E12.93094
G1 X170.93 Y249.241 E13.02707
G1 X169.6 Y247.863 E13.1232
G1 X168.672 Y246.187 E13.21933
G1 X168.243 Y244.587 E13.30245
G1 X168.155 Y243.5 E13.35718
G1 X168.155 Y155.5 E17.77354
G1 X168.552 Y153.291 E17.88617
G1 X169.662 Y151.411 E17.99578
G1 E15.99578 F2400
G92 E0
G1 Z3.35 F7800
G1 X177.498 Y156.5
G1 Z.35
G1 E2 F2400
;TYPE:Perimeter
;WIDTH:0.620089
G1 F1800
G1 X177.437 Y156.522 E2.00509
;WIDTH:0.585097
G1 X177.377 Y156.543 E2.00986
;WIDTH:0.550106
G1 X177.135 Y156.63 E2.02762
;WIDTH:0.506737
G1 X176.893 Y156.717 E2.04377
;WIDTH:0.463368
G1 X176.651 Y156.805 E2.05829
;WIDTH:0.42
G1 X176.156 Y157.156 E2.08876
G1 X175.805 Y157.651 E2.11922
;WIDTH:0.468781
G1 X175.748 Y157.741 E2.12532
;WIDTH:0.517562
G1 X175.691 Y157.832 E2.13219
;WIDTH:0.566344
G1 X175.635 Y157.922 E2.13981
;WIDTH:0.615125
G1 X175.578 Y158.013 E2.14819
;WIDTH:0.663907
G1 X175.522 Y158.103 E2.15732
G1 X175.497 Y157.996 E2.16668
;WIDTH:0.615125
G1 X175.473 Y157.89 E2.17526
;WIDTH:0.566344
G1 X175.449 Y157.784 E2.18307
;WIDTH:0.517562
G1 X175.424 Y157.677 E2.1901
;WIDTH:0.468781
G1 X175.4 Y157.571 E2.19636
;WIDTH:0.42
G1 X175.4 Y156.4 E2.25511
G1 X176.281 Y156.4 E2.29932
G1 X177.061 Y156.376 E2.33849
;WIDTH:0.422065
G1 X177.148 Y156.401 E2.34308
;WIDTH:0.471571
G1 X177.236 Y156.426 E2.34831
;WIDTH:0.521077
G1 X177.323 Y156.451 E2.3542
;WIDTH:0.570583
G1 X177.41 Y156.475 E2.36075
;WIDTH:0.620089
G1 X177.44 Y156.484 E2.36319
G1 E.36319 F2400
G92 E0
G1 Z3.35 F7800
G1 X183.331 Y167.148
G1 Z.35
G1 E2 F2400
;WIDTH:0.42
G1 F1800
G1 X183.534 Y167.222 E2.01088
;WIDTH:0.451259
G1 X183.769 Y167.315 E2.02472
;WIDTH:0.482519
G1 X184.005 Y167.408 E2.03972
G1 X184.631 Y167.48 E2.07709
;WIDTH:0.43613
G1 X185.384 Y167.477 E2.11666
;WIDTH:0.48252
G1 X185.925 Y167.408 E2.149
G1 X186.067 Y167.356 E2.15795
;WIDTH:0.453653
G1 X186.575 Y167.159 E2.18797
;WIDTH:0.42
G1 X186.904 Y167.355 E2.20718
G1 X187.262 Y167.433 E2.22556
G1 X190.819 Y167.437 E2.40408
G1 X190.819 Y168.361 E2.45047
G1 X190.459 Y168.391 E2.4686
G1 X189.991 Y168.706 E2.49692
G1 X189.827 Y169.103 E2.51847
G1 X189.819 Y178.14 E2.97199
G1 X189.181 Y178.14 E3.00399
G1 X188.938 Y178.175 E3.01634
G1 X188.662 Y178.314 E3.0318
G1 X188.42 Y178.597 E3.05054
G1 X188.319 Y179.002 E3.07148
G1 X188.319 Y213.361 E4.79581
G1 X187.681 Y213.361 E4.82781
G1 X187.363 Y213.68 E4.85042
G1 X187.363 Y171.224 E6.98111
G1 X187.317 Y170.948 E6.99511
G1 X187.195 Y170.713 E7.00843
G1 X186.913 Y170.57 E7.02431
G1 X186.913 Y168.706 E7.11785
G1 X186.79 Y168.263 E7.1409
G1 X186.631 Y168.069 E7.15353
G1 X186.409 Y167.922 E7.16688
;WIDTH:0.45126
G1 X186.184 Y167.867 E7.17953
;WIDTH:0.48252
G1 X185.96 Y167.813 E7.19325
G1 X185.591 Y167.826 E7.21512
;WIDTH:0.455573
G1 X185.222 Y167.839 E7.23555
;WIDTH:0.4404
G1 X184.465 Y167.834 E7.27579
;WIDTH:0.452806
G1 X183.802 Y167.83 E7.31224
G1 X183.392 Y167.992 E7.33645
;WIDTH:0.42
G1 X183.143 Y168.251 E7.35449
G1 X183.013 Y168.706 E7.37824
G1 X183.013 Y170.57 E7.47178
G1 X182.731 Y170.713 E7.48767
G1 X182.608 Y170.948 E7.50098
G1 X182.563 Y171.224 E7.51499
G1 X182.563 Y213.342 E9.62871
G1 X182.551 Y213.315 E9.63016
G1 X182.054 Y213.119 E9.65698
G1 X181.604 Y213.118 E9.67955
G1 X181.607 Y179.002 E11.39166
G1 X181.506 Y178.597 E11.4126
G1 X181.263 Y178.314 E11.43133
G1 X180.988 Y178.175 E11.4468
G1 X180.745 Y178.14 E11.45915
G1 X180.107 Y178.14 E11.49115
G1 X180.098 Y169.104 E11.94463
G1 X179.935 Y168.707 E11.96616
G1 X179.469 Y168.391 E11.99445
G1 X179.109 Y168.361 E12.01258
G1 X179.11 Y167.437 E12.05896
G1 X182.69 Y167.436 E12.2386
G1 X183.041 Y167.361 E12.25664
G1 X183.282 Y167.184 E12.27166
G1 X183.124 Y166.649 F7800
G1 F1800
G1 X183.47 Y166.834 E12.29132
G1 X184.068 Y167.037 E12.32305
G1 X184.636 Y167.128 E12.35191
G1 X185.325 Y167.129 E12.38646
G1 X185.862 Y167.037 E12.41381
G1 X186.295 Y166.892 E12.43676
G1 X186.825 Y166.639 E12.46622
G1 X186.838 Y166.866 E12.47766
G1 X187.047 Y167.041 E12.49136
G1 X187.262 Y167.088 E12.50239
G1 X191.164 Y167.092 E12.6982
G1 X191.164 Y168.706 E12.77919
G1 X190.548 Y168.724 E12.81012
G1 X190.267 Y168.913 E12.82711
G1 X190.164 Y169.224 E12.84353
G1 X190.164 Y178.485 E13.30832
G1 X189.035 Y178.506 E13.36498
G1 X188.87 Y178.589 E13.37425
G1 X188.724 Y178.759 E13.3855
G1 X188.664 Y179.002 E13.39806
G1 X188.664 Y213.706 E15.13969
G1 X187.681 Y213.706 E15.18901
;WIDTH:0.468691
G1 X187.484 Y213.878 E15.20399
;WIDTH:0.517382
G1 X187.288 Y214.051 E15.22083
;WIDTH:0.566073
G1 X187.091 Y214.223 E15.23952
G1 X187.066 Y213.83 E15.26769
;WIDTH:0.517382
G1 X187.042 Y213.436 E15.29307
;WIDTH:0.468691
G1 X187.018 Y213.043 E15.31565
;WIDTH:0.42
G1 X187.018 Y171.224 E17.41437
G1 X186.991 Y171.058 E17.42278
G1 X186.917 Y170.917 E17.43076
G1 X186.568 Y170.74 E17.45042
G1 X186.568 Y168.706 E17.55251
G1 X186.494 Y168.44 E17.56634
G1 X186.399 Y168.324 E17.57392
G1 X186.266 Y168.236 E17.58192
G1 X186.05 Y168.189 E17.59298
G1 X183.832 Y168.19 E17.70431
G1 X183.585 Y168.277 E17.71744
G1 X183.436 Y168.433 E17.72826
G1 X183.358 Y168.706 E17.74251
G1 X183.358 Y170.74 E17.84461
G1 X183.008 Y170.917 E17.86426
G1 X182.935 Y171.058 E17.87225
G1 X182.908 Y171.224 E17.88065
G1 X182.908 Y213.31 E19.99277
;WIDTH:0.442667
G1 X182.897 Y218.719 E20.2821
G1 X182.769 Y218.739 E20.28899
G1 X182.569 Y218.864 E20.30162
G1 X182.529 Y218.83 E20.30446
G1 X182.529 Y213.979 E20.56389
G1 X182.331 Y213.581 E20.58768
;WIDTH:0.42
G1 X181.999 Y213.462 E20.60535
G1 X181.259 Y213.463 E20.64249
G1 X181.262 Y179.002 E22.37194
G1 X181.201 Y178.759 E22.3845
G1 X181.056 Y178.589 E22.39575
G1 X180.891 Y178.506 E22.40502
G1 X180.745 Y178.485 E22.41243
G1 X179.762 Y178.485 E22.46175
G1 X179.762 Y169.224 E22.92654
G1 X179.659 Y168.914 E22.94292
G1 X179.379 Y168.724 E22.95989
G1 X178.763 Y168.706 E22.99082
G1 X178.766 Y167.093 E23.0718
G1 X182.69 Y167.091 E23.26872
G1 X182.901 Y167.046 E23.27954
G1 X183.119 Y166.862 E23.29387
G1 X183.123 Y166.709 E23.30156
G1 E21.30156 F2400
G92 E0
G1 Z3.35 F7800
G1 X184.816 Y160.015
G1 Z.35
G1 E2 F2400
;TYPE:External perimeter
;WIDTH:0.504816
G1 F1800
G1 X184.919 Y159.996 E2.00653
G1 X185.22 Y160.041 E2.0256
;WIDTH:0.457087
G1 X185.522 Y160.087 E2.04255
;WIDTH:0.409359
G1 X186.077 Y160.23 E2.07042
;WIDTH:0.406989
G1 X186.6 Y160.464 E2.09808
;WIDTH:0.406428
G1 X187.075 Y160.783 E2.1257
;WIDTH:0.405905
G1 X187.49 Y161.178 E2.15326
;WIDTH:0.405418
G1 X187.833 Y161.637 E2.18079
;WIDTH:0.404972
G1 X188.092 Y162.148 E2.20827
;WIDTH:0.404565
G1 X188.262 Y162.694 E2.23572
;WIDTH:0.404198
G1 X188.337 Y163.262 E2.26314
;WIDTH:0.40387
G1 X188.315 Y163.834 E2.29053
;WIDTH:0.403582
G1 X188.196 Y164.395 E2.31791
;WIDTH:0.405889
G1 X187.959 Y164.972 E2.34793
G1 X187.687 Y165.415 E2.37299
;WIDTH:0.402951
G1 X187.309 Y165.845 E2.40029
;WIDTH:0.423533
G1 X186.91 Y166.186 E2.42689
G1 X186.372 Y166.496 E2.4584
;WIDTH:0.42
G1 X185.832 Y166.69 E2.4872
G1 X185.266 Y166.789 E2.51601
G1 X184.641 Y166.783 E2.54739
G1 X184.127 Y166.697 E2.57357
G1 X183.585 Y166.509 E2.60237
G1 X183.082 Y166.231 E2.63117
;WIDTH:0.419616
G1 X182.641 Y165.863 E2.65994
;WIDTH:0.403675
G1 X182.259 Y165.438 E2.68729
;WIDTH:0.403977
G1 X181.957 Y164.951 E2.71469
;WIDTH:0.404321
G1 X181.741 Y164.421 E2.74212
;WIDTH:0.404703
G1 X181.618 Y163.862 E2.76958
;WIDTH:0.405124
G1 X181.591 Y163.29 E2.79708
;WIDTH:0.405585
G1 X181.661 Y162.722 E2.82461
;WIDTH:0.406086
G1 X181.827 Y162.173 E2.85219
;WIDTH:0.411815
G1 X182.047 Y161.724 E2.87673
G1 X182.386 Y161.242 E2.90559
;WIDTH:0.411323
G1 X182.803 Y160.826 E2.93442
;WIDTH:0.410792
G1 X183.287 Y160.489 E2.9632
;WIDTH:0.410219
G1 X183.822 Y160.241 E2.99195
;WIDTH:0.413035
G1 X184.404 Y160.092 E3.0215
;WIDTH:0.458925
G1 X184.661 Y160.044 E3.03613
;WIDTH:0.504816
G1 X184.757 Y160.026 E3.04223
G1 E1.04223 F2400
G92 E0
G1 Z3.35 F7800
G1 X196.929 Y210.653
G1 Z.35
G1 E2 F2400
;TYPE:Perimeter
;WIDTH:0.585317
G1 F1800
G1 X196.838 Y210.711 E2.00797
;WIDTH:0.538206
G1 X196.748 Y210.768 E2.0152
;WIDTH:0.491095
G1 X196.657 Y210.826 E2.0217
;WIDTH:0.443985
G1 X196.304 Y211.233 E2.05064
;WIDTH:0.42
G1 X196.23 Y211.584 E2.06861
G1 X196.23 Y213.48 E2.16376
G1 X194.098 Y213.485 E2.27075
G1 X193.723 Y213.558 E2.28996
G1 X193.384 Y213.485 E2.30731
G1 X192.274 Y213.473 E2.36307
G1 X192.274 Y212.521 E2.41086
G1 X192.642 Y212.49 E2.42944
G1 X192.966 Y212.319 E2.44781
G1 X193.187 Y212.035 E2.46587
G1 X193.274 Y211.659 E2.48524
G1 X193.274 Y202.521 E2.94383
G1 X193.912 Y202.521 E2.97583
G1 X194.155 Y202.486 E2.98818
G1 X194.43 Y202.348 E3.00364
G1 X194.673 Y202.064 E3.02238
G1 X194.774 Y201.659 E3.04332
G1 X194.774 Y180.578 E4.10126
G1 X195.412 Y180.578 E4.13326
G1 X195.73 Y180.311 E4.15414
G1 X195.73 Y209.708 E5.62946
G1 X195.783 Y210.006 E5.64465
G1 X195.925 Y210.254 E5.65896
G1 X196.083 Y210.404 E5.66994
;WIDTH:0.443985
G1 X196.592 Y210.582 E5.69888
;WIDTH:0.491095
G1 X196.705 Y210.606 E5.70582
;WIDTH:0.538206
G1 X196.817 Y210.629 E5.71355
;WIDTH:0.585317
G1 X196.87 Y210.641 E5.71761
G1 E3.71761 F2400
G92 E0
G1 Z3.35 F7800
G1 X208.135 Y187.991
G1 Z.35
G1 E2 F2400
;WIDTH:0.42
G1 F1800
G1 X208.135 Y188.9 E2.04561
G1 X207.748 Y188.916 E2.06508
G1 X207.232 Y189.082 E2.09224
G1 X206.797 Y189.382 E2.11879
G1 X206.734 Y188.584 E2.15896
G1 X206.754 Y188.07 E2.18478
G1 X206.803 Y187.515 E2.21273
G1 X207.232 Y187.809 E2.23883
G1 X207.69 Y187.961 E2.26301
G1 X208.075 Y187.987 E2.28241
G1 X208.48 Y187.581 F7800
G1 F1800
G1 X208.48 Y189.309 E2.36914
G1 X208.304 Y189.262 E2.37826
G1 X207.913 Y189.245 E2.39794
G1 X207.497 Y189.339 E2.41935
G1 X207.074 Y189.592 E2.44405
G1 X206.804 Y189.891 E2.46428
G1 X206.622 Y190.25 E2.4845
G1 X206.457 Y189.46 E2.52503
G1 X206.386 Y188.558 E2.57041
G1 X206.422 Y187.796 E2.60871
G1 X206.501 Y187.24 E2.63689
G1 X206.623 Y186.638 E2.66774
G1 X206.81 Y187.009 E2.68861
G1 X207.074 Y187.299 E2.70829
G1 X207.405 Y187.51 E2.72797
G1 X207.779 Y187.628 E2.74765
G1 X208.171 Y187.646 E2.76733
G1 X208.421 Y187.594 E2.78019
G1 E.78019 F2400
G92 E0
G1 Z3.35 F7800
G1 X211.635 Y184.715
G1 Z.35
G1 E2 F2400
G1 F1800
G1 X211.635 Y186.496 E2.08935
G1 X209.855 Y186.496 E2.17871
G1 X209.883 Y186.02 E2.2026
G1 X209.753 Y185.447 E2.23211
G1 X209.486 Y184.994 E2.25852
G1 X209.074 Y184.619 E2.28647
G1 X208.643 Y184.404 E2.31065
G1 X208.134 Y184.308 E2.33662
G1 X208.515 Y183.832 E2.36718
G1 X209.008 Y183.355 E2.40158
G1 X209.447 Y182.998 E2.43002
G1 X209.543 Y183.503 E2.45584
G1 X209.758 Y183.935 E2.48003
G1 X210.133 Y184.346 E2.50797
G1 X210.587 Y184.614 E2.53439
G1 X211.16 Y184.744 E2.56389
G1 X211.575 Y184.719 E2.58478
G1 X211.98 Y184.231 F7800
G1 F1800
G1 X211.98 Y186.84 E2.71572
G1 X209.371 Y186.84 E2.84666
G1 X209.521 Y186.412 E2.86944
G1 X209.538 Y186.02 E2.88912
G1 X209.454 Y185.637 E2.9088
G1 X209.273 Y185.289 E2.92848
G1 X209.009 Y185 E2.94816
G1 X208.692 Y184.796 E2.96706
G1 X208.304 Y184.67 E2.98751
G1 X207.887 Y184.653 E3.0085
G1 X207.403 Y184.786 E3.03365
G1 X207.694 Y184.305 E3.06184
G1 X208.26 Y183.6 E3.10722
G1 X208.909 Y182.97 E3.15259
G1 X209.42 Y182.587 E3.18464
G1 X209.925 Y182.264 E3.21477
G1 X209.828 Y182.57 E3.23087
G1 X209.792 Y183.031 E3.2541
G1 X209.876 Y183.414 E3.27378
G1 X210.057 Y183.762 E3.29346
G1 X210.322 Y184.052 E3.31314
G1 X210.652 Y184.263 E3.33282
G1 X211.035 Y184.383 E3.35296
G1 X211.552 Y184.381 E3.3789
G1 X211.923 Y184.251 E3.39867
G1 E1.39867 F2400
G92 E0
G1 Z3.35 F7800
G1 X214.511 Y181.667
G1 Z.35
G1 E2 F2400
G1 F1800
G1 X214.222 Y182.093 E2.02583
G1 X214.069 Y182.55 E2.05001
G1 X214.039 Y182.996 E2.07242
G1 X213.13 Y182.996 E2.11804
G1 X213.115 Y182.608 E2.1375
G1 X212.948 Y182.093 E2.16467
G1 X212.655 Y181.664 E2.19076
G1 X213.121 Y181.593 E2.2144
G1 X213.378 Y181.505 E2.22806
G1 X213.628 Y181.576 E2.2411
G1 X214.451 Y181.661 E2.28263
G1 X214.449 Y183.34 F7800
G1 F1800
G1 X212.721 Y183.34 E2.36935
G1 X212.768 Y183.165 E2.37847
G1 X212.786 Y182.773 E2.39816
G1 X212.701 Y182.39 E2.41784
G1 X212.521 Y182.042 E2.43752
G1 X212.256 Y181.752 E2.4572
G1 X211.802 Y181.487 E2.48362
G1 X212.127 Y181.394 E2.50061
G1 X213.069 Y181.252 E2.54842
G1 X213.263 Y181.182 E2.55875
G1 X213.363 Y181.013 E2.56859
G1 X213.474 Y181.175 E2.57844
G1 X213.664 Y181.233 E2.5884
G1 X214.839 Y181.357 E2.6477
G1 X215.368 Y181.487 E2.67506
G1 X215.021 Y181.67 E2.69477
G1 X214.731 Y181.935 E2.71446
G1 X214.52 Y182.265 E2.73414
G1 X214.402 Y182.639 E2.75382
G1 X214.384 Y183.031 E2.7735
G1 X214.437 Y183.282 E2.78636
G1 E.78636 F2400
G92 E0
G1 Z3.35 F7800
G1 X219.047 Y184.308
G1 Z.35
G1 E2 F2400
G1 F1800
G1 X218.527 Y184.404 E2.02655
G1 X218.096 Y184.619 E2.05073
G1 X217.684 Y184.994 E2.07868
G1 X217.417 Y185.447 E2.10509
G1 X217.287 Y186.02 E2.13459
G1 X217.315 Y186.496 E2.15849
G1 X215.535 Y186.496 E2.24784
G1 X215.535 Y184.715 E2.3372
G1 X216.01 Y184.744 E2.36109
G1 X216.583 Y184.614 E2.3906
G1 X217.037 Y184.346 E2.41701
G1 X217.411 Y183.935 E2.44495
G1 X217.627 Y183.503 E2.46914
G1 X217.723 Y182.992 E2.49524
G1 X217.87 Y183.096 E2.50431
G1 X218.507 Y183.675 E2.54751
G1 X219.008 Y184.262 E2.58622
G1 X219.774 Y184.779 F7800
G1 F1800
G1 X219.391 Y184.67 E2.6062
G1 X219.077 Y184.652 E2.62197
G1 X218.616 Y184.737 E2.64549
G1 X218.268 Y184.917 E2.66517
G1 X217.979 Y185.182 E2.68486
G1 X217.767 Y185.512 E2.70454
G1 X217.647 Y185.895 E2.72467
G1 X217.649 Y186.412 E2.75062
G1 X217.799 Y186.84 E2.77339
G1 X215.19 Y186.84 E2.90433
G1 X215.19 Y184.231 E3.03528
G1 X215.618 Y184.381 E3.05805
G1 X216.01 Y184.399 E3.07773
G1 X216.393 Y184.314 E3.09742
G1 X216.741 Y184.134 E3.1171
G1 X217.031 Y183.869 E3.13678
G1 X217.236 Y183.548 E3.15591
G1 X217.372 Y183.107 E3.17908
G1 X217.36 Y182.639 E3.20257
G1 X217.242 Y182.265 E3.22225
G1 X217.347 Y182.306 E3.22791
G1 X218.087 Y182.826 E3.27329
G1 X218.755 Y183.435 E3.31867
G1 X219.343 Y184.122 E3.36404
G1 X219.741 Y184.729 E3.40046
G1 E1.40046 F2400
G92 E0
G1 Z3.35 F7800
G1 X214.576 Y187.455
G1 Z.35
G1 E2 F2400
;TYPE:External perimeter
;WIDTH:0.918507
G1 F1800
G1 X214.61 Y187.42 E2.00593
;WIDTH:0.870734
G1 X214.644 Y187.386 E2.01153
;WIDTH:0.822962
G1 X214.678 Y187.352 E2.01679
;WIDTH:0.77519
G1 X214.712 Y187.318 E2.02171
;WIDTH:0.727418
G1 X214.747 Y187.284 E2.0263
;WIDTH:0.679645
G1 X214.781 Y187.249 E2.03056
;WIDTH:0.631873
G1 X214.815 Y187.215 E2.03447
;WIDTH:0.584101
G1 X214.849 Y187.181 E2.03805
G1 X214.779 Y188.612 F7800
;WIDTH:0.515635
G1 F1800
G1 X214.777 Y188.259 E2.06066
G1 X214.849 Y189.71 F7800
;WIDTH:0.584103
G1 F1800
G1 X214.815 Y189.675 E2.06424
;WIDTH:0.631875
G1 X214.781 Y189.641 E2.06815
;WIDTH:0.679647
G1 X214.747 Y189.607 E2.0724
;WIDTH:0.72742
G1 X214.712 Y189.573 E2.07699
;WIDTH:0.775192
G1 X214.678 Y189.539 E2.08192
;WIDTH:0.822964
G1 X214.644 Y189.504 E2.08718
;WIDTH:0.870736
G1 X214.61 Y189.47 E2.09278
;WIDTH:0.918509
G1 X214.576 Y189.436 E2.09871
G1 X213.752 Y189.64 F7800
;WIDTH:0.515631
G1 F1800
G1 X213.399 Y189.637 E2.12131
