; generated by PrusaSlicer 2.4.0 on 2022-02-10 at 16:27:19 UTC


;
;

;
;
; 

; external perimeters extrusion width = 0.40mm
; perimeters extrusion width = 0.40mm
; infill extrusion width = 0.45mm
; solid infill extrusion width = 0.45mm
; top infill extrusion width = 0.40mm
; support material extrusion width = 0.30mm
; first layer extrusion width = 0.42mm

M73 P0 R527
M201 X1250 Y1250 Z400 E5000 ; sets maximum accelerations, mm/sec^2
M203 X180 Y180 Z12 E80 ; sets maximum feedrates, mm/sec
M204 P1250 R1250 T1250 ; sets acceleration (P, T) and retract acceleration (R), mm/sec^2
M205 X8.00 Y8.00 Z2.00 E10.00 ; sets the jerk limits, mm/sec
M205 S0 T0 ; sets the minimum extruding and travel feed rate, mm/sec
M107
;TYPE:Custom
G90 ; use absolute coordinates
M83 ; extruder relative mode
M104 S170 ; set extruder temp for bed leveling
M140 S60 ; set bed temp
M109 R170 ; wait for bed leveling temp
M190 S60 ; wait for bed temp
G28 ; home all without mesh bed level
G29 ; mesh bed leveling 
M104 S225 ; set extruder temp
G92 E0.0
G1 Y-2.0 X179 F2400
G1 Z3 F720
M109 S225 ; wait for extruder temp

; intro line
G1 X170 F1000
G1 Z0.2 F720
G1 X110.0 E8.0 F900
G1 X40.0 E10.0 F700
G92 E0.0

M221 S95 ; set flow
G21 ; set units to millimeters
G90 ; use absolute coordinates
M83 ; use relative distances for extrusion
M900 K0.2 ; Filament gcode LA 1.5
; ; Filament gcode LA 1.0
M107
;LAYER_CHANGE
;Z:0.2
;HEIGHT:0.2
;BEFORE_LAYER_CHANGE
G92 E0.0
;0.2


G1 Z.2 F9000
;AFTER_LAYER_CHANGE
;0.2
G1 E-3.2 F4200
G1 X128.442 Y47.076 F9000
G1 E3.2 F2400
M204 S800
;TYPE:Skirt/Brim
;WIDTH:0.42
G1 F1200
G1 X129.488 Y46.2 E.04278
G1 X130.428 Y46.006 E.03008
G1 X158.806 Y46.006 E.88976
G1 X160.113 Y46.398 E.04278
G1 X160.989 Y47.444 E.04278
G1 X161.183 Y48.383 E.03008
G1 X161.183 Y259.517 E6.61995
G1 X160.791 Y260.824 E.04278
G1 X159.745 Y261.701 E.04278
G1 X158.806 Y261.894 E.03008
G1 X130.428 Y261.894 E.88976
G1 X129.121 Y261.503 E.04278
G1 X128.245 Y260.457 E.04278
G1 X128.051 Y259.517 E.03008
G1 X128.051 Y48.383 E6.61995
G1 X128.425 Y47.134 E.0409
M204 S1250
; printing object under_desk_drawer_outside_rail_right_side-Body.stl id:0 copy 0
M73 P0 R526
G1 E-2.24 F4200
;WIPE_START
G1 F7200
G1 X129.488 Y46.2 E-.78411
G1 X129.714 Y46.153 E-.12789
;WIPE_END
G1 E-.048 F4200
G1 X158.806 Y48.383 F9000
G1 E3.2 F2400
M204 S800
;TYPE:Support material interface
;WIDTH:0.3
G1 F1200
G1 X158.806 Y259.517 E4.51325
G1 X158.316 Y259.517 E.01046
G1 X158.316 Y48.383 E4.51325
G1 X157.827 Y48.383 E.01046
G1 X157.827 Y259.517 E4.51325
G1 X157.338 Y259.517 E.01046
G1 X157.338 Y48.383 E4.51325
G1 X156.848 Y48.383 E.01046
G1 X156.848 Y259.517 E4.51325
G1 X156.359 Y259.517 E.01046
G1 X156.359 Y48.383 E4.51325
G1 X155.87 Y48.383 E.01046
M73 P0 R525
G1 X155.87 Y259.517 E4.51325
G1 X155.381 Y259.517 E.01046
G1 X155.381 Y48.383 E4.51325
G1 X154.891 Y48.383 E.01046
G1 X154.891 Y259.517 E4.51325
G1 X154.402 Y259.517 E.01046
G1 X154.402 Y48.383 E4.51325
G1 X153.913 Y48.383 E.01046
G1 X153.913 Y259.517 E4.51325
G1 X153.424 Y259.517 E.01046
G1 X153.424 Y48.383 E4.51325
G1 X152.934 Y48.383 E.01046
M73 P0 R524
G1 X152.934 Y259.517 E4.51325
G1 X152.445 Y259.517 E.01046
G1 X152.445 Y48.383 E4.51325
G1 X151.956 Y48.383 E.01046
G1 X151.956 Y259.517 E4.51325
G1 X151.467 Y259.517 E.01046
G1 X151.467 Y48.383 E4.51325
G1 X150.977 Y48.383 E.01046
G1 X150.977 Y259.517 E4.51325
G1 X150.488 Y259.517 E.01046
M73 P0 R523
G1 X150.488 Y48.383 E4.51325
G1 X149.999 Y48.383 E.01046
G1 X149.999 Y259.517 E4.51325
G1 X149.509 Y259.517 E.01046
G1 X149.509 Y48.383 E4.51325
G1 X149.02 Y48.383 E.01046
G1 X149.02 Y259.517 E4.51325
G1 X148.531 Y259.517 E.01046
G1 X148.531 Y48.383 E4.51325
G1 X148.042 Y48.383 E.01046
G1 X148.042 Y259.517 E4.51325
G1 X147.552 Y259.517 E.01046
M73 P0 R522
G1 X147.552 Y48.383 E4.51325
G1 X147.063 Y48.383 E.01046
G1 X147.063 Y259.517 E4.51325
G1 X146.574 Y259.517 E.01046
G1 X146.574 Y48.383 E4.51325
G1 X146.085 Y48.383 E.01046
M73 P1 R522
G1 X146.085 Y259.517 E4.51325
G1 X145.595 Y259.517 E.01046
G1 X145.595 Y48.383 E4.51325
G1 X145.106 Y48.383 E.01046
G1 X145.106 Y259.517 E4.51325
G1 X144.617 Y259.517 E.01046
M73 P1 R521
G1 X144.617 Y48.383 E4.51325
G1 X144.127 Y48.383 E.01046
G1 X144.127 Y259.517 E4.51325
G1 X143.638 Y259.517 E.01046
G1 X143.638 Y48.383 E4.51325
G1 X143.149 Y48.383 E.01046
G1 X143.149 Y259.517 E4.51325
G1 X142.66 Y259.517 E.01046
G1 X142.66 Y48.383 E4.51325
G1 X142.17 Y48.383 E.01046
M73 P1 R520
G1 X142.17 Y259.517 E4.51325
G1 X141.681 Y259.517 E.01046
G1 X141.681 Y48.383 E4.51325
G1 X141.192 Y48.383 E.01046
G1 X141.192 Y259.517 E4.51325
G1 X140.703 Y259.517 E.01046
G1 X140.703 Y48.383 E4.51325
G1 X140.213 Y48.383 E.01046
G1 X140.213 Y259.517 E4.51325
G1 X139.724 Y259.517 E.01046
G1 X139.724 Y48.383 E4.51325
G1 X139.235 Y48.383 E.01046
M73 P1 R519
G1 X139.235 Y259.517 E4.51325
G1 X138.746 Y259.517 E.01046
G1 X138.746 Y48.383 E4.51325
G1 X138.256 Y48.383 E.01046
G1 X138.256 Y259.517 E4.51325
G1 X137.767 Y259.517 E.01046
G1 X137.767 Y48.383 E4.51325
G1 X137.278 Y48.383 E.01046
G1 X137.278 Y259.517 E4.51325
G1 X136.788 Y259.517 E.01046
G1 X136.788 Y48.383 E4.51325
G1 X136.299 Y48.383 E.01046
M73 P1 R518
G1 X136.299 Y259.517 E4.51325
G1 X135.81 Y259.517 E.01046
G1 X135.81 Y48.383 E4.51325
G1 X135.321 Y48.383 E.01046
G1 X135.321 Y259.517 E4.51325
G1 X134.831 Y259.517 E.01046
G1 X134.831 Y48.383 E4.51325
G1 X134.342 Y48.383 E.01046
G1 X134.342 Y259.517 E4.51325
G1 X133.853 Y259.517 E.01046
M73 P1 R517
G1 X133.853 Y48.383 E4.51325
G1 X133.364 Y48.383 E.01046
G1 X133.364 Y259.517 E4.51325
G1 X132.874 Y259.517 E.01046
G1 X132.874 Y48.383 E4.51325
G1 X132.385 Y48.383 E.01046
G1 X132.385 Y259.517 E4.51325
G1 X131.896 Y259.517 E.01046
G1 X131.896 Y48.383 E4.51325
G1 X131.406 Y48.383 E.01046
M73 P2 R517
G1 X131.406 Y259.517 E4.51325
G1 X130.917 Y259.517 E.01046
M73 P2 R516
G1 X130.917 Y48.383 E4.51325
G1 X130.428 Y48.383 E.01046
G1 X130.428 Y259.517 E4.51325
M204 S1250
; stop printing object under_desk_drawer_outside_rail_right_side-Body.stl id:0 copy 0
M106 S84.15
;LAYER_CHANGE
;Z:0.35
;HEIGHT:0.15
;BEFORE_LAYER_CHANGE
G92 E0.0
;0.35


G1 Z.35 F9000
;AFTER_LAYER_CHANGE
;0.35
G1 E-3.2 F4200
G1 X128.683 Y260.98 F9000
G1 E3.2 F2400
;TYPE:Skirt/Brim
;WIDTH:0.42
G1 X128.245 Y260.457 E.0165
G1 X128.051 Y259.517 E.02321
G1 X128.051 Y48.383 E5.10625
G1 X128.442 Y47.076 E.033
G1 X129.488 Y46.2 E.033
G1 X130.428 Y46.006 E.02321
G1 X158.806 Y46.006 E.68631
G1 X160.113 Y46.398 E.033
G1 X160.989 Y47.444 E.033
G1 X161.183 Y48.383 E.02321
G1 X161.183 Y259.517 E5.10625
G1 X160.791 Y260.824 E.033
G1 X159.745 Y261.701 E.033
G1 X158.806 Y261.894 E.02321
G1 X130.428 Y261.894 E.68631
G1 X129.121 Y261.503 E.033
G1 X128.721 Y261.026 E.01505
; printing object under_desk_drawer_outside_rail_right_side-Body.stl id:0 copy 0
G1 E-2.24 F4200
;WIPE_START
G1 F7200
G1 X128.245 Y260.457 E-.41131
G1 X128.062 Y259.572 E-.50069
;WIPE_END
G1 E-.048 F4200
G1 X132.706 Y255.461 F9000
G1 E3.2 F2400
M204 S300
;TYPE:Perimeter
;WIDTH:0.4
;HEIGHT:0.05
G1 F1800
G1 X132.706 Y52.039 E1.64608
G1 X156.527 Y52.039 E.19276
G1 X156.527 Y255.861 E1.64932
G1 X132.706 Y255.861 E.19276
G1 X132.706 Y255.521 E.00275
M204 S1250
G1 X132.317 Y256.25 F9000
M204 S300
;TYPE:External perimeter
G1 F1800
G1 X132.317 Y51.65 E1.65562
G1 X156.917 Y51.65 E.19906
M73 P2 R515
G1 X156.917 Y256.25 E1.65562
G1 X132.377 Y256.25 E.19858
M204 S1250
G1 X132.333 Y255.851 F9000
G1 E-2.24 F4200
;WIPE_START
G1 F7200
G1 X132.376 Y254.604 E-.912
;WIPE_END
G1 E-.048 F4200
G1 X155.524 Y255.748 F9000
G1 E3.2 F2400
M204 S1000
;TYPE:Solid infill
;WIDTH:0.451032
G1 F1800
G1 X156.217 Y255.055 E.00896
G1 X156.217 Y254.433 E.0057
G1 X155.099 Y255.55 E.01447
G1 X154.477 Y255.55 E.0057
G1 X156.217 Y253.81 E.02253
G1 X156.217 Y253.187 E.0057
G1 X153.854 Y255.55 E.03059
G1 X153.231 Y255.55 E.0057
G1 X156.217 Y252.565 E.03865
G1 X156.217 Y251.942 E.0057
G1 X152.609 Y255.55 E.04671
G1 X151.986 Y255.55 E.0057
G1 X156.217 Y251.319 E.05477
G1 X156.217 Y250.697 E.0057
G1 X151.363 Y255.55 E.06283
G1 X150.741 Y255.55 E.0057
G1 X156.217 Y250.074 E.07089
G1 X156.217 Y249.451 E.0057
G1 X150.118 Y255.55 E.07895
G1 X149.495 Y255.55 E.0057
G1 X156.217 Y248.829 E.08701
G1 X156.217 Y248.206 E.0057
G1 X148.872 Y255.55 E.09507
G1 X148.25 Y255.55 E.0057
G1 X156.217 Y247.583 E.10313
G1 X156.217 Y246.961 E.0057
G1 X147.627 Y255.55 E.11119
G1 X147.004 Y255.55 E.0057
G1 X156.217 Y246.338 E.11925
G1 X156.217 Y245.715 E.0057
G1 X146.382 Y255.55 E.12731
G1 X145.759 Y255.55 E.0057
G1 X156.217 Y245.093 E.13537
G1 X156.217 Y244.47 E.0057
G1 X145.136 Y255.55 E.14343
G1 X144.514 Y255.55 E.0057
G1 X156.217 Y243.847 E.15149
G1 X156.217 Y243.224 E.0057
G1 X143.891 Y255.55 E.15955
G1 X143.268 Y255.55 E.0057
G1 X156.217 Y242.602 E.16761
G1 X156.217 Y241.979 E.0057
G1 X142.646 Y255.55 E.17567
G1 X142.023 Y255.55 E.0057
G1 X156.217 Y241.356 E.18373
G1 X156.217 Y240.734 E.0057
G1 X141.4 Y255.55 E.19179
G1 X140.778 Y255.55 E.0057
G1 X156.217 Y240.111 E.19985
G1 X156.217 Y239.488 E.0057
G1 X140.155 Y255.55 E.20791
G1 X139.532 Y255.55 E.0057
G1 X156.217 Y238.866 E.21597
G1 X156.217 Y238.243 E.0057
G1 X138.91 Y255.55 E.22403
G1 X138.287 Y255.55 E.0057
G1 X156.217 Y237.62 E.23209
G1 X156.217 Y236.998 E.0057
G1 X137.664 Y255.55 E.24015
G1 X137.042 Y255.55 E.0057
G1 X156.217 Y236.375 E.24821
G1 X156.217 Y235.752 E.0057
G1 X136.419 Y255.55 E.25627
G1 X135.796 Y255.55 E.0057
G1 X156.217 Y235.13 E.26433
G1 X156.217 Y234.507 E.0057
G1 X135.173 Y255.55 E.27239
G1 X134.551 Y255.55 E.0057
G1 X156.217 Y233.884 E.28045
G1 X156.217 Y233.262 E.0057
G1 X133.928 Y255.55 E.28851
G1 X133.305 Y255.55 E.0057
G1 X156.217 Y232.639 E.29657
G1 X156.217 Y232.016 E.0057
G1 X133.017 Y255.216 E.3003
G1 X133.017 Y254.594 E.0057
G1 X156.217 Y231.394 E.3003
G1 X156.217 Y230.771 E.0057
G1 X133.017 Y253.971 E.3003
G1 X133.017 Y253.348 E.0057
G1 X156.217 Y230.148 E.3003
G1 X156.217 Y229.525 E.0057
G1 X133.017 Y252.726 E.3003
G1 X133.017 Y252.103 E.0057
G1 X156.217 Y228.903 E.3003
G1 X156.217 Y228.28 E.0057
G1 X133.017 Y251.48 E.3003
G1 X133.017 Y250.858 E.0057
G1 X156.217 Y227.657 E.3003
G1 X156.217 Y227.035 E.0057
G1 X133.017 Y250.235 E.3003
G1 X133.017 Y249.612 E.0057
G1 X156.217 Y226.412 E.3003
G1 X156.217 Y225.789 E.0057
G1 X133.017 Y248.989 E.3003
G1 X133.017 Y248.367 E.0057
G1 X156.217 Y225.167 E.3003
G1 X156.217 Y224.544 E.0057
G1 X133.017 Y247.744 E.3003
G1 X133.017 Y247.121 E.0057
G1 X156.217 Y223.921 E.3003
G1 X156.217 Y223.299 E.0057
G1 X133.017 Y246.499 E.3003
G1 X133.017 Y245.876 E.0057
G1 X156.217 Y222.676 E.3003
G1 X156.217 Y222.053 E.0057
G1 X133.017 Y245.253 E.3003
G1 X133.017 Y244.631 E.0057
G1 X156.217 Y221.431 E.3003
G1 X156.217 Y220.808 E.0057
G1 X133.017 Y244.008 E.3003
G1 X133.017 Y243.385 E.0057
G1 X156.217 Y220.185 E.3003
G1 X156.217 Y219.563 E.0057
G1 X133.017 Y242.763 E.3003
G1 X133.017 Y242.14 E.0057
G1 X156.217 Y218.94 E.3003
G1 X156.217 Y218.317 E.0057
G1 X133.017 Y241.517 E.3003
G1 X133.017 Y240.895 E.0057
M73 P2 R514
G1 X156.217 Y217.695 E.3003
G1 X156.217 Y217.072 E.0057
G1 X133.017 Y240.272 E.3003
G1 X133.017 Y239.649 E.0057
G1 X156.217 Y216.449 E.3003
G1 X156.217 Y215.827 E.0057
G1 X133.017 Y239.027 E.3003
G1 X133.017 Y238.404 E.0057
G1 X156.217 Y215.204 E.3003
G1 X156.217 Y214.581 E.0057
G1 X133.017 Y237.781 E.3003
G1 X133.017 Y237.159 E.0057
G1 X156.217 Y213.958 E.3003
G1 X156.217 Y213.336 E.0057
G1 X133.017 Y236.536 E.3003
G1 X133.017 Y235.913 E.0057
G1 X156.217 Y212.713 E.3003
G1 X156.217 Y212.09 E.0057
G1 X133.017 Y235.29 E.3003
G1 X133.017 Y234.668 E.0057
G1 X156.217 Y211.468 E.3003
G1 X156.217 Y210.845 E.0057
G1 X133.017 Y234.045 E.3003
G1 X133.017 Y233.422 E.0057
G1 X156.217 Y210.222 E.3003
G1 X156.217 Y209.6 E.0057
G1 X133.017 Y232.8 E.3003
G1 X133.017 Y232.177 E.0057
G1 X156.217 Y208.977 E.3003
G1 X156.217 Y208.354 E.0057
G1 X133.017 Y231.554 E.3003
G1 X133.017 Y230.932 E.0057
G1 X156.217 Y207.732 E.3003
G1 X156.217 Y207.109 E.0057
G1 X133.017 Y230.309 E.3003
G1 X133.017 Y229.686 E.0057
G1 X156.217 Y206.486 E.3003
G1 X156.217 Y205.864 E.0057
G1 X133.017 Y229.064 E.3003
G1 X133.017 Y228.441 E.0057
G1 X156.217 Y205.241 E.3003
G1 X156.217 Y204.618 E.0057
G1 X133.017 Y227.818 E.3003
G1 X133.017 Y227.196 E.0057
G1 X156.217 Y203.996 E.3003
G1 X156.217 Y203.373 E.0057
G1 X133.017 Y226.573 E.3003
G1 X133.017 Y225.95 E.0057
G1 X156.217 Y202.75 E.3003
G1 X156.217 Y202.128 E.0057
G1 X133.017 Y225.328 E.3003
G1 X133.017 Y224.705 E.0057
G1 X156.217 Y201.505 E.3003
G1 X156.217 Y200.882 E.0057
G1 X133.017 Y224.082 E.3003
G1 X133.017 Y223.46 E.0057
G1 X156.217 Y200.259 E.3003
G1 X156.217 Y199.637 E.0057
G1 X133.017 Y222.837 E.3003
G1 X133.017 Y222.214 E.0057
G1 X156.217 Y199.014 E.3003
G1 X156.217 Y198.391 E.0057
G1 X133.017 Y221.592 E.3003
G1 X133.017 Y220.969 E.0057
G1 X156.217 Y197.769 E.3003
G1 X156.217 Y197.146 E.0057
G1 X133.017 Y220.346 E.3003
G1 X133.017 Y219.723 E.0057
G1 X156.217 Y196.523 E.3003
G1 X156.217 Y195.901 E.0057
G1 X133.017 Y219.101 E.3003
G1 X133.017 Y218.478 E.0057
G1 X156.217 Y195.278 E.3003
G1 X156.217 Y194.655 E.0057
G1 X133.017 Y217.855 E.3003
G1 X133.017 Y217.233 E.0057
G1 X156.217 Y194.033 E.3003
G1 X156.217 Y193.41 E.0057
G1 X133.017 Y216.61 E.3003
G1 X133.017 Y215.987 E.0057
G1 X156.217 Y192.787 E.3003
G1 X156.217 Y192.165 E.0057
G1 X133.017 Y215.365 E.3003
G1 X133.017 Y214.742 E.0057
G1 X156.217 Y191.542 E.3003
G1 X156.217 Y190.919 E.0057
G1 X133.017 Y214.119 E.3003
G1 X133.017 Y213.497 E.0057
G1 X156.217 Y190.297 E.3003
G1 X156.217 Y189.674 E.0057
G1 X133.017 Y212.874 E.3003
G1 X133.017 Y212.251 E.0057
G1 X156.217 Y189.051 E.3003
G1 X156.217 Y188.429 E.0057
G1 X133.017 Y211.629 E.3003
G1 X133.017 Y211.006 E.0057
G1 X156.217 Y187.806 E.3003
G1 X156.217 Y187.183 E.0057
G1 X133.017 Y210.383 E.3003
G1 X133.017 Y209.761 E.0057
G1 X156.217 Y186.561 E.3003
G1 X156.217 Y185.938 E.0057
G1 X133.017 Y209.138 E.3003
G1 X133.017 Y208.515 E.0057
M73 P2 R513
G1 X156.217 Y185.315 E.3003
G1 X156.217 Y184.692 E.0057
G1 X133.017 Y207.893 E.3003
G1 X133.017 Y207.27 E.0057
G1 X156.217 Y184.07 E.3003
G1 X156.217 Y183.447 E.0057
G1 X133.017 Y206.647 E.3003
G1 X133.017 Y206.024 E.0057
G1 X156.217 Y182.824 E.3003
G1 X156.217 Y182.202 E.0057
G1 X133.017 Y205.402 E.3003
G1 X133.017 Y204.779 E.0057
G1 X156.217 Y181.579 E.3003
G1 X156.217 Y180.956 E.0057
G1 X133.017 Y204.156 E.3003
G1 X133.017 Y203.534 E.0057
G1 X156.217 Y180.334 E.3003
G1 X156.217 Y179.711 E.0057
G1 X133.017 Y202.911 E.3003
G1 X133.017 Y202.288 E.0057
G1 X156.217 Y179.088 E.3003
G1 X156.217 Y178.466 E.0057
G1 X133.017 Y201.666 E.3003
G1 X133.017 Y201.043 E.0057
G1 X156.217 Y177.843 E.3003
G1 X156.217 Y177.22 E.0057
G1 X133.017 Y200.42 E.3003
G1 X133.017 Y199.798 E.0057
G1 X156.217 Y176.598 E.3003
G1 X156.217 Y175.975 E.0057
G1 X133.017 Y199.175 E.3003
G1 X133.017 Y198.552 E.0057
G1 X156.217 Y175.352 E.3003
G1 X156.217 Y174.73 E.0057
G1 X133.017 Y197.93 E.3003
G1 X133.017 Y197.307 E.0057
G1 X156.217 Y174.107 E.3003
G1 X156.217 Y173.484 E.0057
G1 X133.017 Y196.684 E.3003
G1 X133.017 Y196.062 E.0057
G1 X156.217 Y172.862 E.3003
G1 X156.217 Y172.239 E.0057
G1 X133.017 Y195.439 E.3003
G1 X133.017 Y194.816 E.0057
G1 X156.217 Y171.616 E.3003
G1 X156.217 Y170.993 E.0057
G1 X133.017 Y194.194 E.3003
G1 X133.017 Y193.571 E.0057
G1 X156.217 Y170.371 E.3003
G1 X156.217 Y169.748 E.0057
G1 X133.017 Y192.948 E.3003
G1 X133.017 Y192.326 E.0057
G1 X156.217 Y169.125 E.3003
G1 X156.217 Y168.503 E.0057
G1 X133.017 Y191.703 E.3003
G1 X133.017 Y191.08 E.0057
G1 X156.217 Y167.88 E.3003
G1 X156.217 Y167.257 E.0057
G1 X133.017 Y190.457 E.3003
G1 X133.017 Y189.835 E.0057
G1 X156.217 Y166.635 E.3003
G1 X156.217 Y166.012 E.0057
G1 X133.017 Y189.212 E.3003
G1 X133.017 Y188.589 E.0057
G1 X156.217 Y165.389 E.3003
G1 X156.217 Y164.767 E.0057
G1 X133.017 Y187.967 E.3003
G1 X133.017 Y187.344 E.0057
G1 X156.217 Y164.144 E.3003
G1 X156.217 Y163.521 E.0057
G1 X133.017 Y186.721 E.3003
G1 X133.017 Y186.099 E.0057
G1 X156.217 Y162.899 E.3003
G1 X156.217 Y162.276 E.0057
G1 X133.017 Y185.476 E.3003
G1 X133.017 Y184.853 E.0057
G1 X156.217 Y161.653 E.3003
