; generated by PrusaSlicer 2.4.0 on 2022-02-04 at 16:18:48 UTC


;
;

;
;
; 

; external perimeters extrusion width = 0.40mm
; perimeters extrusion width = 0.40mm
; infill extrusion width = 0.45mm
; solid infill extrusion width = 0.45mm
; top infill extrusion width = 0.40mm
; support material extrusion width = 0.30mm
; first layer extrusion width = 0.42mm

M73 P0 R59
M201 X1250 Y1250 Z400 E5000 ; sets maximum accelerations, mm/sec^2
M203 X180 Y180 Z12 E80 ; sets maximum feedrates, mm/sec
M204 P1250 R1250 T1250 ; sets acceleration (P, T) and retract acceleration (R), mm/sec^2
M205 X8.00 Y8.00 Z2.00 E10.00 ; sets the jerk limits, mm/sec
M205 S0 T0 ; sets the minimum extruding and travel feed rate, mm/sec
M107
;TYPE:Custom
G90 ; use absolute coordinates
M83 ; extruder relative mode
M104 S170 ; set extruder temp for bed leveling
M140 S60 ; set bed temp
M109 R170 ; wait for bed leveling temp
M190 S60 ; wait for bed temp
G28 ; home all without mesh bed level
G29 ; mesh bed leveling 
M104 S225 ; set extruder temp
G92 E0.0
G1 Y-2.0 X179 F2400
G1 Z3 F720
M109 S225 ; wait for extruder temp

; intro line
G1 X170 F1000
G1 Z0.2 F720
G1 X110.0 E8.0 F900
G1 X40.0 E10.0 F700
G92 E0.0

M221 S95 ; set flow
G21 ; set units to millimeters
G90 ; use absolute coordinates
M83 ; use relative distances for extrusion
M900 K0.2 ; Filament gcode LA 1.5
; ; Filament gcode LA 1.0
M107
;LAYER_CHANGE
;Z:0.2
;HEIGHT:0.2
;BEFORE_LAYER_CHANGE
G92 E0.0
;0.2


G1 Z.2 F9000
;AFTER_LAYER_CHANGE
;0.2
G1 E-3.2 F4200
G1 X140.481 Y139.636 F9000
G1 E3.2 F2400
M204 S800
;TYPE:Skirt/Brim
;WIDTH:0.42
G1 F1200
G1 X141.548 Y138.623 E.04612
G1 X142.843 Y138.299 E.04186
G1 X157.157 Y138.299 E.44881
G1 X158.575 Y138.692 E.04612
G1 X159.588 Y139.758 E.04612
G1 X159.911 Y141.054 E.04186
G1 X159.911 Y158.946 E.56101
G1 X159.519 Y160.364 E.04612
G1 X158.452 Y161.377 E.04612
G1 X157.157 Y161.701 E.04186
G1 X142.843 Y161.701 E.44881
G1 X141.425 Y161.308 E.04612
G1 X140.412 Y160.242 E.04612
G1 X140.089 Y158.946 E.04186
G1 X140.089 Y141.054 E.56101
G1 X140.465 Y139.694 E.04424
M204 S1250
G1 X140.84 Y139.806 F9000
M204 S800
G1 F1200
G1 X140.857 Y139.747 E.00195
G1 X141.903 Y138.87 E.04278
G1 X142.843 Y138.677 E.03008
G1 X157.157 Y138.677 E.44881
G1 X158.464 Y139.068 E.04278
G1 X159.341 Y140.114 E.04278
G1 X159.534 Y141.054 E.03008
G1 X159.534 Y158.946 E.56101
G1 X159.143 Y160.253 E.04278
G1 X158.097 Y161.13 E.04278
G1 X157.157 Y161.323 E.03008
G1 X142.843 Y161.323 E.44881
G1 X141.536 Y160.932 E.04278
G1 X140.659 Y159.886 E.04278
G1 X140.466 Y158.946 E.03008
G1 X140.466 Y141.054 E.56101
G1 X140.822 Y139.864 E.03895
M204 S1250
; printing object inside_rail_test_print-Body.stl id:0 copy 0
G1 E-2.24 F4200
;WIPE_START
G1 F7200
G1 X140.857 Y139.747 E-.06768
G1 X141.903 Y138.87 E-.75612
G1 X142.059 Y138.838 E-.0882
;WIPE_END
G1 E-.048 F4200
G1 X143.006 Y141.054 F9000
G1 E3.2 F2400
M204 S800
;TYPE:Support material interface
;WIDTH:0.3
G1 F1200
G1 X142.843 Y141.054 E.00348
G1 X142.843 Y158.946 E.38248
G1 X143.15 Y158.946 E.00657
G1 X143.15 Y141.054 E.38248
G1 X143.64 Y141.054 E.01046
G1 X143.64 Y158.946 E.38248
G1 X144.129 Y158.946 E.01046
G1 X144.129 Y141.054 E.38248
G1 X144.618 Y141.054 E.01046
G1 X144.618 Y158.946 E.38248
G1 X145.107 Y158.946 E.01046
G1 X145.107 Y141.054 E.38248
G1 X145.597 Y141.054 E.01046
G1 X145.597 Y158.946 E.38248
G1 X146.086 Y158.946 E.01046
G1 X146.086 Y141.054 E.38248
G1 X146.575 Y141.054 E.01046
G1 X146.575 Y158.946 E.38248
G1 X147.064 Y158.946 E.01046
G1 X147.064 Y141.054 E.38248
G1 X147.554 Y141.054 E.01046
G1 X147.554 Y158.946 E.38248
G1 X148.043 Y158.946 E.01046
G1 X148.043 Y141.054 E.38248
G1 X148.532 Y141.054 E.01046
M73 P1 R59
G1 X148.532 Y158.946 E.38248
G1 X149.021 Y158.946 E.01046
G1 X149.021 Y141.054 E.38248
G1 X149.511 Y141.054 E.01046
G1 X149.511 Y158.946 E.38248
G1 X150 Y158.946 E.01046
G1 X150 Y141.054 E.38248
G1 X150.489 Y141.054 E.01046
G1 X150.489 Y158.946 E.38248
G1 X150.979 Y158.946 E.01046
G1 X150.979 Y141.054 E.38248
G1 X151.468 Y141.054 E.01046
G1 X151.468 Y158.946 E.38248
G1 X151.957 Y158.946 E.01046
G1 X151.957 Y141.054 E.38248
G1 X152.446 Y141.054 E.01046
G1 X152.446 Y158.946 E.38248
G1 X152.936 Y158.946 E.01046
G1 X152.936 Y141.054 E.38248
G1 X153.425 Y141.054 E.01046
G1 X153.425 Y158.946 E.38248
G1 X153.914 Y158.946 E.01046
G1 X153.914 Y141.054 E.38248
G1 X154.403 Y141.054 E.01046
G1 X154.403 Y158.946 E.38248
G1 X154.893 Y158.946 E.01046
G1 X154.893 Y141.054 E.38248
G1 X155.382 Y141.054 E.01046
G1 X155.382 Y158.946 E.38248
G1 X155.871 Y158.946 E.01046
G1 X155.871 Y141.054 E.38248
G1 X156.36 Y141.054 E.01046
G1 X156.36 Y158.946 E.38248
G1 X156.85 Y158.946 E.01046
G1 X156.85 Y141.054 E.38248
G1 X157.157 Y141.054 E.00657
M73 P1 R58
G1 X157.157 Y158.946 E.38248
G1 X156.994 Y158.946 E.00348
M204 S1250
; stop printing object inside_rail_test_print-Body.stl id:0 copy 0
M106 S84.15
;LAYER_CHANGE
;Z:0.35
;HEIGHT:0.15
;BEFORE_LAYER_CHANGE
G92 E0.0
;0.35


G1 Z.35 F9000
;AFTER_LAYER_CHANGE
;0.35
G1 E-3.2 F4200
G1 X157.652 Y161.577 F9000
G1 E3.2 F2400
;TYPE:Skirt/Brim
;WIDTH:0.42
G1 X157.157 Y161.701 E.01233
G1 X142.843 Y161.701 E.34619
G1 X141.425 Y161.308 E.03557
G1 X140.412 Y160.242 E.03557
G1 X140.089 Y158.946 E.03229
G1 X140.089 Y141.054 E.43273
G1 X140.481 Y139.636 E.03557
G1 X141.548 Y138.623 E.03557
G1 X142.843 Y138.299 E.03229
G1 X157.157 Y138.299 E.34619
G1 X158.575 Y138.692 E.03557
G1 X159.588 Y139.758 E.03557
G1 X159.911 Y141.054 E.03229
G1 X159.911 Y158.946 E.43273
G1 X159.519 Y160.364 E.03557
G1 X158.452 Y161.377 E.03557
G1 X157.71 Y161.562 E.01851
G1 X157.64 Y161.224 F9000
G1 F2400
G1 X157.157 Y161.323 E.01192
G1 X142.843 Y161.323 E.34619
G1 X141.536 Y160.932 E.033
G1 X140.659 Y159.886 E.033
G1 X140.466 Y158.946 E.02321
G1 X140.466 Y141.054 E.43273
G1 X140.857 Y139.747 E.033
G1 X141.903 Y138.87 E.033
G1 X142.843 Y138.677 E.02321
G1 X157.157 Y138.677 E.34619
G1 X158.464 Y139.068 E.033
G1 X159.341 Y140.114 E.033
G1 X159.534 Y141.054 E.02321
G1 X159.534 Y158.946 E.43273
G1 X159.143 Y160.253 E.033
G1 X158.097 Y161.13 E.033
G1 X157.699 Y161.212 E.00983
; printing object inside_rail_test_print-Body.stl id:0 copy 0
G1 E-2.24 F4200
;WIPE_START
G1 F7200
G1 X157.157 Y161.323 E-.30649
G1 X156.064 Y161.323 E-.60551
;WIPE_END
G1 E-.048 F4200
G1 X153.851 Y156.671 F9000
G1 E3.2 F2400
M204 S300
;TYPE:Perimeter
;WIDTH:0.4
;HEIGHT:0.05
G1 F1800
G1 X145.749 Y156.671 E.06556
G1 X145.749 Y143.329 E.10796
G1 X154.251 Y143.329 E.06879
G1 X154.251 Y156.671 E.10796
G1 X153.911 Y156.671 E.00275
M204 S1250
G1 X154.64 Y157.06 F9000
M204 S300
;TYPE:External perimeter
G1 F1800
G1 X145.36 Y157.06 E.07509
G1 X145.36 Y142.94 E.11426
G1 X154.64 Y142.94 E.07509
G1 X154.64 Y157 E.11377
M204 S1250
G1 X154.262 Y156.93 F9000
G1 X153.234 Y156.558
M204 S1000
;TYPE:Solid infill
;WIDTH:0.457428
G1 F1800
G1 X153.94 Y155.852 E.00927
G1 X153.94 Y155.22 E.00587
G1 X152.8 Y156.36 E.01497
G1 X152.168 Y156.36 E.00587
G1 X153.94 Y154.588 E.02327
G1 X153.94 Y153.956 E.00587
G1 X151.536 Y156.36 E.03156
G1 X150.905 Y156.36 E.00587
G1 X153.94 Y153.325 E.03986
G1 X153.94 Y152.693 E.00587
G1 X150.273 Y156.36 E.04816
G1 X149.641 Y156.36 E.00587
G1 X153.94 Y152.061 E.05645
G1 X153.94 Y151.43 E.00587
G1 X149.01 Y156.36 E.06475
G1 X148.378 Y156.36 E.00587
G1 X153.94 Y150.798 E.07304
G1 X153.94 Y150.166 E.00587
G1 X147.746 Y156.36 E.08134
G1 X147.114 Y156.36 E.00587
G1 X153.94 Y149.534 E.08963
G1 X153.94 Y148.903 E.00587
G1 X146.483 Y156.36 E.09793
G1 X146.06 Y156.36 E.00393
G1 X146.06 Y156.151 E.00194
G1 X153.94 Y148.271 E.10348
G1 X153.94 Y147.639 E.00587
G1 X146.06 Y155.519 E.10348
G1 X146.06 Y154.888 E.00587
G1 X153.94 Y147.007 E.10348
G1 X153.94 Y146.376 E.00587
G1 X146.06 Y154.256 E.10348
G1 X146.06 Y153.624 E.00587
G1 X153.94 Y145.744 E.10348
G1 X153.94 Y145.112 E.00587
G1 X146.06 Y152.992 E.10348
G1 X146.06 Y152.361 E.00587
G1 X153.94 Y144.481 E.10348
G1 X153.94 Y143.849 E.00587
G1 X146.06 Y151.729 E.10348
G1 X146.06 Y151.097 E.00587
G1 X153.517 Y143.64 E.09793
G1 X152.885 Y143.64 E.00587
G1 X146.06 Y150.465 E.08963
G1 X146.06 Y149.834 E.00587
G1 X152.254 Y143.64 E.08134
G1 X151.622 Y143.64 E.00587
G1 X146.06 Y149.202 E.07304
G1 X146.06 Y148.57 E.00587
G1 X150.99 Y143.64 E.06475
G1 X150.359 Y143.64 E.00587
G1 X146.06 Y147.939 E.05645
G1 X146.06 Y147.307 E.00587
G1 X149.727 Y143.64 E.04815
G1 X149.095 Y143.64 E.00587
G1 X146.06 Y146.675 E.03986
G1 X146.06 Y146.043 E.00587
G1 X148.463 Y143.64 E.03156
G1 X147.832 Y143.64 E.00587
G1 X146.06 Y145.412 E.02327
G1 X146.06 Y144.78 E.00587
G1 X147.2 Y143.64 E.01497
G1 X146.568 Y143.64 E.00587
G1 X145.862 Y144.346 E.00927
M204 S1250
; stop printing object inside_rail_test_print-Body.stl id:0 copy 0
M106 S170.85
;LAYER_CHANGE
;Z:0.4
;HEIGHT:0.05
;BEFORE_LAYER_CHANGE
G92 E0.0
;0.4


M73 P2 R58
G1 Z.4 F9000
;AFTER_LAYER_CHANGE
;0.4
G1 E-3.2 F4200
G1 X140.089 Y144.346 F9000
G1 E3.2 F2400
;TYPE:Skirt/Brim
;WIDTH:0.42
G1 F2095
G1 X140.089 Y141.054 E.02801
G1 X140.481 Y139.636 E.01251
G1 X141.548 Y138.623 E.01251
G1 X142.843 Y138.299 E.01136
G1 X157.157 Y138.299 E.12178
G1 X158.575 Y138.692 E.01251
G1 X159.588 Y139.758 E.01251
G1 X159.911 Y141.054 E.01136
G1 X159.911 Y158.946 E.15223
G1 X159.519 Y160.364 E.01251
G1 X158.452 Y161.377 E.01251
G1 X157.157 Y161.701 E.01136
G1 X142.843 Y161.701 E.12178
G1 X141.425 Y161.308 E.01251
G1 X140.412 Y160.242 E.01251
G1 X140.089 Y158.946 E.01136
G1 X140.089 Y144.406 E.12371
G1 X140.466 Y144.406 F9000
G1 F2095
G1 X140.466 Y141.054 E.02852
G1 X140.857 Y139.747 E.01161
G1 X141.903 Y138.87 E.01161
G1 X142.843 Y138.677 E.00816
G1 X157.157 Y138.677 E.12178
G1 X158.464 Y139.068 E.01161
G1 X159.341 Y140.114 E.01161
G1 X159.534 Y141.054 E.00816
G1 X159.534 Y158.946 E.15223
G1 X159.143 Y160.253 E.01161
G1 X158.097 Y161.13 E.01161
G1 X157.157 Y161.323 E.00816
G1 X142.843 Y161.323 E.12178
G1 X141.536 Y160.932 E.01161
G1 X140.659 Y159.886 E.01161
G1 X140.466 Y158.946 E.00816
G1 X140.466 Y144.466 E.1232
; printing object inside_rail_test_print-Body.stl id:0 copy 0
G1 E-2.24 F4200
;WIPE_START
G1 F7200
G1 X140.466 Y142.82 E-.912
;WIPE_END
G1 E-.048 F4200
G1 X146.149 Y143.329 F9000
G1 E3.2 F2400
M204 S300
;TYPE:Perimeter
;WIDTH:0.4
G1 F2095
G1 X154.251 Y143.329 E.06556
G1 X154.251 Y156.671 E.10796
G1 X145.749 Y156.671 E.06879
G1 X145.749 Y143.329 E.10796
G1 X146.089 Y143.329 E.00275
M204 S1250
G1 X145.36 Y142.94 F9000
M204 S300
;TYPE:External perimeter
G1 F2095
G1 X154.64 Y142.94 E.07509
G1 X154.64 Y157.06 E.11426
G1 X145.36 Y157.06 E.07509
G1 X145.36 Y143 E.11377
M204 S1250
G1 X145.738 Y143.07 F9000
G1 E-2.24 F4200
;WIPE_START
G1 F7200
G1 X147.006 Y142.989 E-.912
;WIPE_END
G1 E-.048 F4200
G1 X154.138 Y144.346 F9000
G1 E3.2 F2400
M204 S1000
;TYPE:Solid infill
;WIDTH:0.457427
G1 F2095
G1 X153.432 Y143.64 E.00927
G1 X152.8 Y143.64 E.00587
G1 X153.94 Y144.78 E.01497
G1 X153.94 Y145.412 E.00587
G1 X152.168 Y143.64 E.02327
G1 X151.536 Y143.64 E.00587
G1 X153.94 Y146.044 E.03156
G1 X153.94 Y146.675 E.00587
G1 X150.905 Y143.64 E.03986
G1 X150.273 Y143.64 E.00587
G1 X153.94 Y147.307 E.04816
G1 X153.94 Y147.939 E.00587
G1 X149.641 Y143.64 E.05645
G1 X149.01 Y143.64 E.00587
G1 X153.94 Y148.57 E.06475
G1 X153.94 Y149.202 E.00587
G1 X148.378 Y143.64 E.07304
G1 X147.746 Y143.64 E.00587
G1 X153.94 Y149.834 E.08134
G1 X153.94 Y150.466 E.00587
G1 X147.114 Y143.64 E.08963
G1 X146.483 Y143.64 E.00587
G1 X153.94 Y151.097 E.09793
G1 X153.94 Y151.729 E.00587
G1 X146.06 Y143.849 E.10348
G1 X146.06 Y144.481 E.00587
G1 X153.94 Y152.361 E.10348
G1 X153.94 Y152.993 E.00587
G1 X146.06 Y145.112 E.10348
G1 X146.06 Y145.744 E.00587
G1 X153.94 Y153.624 E.10348
G1 X153.94 Y154.256 E.00587
G1 X146.06 Y146.376 E.10348
G1 X146.06 Y147.008 E.00587
G1 X153.94 Y154.888 E.10348
G1 X153.94 Y155.519 E.00587
G1 X146.06 Y147.639 E.10348
G1 X146.06 Y148.271 E.00587
G1 X153.94 Y156.151 E.10348
G1 X153.94 Y156.36 E.00194
G1 X153.517 Y156.36 E.00393
G1 X146.06 Y148.903 E.09793
G1 X146.06 Y149.535 E.00587
G1 X152.885 Y156.36 E.08963
G1 X152.254 Y156.36 E.00587
G1 X146.06 Y150.166 E.08134
G1 X146.06 Y150.798 E.00587
G1 X151.622 Y156.36 E.07304
G1 X150.99 Y156.36 E.00587
G1 X146.06 Y151.43 E.06475
G1 X146.06 Y152.061 E.00587
G1 X150.359 Y156.36 E.05645
G1 X149.727 Y156.36 E.00587
G1 X146.06 Y152.693 E.04815
G1 X146.06 Y153.325 E.00587
G1 X149.095 Y156.36 E.03986
G1 X148.463 Y156.36 E.00587
G1 X146.06 Y153.957 E.03156
G1 X146.06 Y154.588 E.00587
G1 X147.832 Y156.36 E.02327
G1 X147.2 Y156.36 E.00587
G1 X146.06 Y155.22 E.01497
G1 X146.06 Y155.852 E.00587
G1 X146.766 Y156.558 E.00927
M204 S1250
; stop printing object inside_rail_test_print-Body.stl id:0 copy 0
M106 S255
;LAYER_CHANGE
;Z:0.45
;HEIGHT:0.05
;BEFORE_LAYER_CHANGE
G92 E0.0
;0.45


G1 Z.45 F9000
;AFTER_LAYER_CHANGE
;0.45
; printing object inside_rail_test_print-Body.stl id:0 copy 0
G1 X145.749 Y156.271
M204 S300
;TYPE:Perimeter
;WIDTH:0.4
G1 F1370
G1 X145.749 Y143.329 E.10472
G1 X154.251 Y143.329 E.06879
G1 X154.251 Y156.671 E.10796
G1 X145.749 Y156.671 E.06879
G1 X145.749 Y156.331 E.00275
M204 S1250
G1 X145.36 Y157.06 F9000
M204 S300
;TYPE:External perimeter
G1 F1370
G1 X145.36 Y142.94 E.11426
G1 X154.64 Y142.94 E.07509
G1 X154.64 Y157.06 E.11426
G1 X145.42 Y157.06 E.07461
M204 S1250
G1 X145.437 Y156.667 F9000
G1 E-2.24 F4200
;WIPE_START
G1 F7200
G1 X145.413 Y155.414 E-.912
;WIPE_END
G1 E-.048 F4200
G1 X153.234 Y156.558 F9000
G1 E3.2 F2400
M204 S1000
;TYPE:Solid infill
;WIDTH:0.457427
G1 F1370
G1 X153.94 Y155.852 E.00927
G1 X153.94 Y155.22 E.00587
G1 X152.8 Y156.36 E.01497
G1 X152.168 Y156.36 E.00587
G1 X153.94 Y154.588 E.02327
G1 X153.94 Y153.956 E.00587
G1 X151.536 Y156.36 E.03156
G1 X150.905 Y156.36 E.00587
G1 X153.94 Y153.325 E.03986
G1 X153.94 Y152.693 E.00587
G1 X150.273 Y156.36 E.04816
G1 X149.641 Y156.36 E.00587
G1 X153.94 Y152.061 E.05645
G1 X153.94 Y151.43 E.00587
G1 X149.01 Y156.36 E.06475
G1 X148.378 Y156.36 E.00587
G1 X153.94 Y150.798 E.07304
G1 X153.94 Y150.166 E.00587
G1 X147.746 Y156.36 E.08134
G1 X147.114 Y156.36 E.00587
G1 X153.94 Y149.534 E.08963
G1 X153.94 Y148.903 E.00587
G1 X146.483 Y156.36 E.09793
G1 X146.06 Y156.36 E.00393
G1 X146.06 Y156.151 E.00194
G1 X153.94 Y148.271 E.10348
G1 X153.94 Y147.639 E.00587
G1 X146.06 Y155.519 E.10348
G1 X146.06 Y154.888 E.00587
G1 X153.94 Y147.007 E.10348
G1 X153.94 Y146.376 E.00587
G1 X146.06 Y154.256 E.10348
G1 X146.06 Y153.624 E.00587
G1 X153.94 Y145.744 E.10348
G1 X153.94 Y145.112 E.00587
G1 X146.06 Y152.992 E.10348
G1 X146.06 Y152.361 E.00587
G1 X153.94 Y144.481 E.10348
G1 X153.94 Y143.849 E.00587
G1 X146.06 Y151.729 E.10348
G1 X146.06 Y151.097 E.00587
G1 X153.517 Y143.64 E.09793
G1 X152.885 Y143.64 E.00587
G1 X146.06 Y150.465 E.08963
G1 X146.06 Y149.834 E.00587
G1 X152.254 Y143.64 E.08134
G1 X151.622 Y143.64 E.00587
G1 X146.06 Y149.202 E.07304
G1 X146.06 Y148.57 E.00587
G1 X150.99 Y143.64 E.06475
G1 X150.359 Y143.64 E.00587
G1 X146.06 Y147.939 E.05645
G1 X146.06 Y147.307 E.00587
G1 X149.727 Y143.64 E.04815
G1 X149.095 Y143.64 E.00587
G1 X146.06 Y146.675 E.03986
G1 X146.06 Y146.043 E.00587
G1 X148.463 Y143.64 E.03156
G1 X147.832 Y143.64 E.00587
G1 X146.06 Y145.412 E.02327
G1 X146.06 Y144.78 E.00587
G1 X147.2 Y143.64 E.01497
G1 X146.568 Y143.64 E.00587
G1 X145.862 Y144.346 E.00927
M204 S1250
; stop printing object inside_rail_test_print-Body.stl id:0 copy 0
;LAYER_CHANGE
;Z:0.5
;HEIGHT:0.05
;BEFORE_LAYER_CHANGE
G92 E0.0
;0.5


G1 Z.5 F9000
;AFTER_LAYER_CHANGE
;0.5
; printing object inside_rail_test_print-Body.stl id:0 copy 0
G1 X146.149 Y143.329
M204 S300
;TYPE:Perimeter
;WIDTH:0.4
G1 F1370
G1 X154.251 Y143.329 E.06556
G1 X154.251 Y156.671 E.10796
G1 X145.749 Y156.671 E.06879
G1 X145.749 Y143.329 E.10796
G1 X146.089 Y143.329 E.00275
M204 S1250
G1 X145.36 Y142.94 F9000
M204 S300
;TYPE:External perimeter
G1 F1370
G1 X154.64 Y142.94 E.07509
G1 X154.64 Y157.06 E.11426
G1 X145.36 Y157.06 E.07509
M73 P3 R58
G1 X145.36 Y143 E.11377
M204 S1250
G1 X145.738 Y143.07 F9000
G1 E-2.24 F4200
;WIPE_START
G1 F7200
G1 X147.006 Y142.989 E-.912
;WIPE_END
G1 E-.048 F4200
G1 X154.138 Y144.346 F9000
G1 E3.2 F2400
M204 S1000
;TYPE:Solid infill
