; generated by PrusaSlicer 2.4.0 on 2022-02-08 at 04:21:27 UTC


;
;

;
;
; 

; external perimeters extrusion width = 0.40mm
; perimeters extrusion width = 0.40mm
; infill extrusion width = 0.45mm
; solid infill extrusion width = 0.45mm
; top infill extrusion width = 0.40mm
; support material extrusion width = 0.30mm
; first layer extrusion width = 0.42mm

M73 P0 R464
M201 X1250 Y1250 Z400 E5000 ; sets maximum accelerations, mm/sec^2
M203 X180 Y180 Z12 E80 ; sets maximum feedrates, mm/sec
M204 P1250 R1250 T1250 ; sets acceleration (P, T) and retract acceleration (R), mm/sec^2
M205 X8.00 Y8.00 Z2.00 E10.00 ; sets the jerk limits, mm/sec
M205 S0 T0 ; sets the minimum extruding and travel feed rate, mm/sec
M107
;TYPE:Custom
G90 ; use absolute coordinates
M83 ; extruder relative mode
M104 S170 ; set extruder temp for bed leveling
M140 S60 ; set bed temp
M109 R170 ; wait for bed leveling temp
M190 S60 ; wait for bed temp
G28 ; home all without mesh bed level
G29 ; mesh bed leveling 
M104 S225 ; set extruder temp
G92 E0.0
G1 Y-2.0 X179 F2400
G1 Z3 F720
M109 S225 ; wait for extruder temp

; intro line
M73 P0 R463
G1 X170 F1000
G1 Z0.2 F720
G1 X110.0 E8.0 F900
G1 X40.0 E10.0 F700
G92 E0.0

M221 S95 ; set flow
G21 ; set units to millimeters
G90 ; use absolute coordinates
M83 ; use relative distances for extrusion
M900 K0.2 ; Filament gcode LA 1.5
; ; Filament gcode LA 1.0
M107
;LAYER_CHANGE
;Z:0.2
;HEIGHT:0.2
;BEFORE_LAYER_CHANGE
G92 E0.0
;0.2


G1 Z.2 F9000
;AFTER_LAYER_CHANGE
;0.2
G1 E-3.2 F4200
G1 X133.826 Y43.126 F9000
G1 E3.2 F2400
M204 S800
;TYPE:Skirt/Brim
;WIDTH:0.42
G1 F1200
G1 X134.871 Y42.25 E.04278
G1 X135.811 Y42.056 E.03008
G1 X164.189 Y42.056 E.88976
G1 X165.496 Y42.448 E.04278
G1 X166.372 Y43.493 E.04278
G1 X166.566 Y44.433 E.03008
G1 X166.566 Y255.567 E6.61995
G1 X166.174 Y256.874 E.04278
G1 X165.129 Y257.75 E.04278
G1 X164.189 Y257.944 E.03008
G1 X135.811 Y257.944 E.88976
G1 X134.504 Y257.552 E.04278
G1 X133.628 Y256.507 E.04278
G1 X133.434 Y255.567 E.03008
G1 X133.434 Y44.433 E6.61995
G1 X133.808 Y43.184 E.0409
M204 S1250
; printing object outside_rail_left.stl id:0 copy 0
G1 E-2.24 F4200
;WIPE_START
G1 F7200
G1 X134.871 Y42.25 E-.78411
G1 X135.097 Y42.203 E-.12789
;WIPE_END
G1 E-.048 F4200
G1 X164.189 Y44.433 F9000
G1 E3.2 F2400
M204 S800
;TYPE:Support material interface
;WIDTH:0.3
G1 F1200
G1 X164.189 Y255.567 E4.51325
G1 X163.7 Y255.567 E.01046
G1 X163.7 Y44.433 E4.51325
G1 X163.21 Y44.433 E.01046
M73 P0 R462
G1 X163.21 Y255.567 E4.51325
G1 X162.721 Y255.567 E.01046
G1 X162.721 Y44.433 E4.51325
G1 X162.232 Y44.433 E.01046
G1 X162.232 Y255.567 E4.51325
G1 X161.742 Y255.567 E.01046
G1 X161.742 Y44.433 E4.51325
G1 X161.253 Y44.433 E.01046
G1 X161.253 Y255.567 E4.51325
G1 X160.764 Y255.567 E.01046
G1 X160.764 Y44.433 E4.51325
G1 X160.275 Y44.433 E.01046
M73 P0 R461
G1 X160.275 Y255.567 E4.51325
G1 X159.785 Y255.567 E.01046
G1 X159.785 Y44.433 E4.51325
G1 X159.296 Y44.433 E.01046
G1 X159.296 Y255.567 E4.51325
G1 X158.807 Y255.567 E.01046
G1 X158.807 Y44.433 E4.51325
G1 X158.318 Y44.433 E.01046
G1 X158.318 Y255.567 E4.51325
G1 X157.828 Y255.567 E.01046
G1 X157.828 Y44.433 E4.51325
G1 X157.339 Y44.433 E.01046
M73 P0 R460
G1 X157.339 Y255.567 E4.51325
G1 X156.85 Y255.567 E.01046
G1 X156.85 Y44.433 E4.51325
G1 X156.361 Y44.433 E.01046
G1 X156.36 Y255.567 E4.51325
G1 X155.871 Y255.567 E.01046
G1 X155.871 Y44.433 E4.51325
G1 X155.382 Y44.433 E.01046
G1 X155.382 Y255.567 E4.51325
G1 X154.893 Y255.567 E.01046
M73 P0 R459
G1 X154.893 Y44.433 E4.51325
G1 X154.403 Y44.433 E.01046
G1 X154.403 Y255.567 E4.51325
G1 X153.914 Y255.567 E.01046
G1 X153.914 Y44.433 E4.51325
G1 X153.425 Y44.433 E.01046
G1 X153.425 Y255.567 E4.51325
G1 X152.936 Y255.567 E.01046
M73 P1 R459
G1 X152.936 Y44.433 E4.51325
G1 X152.446 Y44.433 E.01046
G1 X152.446 Y255.567 E4.51325
G1 X151.957 Y255.567 E.01046
M73 P1 R458
G1 X151.957 Y44.433 E4.51325
G1 X151.468 Y44.433 E.01046
G1 X151.468 Y255.567 E4.51325
G1 X150.979 Y255.567 E.01046
G1 X150.979 Y44.433 E4.51325
G1 X150.489 Y44.433 E.01046
G1 X150.489 Y255.567 E4.51325
G1 X150 Y255.567 E.01046
G1 X150 Y44.433 E4.51325
G1 X149.511 Y44.433 E.01046
G1 X149.511 Y255.567 E4.51325
G1 X149.021 Y255.567 E.01046
M73 P1 R457
G1 X149.021 Y44.433 E4.51325
G1 X148.532 Y44.433 E.01046
G1 X148.532 Y255.567 E4.51325
G1 X148.043 Y255.567 E.01046
G1 X148.043 Y44.433 E4.51325
G1 X147.554 Y44.433 E.01046
G1 X147.554 Y255.567 E4.51325
G1 X147.064 Y255.567 E.01046
G1 X147.064 Y44.433 E4.51325
G1 X146.575 Y44.433 E.01046
M73 P1 R456
G1 X146.575 Y255.567 E4.51325
G1 X146.086 Y255.567 E.01046
G1 X146.086 Y44.433 E4.51325
G1 X145.597 Y44.433 E.01046
G1 X145.597 Y255.567 E4.51325
G1 X145.107 Y255.567 E.01046
G1 X145.107 Y44.433 E4.51325
G1 X144.618 Y44.433 E.01046
G1 X144.618 Y255.567 E4.51325
G1 X144.129 Y255.567 E.01046
G1 X144.129 Y44.433 E4.51325
G1 X143.64 Y44.433 E.01046
M73 P1 R455
G1 X143.639 Y255.567 E4.51325
G1 X143.15 Y255.567 E.01046
G1 X143.15 Y44.433 E4.51325
G1 X142.661 Y44.433 E.01046
G1 X142.661 Y255.567 E4.51325
G1 X142.172 Y255.567 E.01046
G1 X142.172 Y44.433 E4.51325
G1 X141.682 Y44.433 E.01046
G1 X141.682 Y255.567 E4.51325
G1 X141.193 Y255.567 E.01046
G1 X141.193 Y44.433 E4.51325
G1 X140.704 Y44.433 E.01046
M73 P1 R454
G1 X140.704 Y255.567 E4.51325
G1 X140.215 Y255.567 E.01046
M73 P2 R454
G1 X140.215 Y44.433 E4.51325
G1 X139.725 Y44.433 E.01046
G1 X139.725 Y255.567 E4.51325
G1 X139.236 Y255.567 E.01046
G1 X139.236 Y44.433 E4.51325
G1 X138.747 Y44.433 E.01046
G1 X138.747 Y255.567 E4.51325
G1 X138.258 Y255.567 E.01046
M73 P2 R453
G1 X138.258 Y44.433 E4.51325
G1 X137.768 Y44.433 E.01046
G1 X137.768 Y255.567 E4.51325
G1 X137.279 Y255.567 E.01046
G1 X137.279 Y44.433 E4.51325
G1 X136.79 Y44.433 E.01046
G1 X136.79 Y255.567 E4.51325
G1 X136.3 Y255.567 E.01046
G1 X136.3 Y44.433 E4.51325
G1 X135.811 Y44.433 E.01046
G1 X135.811 Y255.567 E4.51325
M204 S1250
; stop printing object outside_rail_left.stl id:0 copy 0
M106 S84.15
;LAYER_CHANGE
;Z:0.35
;HEIGHT:0.15
;BEFORE_LAYER_CHANGE
G92 E0.0
;0.35


G1 Z.35 F9000
;AFTER_LAYER_CHANGE
;0.35
M73 P2 R452
G1 E-3.2 F4200
G1 X134.066 Y257.03 F9000
G1 E3.2 F2400
;TYPE:Skirt/Brim
;WIDTH:0.42
G1 X133.628 Y256.507 E.0165
G1 X133.434 Y255.567 E.02321
G1 X133.434 Y44.433 E5.10625
G1 X133.826 Y43.126 E.033
G1 X134.871 Y42.25 E.033
G1 X135.811 Y42.056 E.02321
G1 X164.189 Y42.056 E.68631
G1 X165.496 Y42.448 E.033
G1 X166.372 Y43.493 E.033
G1 X166.566 Y44.433 E.02321
G1 X166.566 Y255.567 E5.10625
G1 X166.174 Y256.874 E.033
G1 X165.129 Y257.75 E.033
G1 X164.189 Y257.944 E.02321
G1 X135.811 Y257.944 E.68631
G1 X134.504 Y257.552 E.033
G1 X134.104 Y257.076 E.01505
; printing object outside_rail_left.stl id:0 copy 0
G1 E-2.24 F4200
;WIPE_START
G1 F7200
G1 X133.628 Y256.507 E-.41131
G1 X133.445 Y255.622 E-.50069
;WIPE_END
G1 E-.048 F4200
G1 X138.089 Y251.511 F9000
G1 E3.2 F2400
M204 S300
;TYPE:Perimeter
;WIDTH:0.4
;HEIGHT:0.05
G1 F1800
G1 X138.089 Y48.089 E1.64608
G1 X161.911 Y48.089 E.19276
G1 X161.911 Y251.911 E1.64932
G1 X138.089 Y251.911 E.19276
G1 X138.089 Y251.571 E.00275
M204 S1250
G1 X137.7 Y252.3 F9000
M204 S300
;TYPE:External perimeter
G1 F1800
G1 X137.7 Y47.7 E1.65562
G1 X162.3 Y47.7 E.19906
G1 X162.3 Y252.3 E1.65562
G1 X137.76 Y252.3 E.19858
M204 S1250
G1 X137.716 Y251.9 F9000
G1 E-2.24 F4200
;WIPE_START
G1 F7200
G1 X137.76 Y250.654 E-.912
;WIPE_END
G1 E-.048 F4200
G1 X160.908 Y251.798 F9000
G1 E3.2 F2400
M204 S1000
;TYPE:Solid infill
;WIDTH:0.451032
G1 F1800
G1 X161.6 Y251.105 E.00896
G1 X161.6 Y250.483 E.0057
G1 X160.483 Y251.6 E.01447
G1 X159.86 Y251.6 E.0057
G1 X161.6 Y249.86 E.02253
G1 X161.6 Y249.237 E.0057
G1 X159.237 Y251.6 E.03059
G1 X158.614 Y251.6 E.0057
G1 X161.6 Y248.614 E.03865
G1 X161.6 Y247.992 E.0057
G1 X157.992 Y251.6 E.04671
G1 X157.369 Y251.6 E.0057
G1 X161.6 Y247.369 E.05477
G1 X161.6 Y246.746 E.0057
G1 X156.746 Y251.6 E.06283
G1 X156.124 Y251.6 E.0057
G1 X161.6 Y246.124 E.07089
G1 X161.6 Y245.501 E.0057
G1 X155.501 Y251.6 E.07895
G1 X154.878 Y251.6 E.0057
G1 X161.6 Y244.878 E.08701
G1 X161.6 Y244.256 E.0057
G1 X154.256 Y251.6 E.09507
G1 X153.633 Y251.6 E.0057
G1 X161.6 Y243.633 E.10313
G1 X161.6 Y243.01 E.0057
G1 X153.01 Y251.6 E.11119
G1 X152.388 Y251.6 E.0057
G1 X161.6 Y242.388 E.11925
G1 X161.6 Y241.765 E.0057
G1 X151.765 Y251.6 E.12731
G1 X151.142 Y251.6 E.0057
G1 X161.6 Y241.142 E.13537
G1 X161.6 Y240.52 E.0057
G1 X150.52 Y251.6 E.14343
G1 X149.897 Y251.6 E.0057
G1 X161.6 Y239.897 E.15149
G1 X161.6 Y239.274 E.0057
G1 X149.274 Y251.6 E.15955
G1 X148.652 Y251.6 E.0057
G1 X161.6 Y238.652 E.16761
G1 X161.6 Y238.029 E.0057
G1 X148.029 Y251.6 E.17567
G1 X147.406 Y251.6 E.0057
G1 X161.6 Y237.406 E.18373
G1 X161.6 Y236.784 E.0057
M73 P2 R451
G1 X146.784 Y251.6 E.19179
G1 X146.161 Y251.6 E.0057
G1 X161.6 Y236.161 E.19985
G1 X161.6 Y235.538 E.0057
G1 X145.538 Y251.6 E.20791
G1 X144.916 Y251.6 E.0057
G1 X161.6 Y234.916 E.21597
G1 X161.6 Y234.293 E.0057
G1 X144.293 Y251.6 E.22403
G1 X143.67 Y251.6 E.0057
G1 X161.6 Y233.67 E.23209
G1 X161.6 Y233.047 E.0057
G1 X143.047 Y251.6 E.24015
G1 X142.425 Y251.6 E.0057
G1 X161.6 Y232.425 E.24821
G1 X161.6 Y231.802 E.0057
G1 X141.802 Y251.6 E.25627
G1 X141.179 Y251.6 E.0057
G1 X161.6 Y231.179 E.26433
G1 X161.6 Y230.557 E.0057
G1 X140.557 Y251.6 E.27239
G1 X139.934 Y251.6 E.0057
G1 X161.6 Y229.934 E.28045
G1 X161.6 Y229.311 E.0057
G1 X139.311 Y251.6 E.28851
G1 X138.689 Y251.6 E.0057
G1 X161.6 Y228.689 E.29657
G1 X161.6 Y228.066 E.0057
G1 X138.4 Y251.266 E.3003
G1 X138.4 Y250.643 E.0057
G1 X161.6 Y227.443 E.3003
G1 X161.6 Y226.821 E.0057
G1 X138.4 Y250.021 E.3003
G1 X138.4 Y249.398 E.0057
G1 X161.6 Y226.198 E.3003
G1 X161.6 Y225.575 E.0057
G1 X138.4 Y248.775 E.3003
G1 X138.4 Y248.153 E.0057
G1 X161.6 Y224.953 E.3003
G1 X161.6 Y224.33 E.0057
G1 X138.4 Y247.53 E.3003
G1 X138.4 Y246.907 E.0057
G1 X161.6 Y223.707 E.3003
G1 X161.6 Y223.085 E.0057
G1 X138.4 Y246.285 E.3003
G1 X138.4 Y245.662 E.0057
G1 X161.6 Y222.462 E.3003
G1 X161.6 Y221.839 E.0057
G1 X138.4 Y245.039 E.3003
G1 X138.4 Y244.417 E.0057
G1 X161.6 Y221.217 E.3003
G1 X161.6 Y220.594 E.0057
G1 X138.4 Y243.794 E.3003
G1 X138.4 Y243.171 E.0057
G1 X161.6 Y219.971 E.3003
G1 X161.6 Y219.348 E.0057
G1 X138.4 Y242.549 E.3003
G1 X138.4 Y241.926 E.0057
G1 X161.6 Y218.726 E.3003
G1 X161.6 Y218.103 E.0057
G1 X138.4 Y241.303 E.3003
G1 X138.4 Y240.681 E.0057
G1 X161.6 Y217.48 E.3003
G1 X161.6 Y216.858 E.0057
G1 X138.4 Y240.058 E.3003
G1 X138.4 Y239.435 E.0057
G1 X161.6 Y216.235 E.3003
G1 X161.6 Y215.612 E.0057
G1 X138.4 Y238.812 E.3003
G1 X138.4 Y238.19 E.0057
G1 X161.6 Y214.99 E.3003
G1 X161.6 Y214.367 E.0057
G1 X138.4 Y237.567 E.3003
G1 X138.4 Y236.944 E.0057
G1 X161.6 Y213.744 E.3003
G1 X161.6 Y213.122 E.0057
G1 X138.4 Y236.322 E.3003
G1 X138.4 Y235.699 E.0057
G1 X161.6 Y212.499 E.3003
G1 X161.6 Y211.876 E.0057
G1 X138.4 Y235.076 E.3003
G1 X138.4 Y234.454 E.0057
G1 X161.6 Y211.254 E.3003
G1 X161.6 Y210.631 E.0057
G1 X138.4 Y233.831 E.3003
G1 X138.4 Y233.208 E.0057
G1 X161.6 Y210.008 E.3003
G1 X161.6 Y209.386 E.0057
G1 X138.4 Y232.586 E.3003
G1 X138.4 Y231.963 E.0057
G1 X161.6 Y208.763 E.3003
G1 X161.6 Y208.14 E.0057
G1 X138.4 Y231.34 E.3003
G1 X138.4 Y230.718 E.0057
G1 X161.6 Y207.518 E.3003
G1 X161.6 Y206.895 E.0057
G1 X138.4 Y230.095 E.3003
G1 X138.4 Y229.472 E.0057
G1 X161.6 Y206.272 E.3003
G1 X161.6 Y205.65 E.0057
G1 X138.4 Y228.85 E.3003
G1 X138.4 Y228.227 E.0057
G1 X161.6 Y205.027 E.3003
G1 X161.6 Y204.404 E.0057
G1 X138.4 Y227.604 E.3003
G1 X138.4 Y226.982 E.0057
G1 X161.6 Y203.781 E.3003
G1 X161.6 Y203.159 E.0057
G1 X138.4 Y226.359 E.3003
G1 X138.4 Y225.736 E.0057
M73 P2 R450
G1 X161.6 Y202.536 E.3003
G1 X161.6 Y201.913 E.0057
G1 X138.4 Y225.113 E.3003
G1 X138.4 Y224.491 E.0057
G1 X161.6 Y201.291 E.3003
G1 X161.6 Y200.668 E.0057
G1 X138.4 Y223.868 E.3003
G1 X138.4 Y223.245 E.0057
G1 X161.6 Y200.045 E.3003
G1 X161.6 Y199.423 E.0057
G1 X138.4 Y222.623 E.3003
G1 X138.4 Y222 E.0057
G1 X161.6 Y198.8 E.3003
G1 X161.6 Y198.177 E.0057
G1 X138.4 Y221.377 E.3003
G1 X138.4 Y220.755 E.0057
G1 X161.6 Y197.555 E.3003
G1 X161.6 Y196.932 E.0057
G1 X138.4 Y220.132 E.3003
G1 X138.4 Y219.509 E.0057
G1 X161.6 Y196.309 E.3003
G1 X161.6 Y195.687 E.0057
G1 X138.4 Y218.887 E.3003
G1 X138.4 Y218.264 E.0057
G1 X161.6 Y195.064 E.3003
G1 X161.6 Y194.441 E.0057
G1 X138.4 Y217.641 E.3003
G1 X138.4 Y217.019 E.0057
G1 X161.6 Y193.819 E.3003
G1 X161.6 Y193.196 E.0057
G1 X138.4 Y216.396 E.3003
G1 X138.4 Y215.773 E.0057
G1 X161.6 Y192.573 E.3003
G1 X161.6 Y191.951 E.0057
G1 X138.4 Y215.151 E.3003
G1 X138.4 Y214.528 E.0057
G1 X161.6 Y191.328 E.3003
G1 X161.6 Y190.705 E.0057
G1 X138.4 Y213.905 E.3003
G1 X138.4 Y213.283 E.0057
G1 X161.6 Y190.082 E.3003
G1 X161.6 Y189.46 E.0057
G1 X138.4 Y212.66 E.3003
G1 X138.4 Y212.037 E.0057
G1 X161.6 Y188.837 E.3003
G1 X161.6 Y188.214 E.0057
G1 X138.4 Y211.415 E.3003
G1 X138.4 Y210.792 E.0057
G1 X161.6 Y187.592 E.3003
G1 X161.6 Y186.969 E.0057
G1 X138.4 Y210.169 E.3003
G1 X138.4 Y209.546 E.0057
G1 X161.6 Y186.346 E.3003
G1 X161.6 Y185.724 E.0057
G1 X138.4 Y208.924 E.3003
G1 X138.4 Y208.301 E.0057
G1 X161.6 Y185.101 E.3003
G1 X161.6 Y184.478 E.0057
G1 X138.4 Y207.678 E.3003
G1 X138.4 Y207.056 E.0057
G1 X161.6 Y183.856 E.3003
G1 X161.6 Y183.233 E.0057
G1 X138.4 Y206.433 E.3003
G1 X138.4 Y205.81 E.0057
G1 X161.6 Y182.61 E.3003
G1 X161.6 Y181.988 E.0057
G1 X138.4 Y205.188 E.3003
G1 X138.4 Y204.565 E.0057
G1 X161.6 Y181.365 E.3003
G1 X161.6 Y180.742 E.0057
G1 X138.4 Y203.942 E.3003
G1 X138.4 Y203.32 E.0057
G1 X161.6 Y180.12 E.3003
G1 X161.6 Y179.497 E.0057
G1 X138.4 Y202.697 E.3003
G1 X138.4 Y202.074 E.0057
G1 X161.6 Y178.874 E.3003
G1 X161.6 Y178.252 E.0057
G1 X138.4 Y201.452 E.3003
G1 X138.4 Y200.829 E.0057
G1 X161.6 Y177.629 E.3003
G1 X161.6 Y177.006 E.0057
G1 X138.4 Y200.206 E.3003
G1 X138.4 Y199.584 E.0057
G1 X161.6 Y176.384 E.3003
G1 X161.6 Y175.761 E.0057
G1 X138.4 Y198.961 E.3003
G1 X138.4 Y198.338 E.0057
G1 X161.6 Y175.138 E.3003
G1 X161.6 Y174.515 E.0057
G1 X138.4 Y197.716 E.3003
G1 X138.4 Y197.093 E.0057
G1 X161.6 Y173.893 E.3003
G1 X161.6 Y173.27 E.0057
G1 X138.4 Y196.47 E.3003
G1 X138.4 Y195.847 E.0057
M73 P3 R450
G1 X161.6 Y172.647 E.3003
G1 X161.6 Y172.025 E.0057
G1 X138.4 Y195.225 E.3003
G1 X138.4 Y194.602 E.0057
G1 X161.6 Y171.402 E.3003
G1 X161.6 Y170.779 E.0057
G1 X138.4 Y193.979 E.3003
G1 X138.4 Y193.357 E.0057
G1 X161.6 Y170.157 E.3003
G1 X161.6 Y169.534 E.0057
M73 P3 R449
G1 X138.4 Y192.734 E.3003
G1 X138.4 Y192.111 E.0057
G1 X161.6 Y168.911 E.3003
G1 X161.6 Y168.289 E.0057
G1 X138.4 Y191.489 E.3003
G1 X138.4 Y190.866 E.0057
G1 X161.6 Y167.666 E.3003
G1 X161.6 Y167.043 E.0057
G1 X138.4 Y190.243 E.3003
G1 X138.4 Y189.621 E.0057
G1 X161.6 Y166.421 E.3003
G1 X161.6 Y165.798 E.0057
G1 X138.4 Y188.998 E.3003
G1 X138.4 Y188.375 E.0057
G1 X161.6 Y165.175 E.3003
G1 X161.6 Y164.553 E.0057
G1 X138.4 Y187.753 E.3003
G1 X138.4 Y187.13 E.0057
G1 X161.6 Y163.93 E.3003
G1 X161.6 Y163.307 E.0057
G1 X138.4 Y186.507 E.3003
G1 X138.4 Y185.885 E.0057
G1 X161.6 Y162.685 E.3003
G1 X161.6 Y162.062 E.0057
G1 X138.4 Y185.262 E.3003
G1 X138.4 Y184.639 E.0057
G1 X161.6 Y161.439 E.3003
G1 X161.6 Y160.816 E.0057
G1 X138.4 Y184.017 E.3003
G1 X138.4 Y183.394 E.0057
G1 X161.6 Y160.194 E.3003
G1 X161.6 Y159.571 E.0057
G1 X138.4 Y182.771 E.3003
G1 X138.4 Y182.149 E.0057
G1 X161.6 Y158.948 E.3003
G1 X161.6 Y158.326 E.0057
G1 X138.4 Y181.526 E.3003
G1 X138.4 Y180.903 E.0057
G1 X161.6 Y157.703 E.3003
G1 X161.6 Y157.08 E.0057
G1 X138.4 Y180.28 E.3003
G1 X138.4 Y179.658 E.0057
G1 X161.6 Y156.458 E.3003
G1 X161.6 Y155.835 E.0057
G1 X138.4 Y179.035 E.3003
G1 X138.4 Y178.412 E.0057
G1 X161.6 Y155.212 E.3003
G1 X161.6 Y154.59 E.0057
G1 X138.4 Y177.79 E.3003
G1 X138.4 Y177.167 E.0057
G1 X161.6 Y153.967 E.3003
G1 X161.6 Y153.344 E.0057
G1 X138.4 Y176.544 E.3003
G1 X138.4 Y175.922 E.0057
G1 X161.6 Y152.722 E.3003
G1 X161.6 Y152.099 E.0057
G1 X138.4 Y175.299 E.3003
G1 X138.4 Y174.676 E.0057
G1 X161.6 Y151.476 E.3003
G1 X161.6 Y150.854 E.0057
G1 X138.4 Y174.054 E.3003
G1 X138.4 Y173.431 E.0057
G1 X161.6 Y150.231 E.3003
G1 X161.6 Y149.608 E.0057
G1 X138.4 Y172.808 E.3003
