; generated by PrusaSlicer 2.4.0 on 2022-02-03 at 22:06:21 UTC


;
;

;
;
; 

; external perimeters extrusion width = 0.40mm
; perimeters extrusion width = 0.40mm
; infill extrusion width = 0.45mm
; solid infill extrusion width = 0.45mm
; top infill extrusion width = 0.40mm
; support material extrusion width = 0.30mm
; first layer extrusion width = 0.42mm

M73 P0 R159
M201 X1250 Y1250 Z400 E5000 ; sets maximum accelerations, mm/sec^2
M203 X180 Y180 Z12 E80 ; sets maximum feedrates, mm/sec
M204 P1250 R1250 T1250 ; sets acceleration (P, T) and retract acceleration (R), mm/sec^2
M205 X8.00 Y8.00 Z2.00 E10.00 ; sets the jerk limits, mm/sec
M205 S0 T0 ; sets the minimum extruding and travel feed rate, mm/sec
M107
;TYPE:Custom
G90 ; use absolute coordinates
M83 ; extruder relative mode
M104 S170 ; set extruder temp for bed leveling
M140 S60 ; set bed temp
M109 R170 ; wait for bed leveling temp
M190 S60 ; wait for bed temp
G28 ; home all without mesh bed level
G29 ; mesh bed leveling 
M104 S225 ; set extruder temp
G92 E0.0
G1 Y-2.0 X179 F2400
G1 Z3 F720
M109 S225 ; wait for extruder temp

; intro line
G1 X170 F1000
G1 Z0.2 F720
G1 X110.0 E8.0 F900
G1 X40.0 E10.0 F700
G92 E0.0

M221 S95 ; set flow
G21 ; set units to millimeters
G90 ; use absolute coordinates
M83 ; use relative distances for extrusion
M900 K0.2 ; Filament gcode LA 1.5
; ; Filament gcode LA 1.0
M107
;LAYER_CHANGE
;Z:0.2
;HEIGHT:0.2
;BEFORE_LAYER_CHANGE
G92 E0.0
;0.2


G1 Z.2 F9000
;AFTER_LAYER_CHANGE
;0.2
G1 E-3.2 F4200
G1 X131.163 Y132.05 F9000
G1 E3.2 F2400
M204 S800
;TYPE:Skirt/Brim
;WIDTH:0.42
G1 F1200
G1 X132.209 Y131.174 E.04278
G1 X133.149 Y130.98 E.03008
G1 X161.527 Y130.98 E.88976
G1 X162.834 Y131.372 E.04278
G1 X163.71 Y132.417 E.04278
G1 X163.904 Y133.357 E.03008
G1 X163.904 Y161.985 E.89762
G1 X163.512 Y163.292 E.04278
G1 X162.466 Y164.169 E.04278
G1 X161.527 Y164.362 E.03008
G1 X133.149 Y164.362 E.88976
G1 X131.842 Y163.971 E.04278
G1 X130.965 Y162.925 E.04278
G1 X130.772 Y161.985 E.03008
G1 X130.772 Y133.357 E.89762
G1 X131.146 Y132.107 E.0409
M204 S1250
; printing object Body id:0 copy 0
G1 E-2.24 F4200
;WIPE_START
G1 F7200
G1 X132.209 Y131.174 E-.78411
G1 X132.435 Y131.127 E-.12789
;WIPE_END
G1 E-.048 F4200
G1 X158.246 Y142.303 F9000
G1 E3.2 F2400
M204 S800
;TYPE:Support material interface
;WIDTH:0.3
G1 F1200
G1 X158.591 Y142.303 E.00737
G1 X158.591 Y133.357 E.19124
G1 X159.08 Y133.357 E.01046
G1 X159.08 Y142.303 E.19124
G1 X159.569 Y142.303 E.01046
G1 X159.569 Y133.357 E.19124
G1 X160.059 Y133.357 E.01046
G1 X160.059 Y142.303 E.19124
G1 X160.548 Y142.303 E.01046
G1 X160.548 Y133.357 E.19124
G1 X161.037 Y133.357 E.01046
G1 X161.037 Y142.303 E.19124
G1 X161.527 Y142.303 E.01046
G1 X161.527 Y133.357 E.19124
M204 S1250
G1 E-2.24 F4200
;WIPE_START
G1 F7200
G1 X161.527 Y135.003 E-.912
;WIPE_END
G1 E-.048 F4200
G1 X161.527 Y153.039 F9000
G1 E3.2 F2400
M204 S800
G1 F1200
G1 X161.527 Y161.985 E.19124
G1 X161.037 Y161.985 E.01046
G1 X161.037 Y153.039 E.19124
G1 X160.548 Y153.039 E.01046
G1 X160.548 Y161.985 E.19124
G1 X160.059 Y161.985 E.01046
G1 X160.059 Y153.039 E.19124
G1 X159.569 Y153.039 E.01046
G1 X159.569 Y161.985 E.19124
G1 X159.08 Y161.985 E.01046
G1 X159.08 Y153.039 E.19124
G1 X158.591 Y153.039 E.01046
G1 X158.591 Y161.985 E.19124
G1 X158.102 Y161.985 E.01046
G1 X158.102 Y153.039 E.19124
G1 X158.073 Y153.039 E.0006
G1 X158.073 Y142.303 E.22949
G1 X158.102 Y142.303 E.0006
G1 X158.102 Y133.357 E.19124
G1 X157.612 Y133.357 E.01046
G1 X157.612 Y161.985 E.61197
G1 X157.123 Y161.985 E.01046
G1 X157.123 Y133.357 E.61197
G1 X156.634 Y133.357 E.01046
G1 X156.634 Y161.985 E.61197
G1 X156.145 Y161.985 E.01046
G1 X156.145 Y133.357 E.61197
G1 X155.655 Y133.357 E.01046
G1 X155.655 Y161.985 E.61197
G1 X155.166 Y161.985 E.01046
G1 X155.166 Y133.357 E.61197
G1 X154.677 Y133.357 E.01046
M73 P0 R158
G1 X154.677 Y161.985 E.61197
G1 X154.187 Y161.985 E.01046
G1 X154.187 Y133.357 E.61197
G1 X153.698 Y133.357 E.01046
G1 X153.698 Y161.985 E.61197
G1 X153.209 Y161.985 E.01046
G1 X153.209 Y133.357 E.61197
G1 X152.72 Y133.357 E.01046
G1 X152.72 Y161.985 E.61197
G1 X152.23 Y161.985 E.01046
G1 X152.23 Y133.357 E.61197
G1 X151.741 Y133.357 E.01046
G1 X151.741 Y161.985 E.61197
G1 X151.252 Y161.985 E.01046
G1 X151.252 Y133.357 E.61197
G1 X150.763 Y133.357 E.01046
G1 X150.763 Y161.985 E.61197
G1 X150.273 Y161.985 E.01046
G1 X150.273 Y133.357 E.61197
G1 X149.784 Y133.357 E.01046
G1 X149.784 Y161.985 E.61197
G1 X149.295 Y161.985 E.01046
G1 X149.295 Y133.357 E.61197
G1 X148.806 Y133.357 E.01046
G1 X148.806 Y161.985 E.61197
G1 X148.316 Y161.985 E.01046
G1 X148.316 Y133.357 E.61197
G1 X147.827 Y133.357 E.01046
G1 X147.827 Y161.985 E.61197
G1 X147.338 Y161.985 E.01046
G1 X147.338 Y133.357 E.61197
G1 X146.848 Y133.357 E.01046
G1 X146.848 Y161.985 E.61197
G1 X146.359 Y161.985 E.01046
G1 X146.359 Y133.357 E.61197
G1 X145.87 Y133.357 E.01046
G1 X145.87 Y161.985 E.61197
G1 X145.381 Y161.985 E.01046
G1 X145.381 Y133.357 E.61197
G1 X144.891 Y133.357 E.01046
G1 X144.891 Y161.985 E.61197
G1 X144.402 Y161.985 E.01046
G1 X144.402 Y133.357 E.61197
G1 X143.913 Y133.357 E.01046
G1 X143.913 Y161.985 E.61197
G1 X143.424 Y161.985 E.01046
G1 X143.424 Y133.357 E.61197
G1 X142.934 Y133.357 E.01046
G1 X142.934 Y161.985 E.61197
G1 X142.445 Y161.985 E.01046
G1 X142.445 Y133.357 E.61197
G1 X141.956 Y133.357 E.01046
G1 X141.956 Y161.985 E.61197
G1 X141.466 Y161.985 E.01046
G1 X141.466 Y133.357 E.61197
G1 X140.977 Y133.357 E.01046
G1 X140.977 Y161.985 E.61197
G1 X140.488 Y161.985 E.01046
G1 X140.488 Y133.357 E.61197
G1 X139.999 Y133.357 E.01046
G1 X139.999 Y161.985 E.61197
G1 X139.509 Y161.985 E.01046
G1 X139.509 Y133.357 E.61197
G1 X139.02 Y133.357 E.01046
G1 X139.02 Y161.985 E.61197
G1 X138.531 Y161.985 E.01046
G1 X138.531 Y133.357 E.61197
G1 X138.042 Y133.357 E.01046
G1 X138.042 Y161.985 E.61197
G1 X137.552 Y161.985 E.01046
G1 X137.552 Y133.357 E.61197
G1 X137.063 Y133.357 E.01046
G1 X137.063 Y161.985 E.61197
G1 X136.574 Y161.985 E.01046
M73 P1 R158
G1 X136.574 Y133.357 E.61197
G1 X136.085 Y133.357 E.01046
G1 X136.085 Y161.985 E.61197
G1 X135.595 Y161.985 E.01046
G1 X135.595 Y133.357 E.61197
G1 X135.106 Y133.357 E.01046
G1 X135.106 Y161.985 E.61197
G1 X134.617 Y161.985 E.01046
M73 P1 R157
G1 X134.617 Y133.357 E.61197
G1 X134.127 Y133.357 E.01046
G1 X134.127 Y161.985 E.61197
G1 X133.638 Y161.985 E.01046
G1 X133.638 Y133.357 E.61197
G1 X133.149 Y133.357 E.01046
G1 X133.149 Y161.985 E.61197
M204 S1250
; stop printing object Body id:0 copy 0
M106 S84.15
;LAYER_CHANGE
;Z:0.35
;HEIGHT:0.15
;BEFORE_LAYER_CHANGE
G92 E0.0
;0.35


G1 Z.35 F9000
;AFTER_LAYER_CHANGE
;0.35
G1 E-3.2 F4200
G1 X131.404 Y163.448 F9000
G1 E3.2 F2400
;TYPE:Skirt/Brim
;WIDTH:0.42
G1 X130.965 Y162.925 E.0165
G1 X130.772 Y161.985 E.02321
G1 X130.772 Y133.357 E.69237
G1 X131.163 Y132.05 E.033
G1 X132.209 Y131.174 E.033
G1 X133.149 Y130.98 E.02321
G1 X161.527 Y130.98 E.68631
G1 X162.834 Y131.372 E.033
G1 X163.71 Y132.417 E.033
G1 X163.904 Y133.357 E.02321
G1 X163.904 Y161.985 E.69237
G1 X163.512 Y163.292 E.033
G1 X162.466 Y164.169 E.033
G1 X161.527 Y164.362 E.02321
G1 X133.149 Y164.362 E.68631
G1 X131.842 Y163.971 E.033
G1 X131.442 Y163.494 E.01505
; printing object Body id:0 copy 0
G1 E-2.24 F4200
;WIPE_START
G1 F7200
G1 X130.965 Y162.925 E-.41131
G1 X130.783 Y162.04 E-.50069
;WIPE_END
G1 E-.048 F4200
G1 X135.427 Y159.182 F9000
G1 E3.2 F2400
M204 S300
;TYPE:Perimeter
;WIDTH:0.4
;HEIGHT:0.05
G1 F1800
G1 X135.427 Y135.76 E.18953
G1 X159.248 Y135.76 E.19276
G1 X159.248 Y139.582 E.03092
G1 X149.248 Y139.582 E.08092
G1 X149.248 Y145.76 E.05
G1 X154.248 Y145.76 E.04046
G1 X154.248 Y149.582 E.03092
G1 X149.248 Y149.582 E.04046
G1 X149.248 Y155.76 E.05
G1 X159.248 Y155.76 E.08092
G1 X159.248 Y159.582 E.03092
G1 X135.427 Y159.582 E.19276
G1 X135.427 Y159.242 E.00275
M204 S1250
G1 X135.038 Y159.971 F9000
M204 S300
;TYPE:External perimeter
G1 F1800
G1 X135.038 Y135.371 E.19906
G1 X159.638 Y135.371 E.19906
G1 X159.638 Y139.971 E.03722
G1 X149.638 Y139.971 E.08092
G1 X149.638 Y145.371 E.0437
G1 X154.638 Y145.371 E.04046
G1 X154.638 Y149.971 E.03722
G1 X149.638 Y149.971 E.04046
G1 X149.638 Y155.371 E.0437
G1 X159.638 Y155.371 E.08092
G1 X159.638 Y159.971 E.03722
G1 X135.098 Y159.971 E.19858
M204 S1250
G1 X135.216 Y159.613 F9000
G1 E-2.24 F4200
;WIPE_START
G1 F7200
G1 X135.094 Y158.325 E-.912
;WIPE_END
G1 E-.048 F4200
G1 X158.246 Y159.469 F9000
G1 E3.2 F2400
M204 S1000
;TYPE:Solid infill
;WIDTH:0.450612
G1 F1800
G1 X158.938 Y158.777 E.00894
G1 X158.938 Y158.155 E.00569
G1 X157.822 Y159.271 E.01443
G1 X157.2 Y159.271 E.00569
G1 X158.938 Y157.533 E.02248
G1 X158.938 Y156.911 E.00569
G1 X156.578 Y159.271 E.03052
G1 X155.955 Y159.271 E.00569
G1 X158.938 Y156.289 E.03857
G1 X158.938 Y156.071 E.00199
G1 X158.533 Y156.071 E.0037
G1 X155.333 Y159.271 E.04138
G1 X154.711 Y159.271 E.00569
G1 X157.911 Y156.071 E.04138
G1 X157.289 Y156.071 E.00569
G1 X154.089 Y159.271 E.04138
G1 X153.467 Y159.271 E.00569
G1 X156.667 Y156.071 E.04138
G1 X156.045 Y156.071 E.00569
G1 X152.845 Y159.271 E.04138
G1 X152.223 Y159.271 E.00569
G1 X155.423 Y156.071 E.04138
G1 X154.801 Y156.071 E.00569
G1 X151.601 Y159.271 E.04138
G1 X150.979 Y159.271 E.00569
G1 X154.179 Y156.071 E.04138
G1 X153.557 Y156.071 E.00569
G1 X150.357 Y159.271 E.04138
G1 X149.735 Y159.271 E.00569
G1 X152.935 Y156.071 E.04138
G1 X152.313 Y156.071 E.00569
G1 X149.113 Y159.271 E.04138
G1 X148.49 Y159.271 E.00569
G1 X151.69 Y156.071 E.04138
G1 X151.068 Y156.071 E.00569
G1 X147.868 Y159.271 E.04138
G1 X147.246 Y159.271 E.00569
G1 X150.446 Y156.071 E.04138
G1 X149.824 Y156.071 E.00569
G1 X146.624 Y159.271 E.04138
G1 X146.002 Y159.271 E.00569
G1 X149.202 Y156.071 E.04138
G1 X148.938 Y156.071 E.00242
G1 X148.938 Y155.713 E.00327
G1 X145.38 Y159.271 E.04601
G1 X144.758 Y159.271 E.00569
G1 X148.938 Y155.091 E.05405
G1 X148.938 Y154.469 E.00569
G1 X144.136 Y159.271 E.0621
G1 X143.514 Y159.271 E.00569
G1 X148.938 Y153.847 E.07014
G1 X148.938 Y153.225 E.00569
G1 X142.892 Y159.271 E.07819
G1 X142.27 Y159.271 E.00569
G1 X148.938 Y152.603 E.08623
G1 X148.938 Y151.981 E.00569
G1 X141.647 Y159.271 E.09428
G1 X141.025 Y159.271 E.00569
G1 X148.938 Y151.359 E.10232
G1 X148.938 Y150.737 E.00569
G1 X140.403 Y159.271 E.11036
G1 X139.781 Y159.271 E.00569
G1 X149.135 Y149.917 E.12097
M204 S1250
G1 E-2.24 F4200
;WIPE_START
G1 F7200
G1 X147.972 Y151.081 E-.912
;WIPE_END
G1 E-.048 F4200
G1 X153.316 Y149.469 F9000
G1 E3.2 F2400
M204 S1000
G1 F1800
G1 X153.938 Y148.847 E.00804
G1 X153.938 Y148.225 E.00569
G1 X152.892 Y149.271 E.01353
G1 X152.27 Y149.271 E.00569
G1 X153.938 Y147.603 E.02157
G1 X153.938 Y146.981 E.00569
G1 X151.647 Y149.271 E.02962
G1 X151.025 Y149.271 E.00569
G1 X153.938 Y146.359 E.03766
G1 X153.938 Y146.071 E.00263
G1 X153.603 Y146.071 E.00306
G1 X150.403 Y149.271 E.04138
G1 X149.781 Y149.271 E.00569
G1 X152.981 Y146.071 E.04138
G1 X152.359 Y146.071 E.00569
G1 X139.159 Y159.271 E.1707
G1 X138.537 Y159.271 E.00569
G1 X151.737 Y146.071 E.1707
G1 X151.115 Y146.071 E.00569
G1 X137.915 Y159.271 E.1707
G1 X137.293 Y159.271 E.00569
G1 X150.493 Y146.071 E.1707
G1 X149.871 Y146.071 E.00569
G1 X136.671 Y159.271 E.1707
G1 X136.049 Y159.271 E.00569
G1 X149.249 Y146.071 E.1707
G1 X148.938 Y146.071 E.00284
G1 X148.938 Y145.76 E.00284
G1 X135.738 Y158.96 E.1707
G1 X135.738 Y158.338 E.00569
G1 X148.938 Y145.138 E.1707
G1 X148.938 Y144.516 E.00569
G1 X135.738 Y157.716 E.1707
G1 X135.738 Y157.094 E.00569
G1 X148.938 Y143.894 E.1707
G1 X148.938 Y143.272 E.00569
G1 X135.738 Y156.472 E.1707
G1 X135.738 Y155.85 E.00569
G1 X148.938 Y142.65 E.1707
G1 X148.938 Y142.028 E.00569
G1 X135.738 Y155.228 E.1707
G1 X135.738 Y154.606 E.00569
G1 X148.938 Y141.405 E.1707
G1 X148.938 Y140.783 E.00569
G1 X135.738 Y153.983 E.1707
G1 X135.738 Y153.361 E.00569
G1 X149.135 Y139.964 E.17326
M204 S1250
G1 E-2.24 F4200
;WIPE_START
G1 F7200
G1 X147.972 Y141.127 E-.912
;WIPE_END
G1 E-.048 F4200
G1 X158.339 Y139.469 F9000
G1 E3.2 F2400
M204 S1000
G1 F1800
G1 X158.938 Y138.871 E.00774
G1 X158.938 Y138.248 E.00569
G1 X157.915 Y139.271 E.01323
G1 X157.293 Y139.271 E.00569
G1 X158.938 Y137.626 E.02127
G1 X158.938 Y137.004 E.00569
G1 X156.671 Y139.271 E.02932
G1 X156.049 Y139.271 E.00569
G1 X158.938 Y136.382 E.03736
G1 X158.938 Y136.071 E.00284
G1 X158.627 Y136.071 E.00284
G1 X155.427 Y139.271 E.04138
G1 X154.805 Y139.271 E.00569
G1 X158.005 Y136.071 E.04138
G1 X157.383 Y136.071 E.00569
G1 X154.182 Y139.271 E.04138
G1 X153.56 Y139.271 E.00569
G1 X156.76 Y136.071 E.04138
G1 X156.138 Y136.071 E.00569
G1 X152.938 Y139.271 E.04138
G1 X152.316 Y139.271 E.00569
G1 X155.516 Y136.071 E.04138
G1 X154.894 Y136.071 E.00569
G1 X151.694 Y139.271 E.04138
G1 X151.072 Y139.271 E.00569
G1 X154.272 Y136.071 E.04138
G1 X153.65 Y136.071 E.00569
G1 X150.45 Y139.271 E.04138
G1 X149.828 Y139.271 E.00569
G1 X153.028 Y136.071 E.04138
G1 X152.406 Y136.071 E.00569
G1 X135.738 Y152.739 E.21555
G1 X135.738 Y152.117 E.00569
G1 X151.784 Y136.071 E.2075
G1 X151.162 Y136.071 E.00569
G1 X135.738 Y151.495 E.19946
G1 X135.738 Y150.873 E.00569
G1 X150.54 Y136.071 E.19141
G1 X149.917 Y136.071 E.00569
G1 X135.738 Y150.251 E.18337
G1 X135.738 Y149.629 E.00569
G1 X149.295 Y136.071 E.17532
G1 X148.673 Y136.071 E.00569
G1 X135.738 Y149.007 E.16728
G1 X135.738 Y148.385 E.00569
G1 X148.051 Y136.071 E.15923
G1 X147.429 Y136.071 E.00569
G1 X135.738 Y147.763 E.15119
G1 X135.738 Y147.14 E.00569
G1 X146.807 Y136.071 E.14315
G1 X146.185 Y136.071 E.00569
G1 X135.738 Y146.518 E.1351
G1 X135.738 Y145.896 E.00569
G1 X145.563 Y136.071 E.12706
G1 X144.941 Y136.071 E.00569
G1 X135.738 Y145.274 E.11901
G1 X135.738 Y144.652 E.00569
G1 X144.319 Y136.071 E.11097
G1 X143.697 Y136.071 E.00569
G1 X135.738 Y144.03 E.10292
G1 X135.738 Y143.408 E.00569
G1 X143.074 Y136.071 E.09488
G1 X142.452 Y136.071 E.00569
G1 X135.738 Y142.786 E.08683
G1 X135.738 Y142.164 E.00569
G1 X141.83 Y136.071 E.07879
G1 X141.208 Y136.071 E.00569
G1 X135.738 Y141.542 E.07074
G1 X135.738 Y140.92 E.00569
G1 X140.586 Y136.071 E.0627
G1 X139.964 Y136.071 E.00569
G1 X135.738 Y140.298 E.05465
G1 X135.738 Y139.675 E.00569
G1 X139.342 Y136.071 E.04661
G1 X138.72 Y136.071 E.00569
G1 X135.738 Y139.053 E.03857
G1 X135.738 Y138.431 E.00569
G1 X138.098 Y136.071 E.03052
G1 X137.476 Y136.071 E.00569
G1 X135.738 Y137.809 E.02248
G1 X135.738 Y137.187 E.00569
G1 X136.854 Y136.071 E.01443
G1 X136.232 Y136.071 E.00569
G1 X135.54 Y136.763 E.00894
M204 S1250
; stop printing object Body id:0 copy 0
M106 S170.85
;LAYER_CHANGE
;Z:0.4
;HEIGHT:0.05
;BEFORE_LAYER_CHANGE
G92 E0.0
;0.4


G1 Z.4 F9000
;AFTER_LAYER_CHANGE
;0.4
G1 E-3.2 F4200
G1 X130.772 Y136.763 F9000
G1 E3.2 F2400
;TYPE:Skirt/Brim
;WIDTH:0.42
G1 X130.772 Y133.357 E.02897
G1 X131.163 Y132.05 E.01161
G1 X132.209 Y131.174 E.01161
G1 X133.149 Y130.98 E.00816
G1 X161.527 Y130.98 E.24143
G1 X162.834 Y131.372 E.01161
G1 X163.71 Y132.417 E.01161
G1 X163.904 Y133.357 E.00816
G1 X163.904 Y161.985 E.24356
G1 X163.512 Y163.292 E.01161
G1 X162.466 Y164.169 E.01161
G1 X161.527 Y164.362 E.00816
G1 X133.149 Y164.362 E.24143
G1 X131.842 Y163.971 E.01161
G1 X130.965 Y162.925 E.01161
G1 X130.772 Y161.985 E.00816
G1 X130.772 Y136.823 E.21408
; printing object Body id:0 copy 0
G1 E-2.24 F4200
;WIPE_START
G1 F7200
G1 X130.772 Y135.177 E-.912
;WIPE_END
G1 E-.048 F4200
G1 X149.248 Y139.593 F9000
G1 E3.2 F2400
M204 S300
;TYPE:Perimeter
;WIDTH:0.4
M73 P1 R156
G1 F3600
G1 X149.248 Y145.76 E.04991
G1 X154.248 Y145.76 E.04046
G1 X154.248 Y149.582 E.03092
G1 X149.248 Y149.582 E.04046
G1 X149.248 Y155.76 E.05
G1 X159.248 Y155.76 E.08092
G1 X159.248 Y159.582 E.03092
G1 X135.427 Y159.582 E.19276
G1 X135.427 Y135.76 E.19276
G1 X159.248 Y135.76 E.19276
G1 X159.248 Y139.582 E.03092
G1 X149.298 Y139.582 E.08052
M204 S1250
G1 X149.638 Y139.971 F9000
M204 S300
;TYPE:External perimeter
G1 F3600
G1 X149.638 Y145.371 E.0437
G1 X154.638 Y145.371 E.04046
G1 X154.638 Y149.971 E.03722
G1 X149.638 Y149.971 E.04046
G1 X149.638 Y155.371 E.0437
G1 X159.638 Y155.371 E.08092
G1 X159.638 Y159.971 E.03722
G1 X135.038 Y159.971 E.19906
G1 X135.038 Y135.371 E.19906
